; HEADER_BLOCK_START
; generated by OrcaSlicer 1.7.0 on 2023-12-29 at 11:44:06
; total layer number: 239
; HEADER_BLOCK_END

; THUMBNAIL_BLOCK_START
; THUMBNAIL_BLOCK_END

; external perimeters extrusion width = 0.40mm
; perimeters extrusion width = 0.45mm
; infill extrusion width = 0.45mm
; solid infill extrusion width = 0.40mm
; top infill extrusion width = 0.40mm
; first layer extrusion width = 0.50mm

; EXECUTABLE_BLOCK_START
EXCLUDE_OBJECT_DEFINE NAME=3DBenchy.stl_id_0_copy_0 CENTER=110,110 POLYGON=[[79.9995,100.816],[80.0025,100.755],[80.0065,100.699],[80.0115,100.646],[80.0135,100.63],[80.0195,100.583],[80.0285,100.525],[80.0455,100.436],[80.0585,100.379],[80.0735,100.322],[80.0805,100.296],[80.0975,100.239],[80.1265,100.155],[80.1405,100.118],[80.1625,100.064],[80.1695,100.047],[80.1855,100.01],[80.2095,99.958],[80.2305,99.916],[80.2635,99.854],[80.2785,99.827],[80.2905,99.806],[80.3395,99.727],[80.3575,99.7],[80.3715,99.679],[80.4055,99.631],[80.4405,99.584],[80.4835,99.531],[80.5085,99.501],[80.5385,99.466],[80.5785,99.423],[80.5925,99.408],[80.6005,99.4],[80.6415,99.359],[80.6615,99.34],[80.7045,99.3],[80.7375,99.271],[80.7825,99.234],[80.7935,99.225],[80.8285,99.197],[80.8865,99.154],[80.9345,99.121],[80.9785,99.092],[81.0445,99.052],[81.0715,99.036],[81.1235,99.008],[81.1485,98.995],[81.1755,98.981],[81.1975,98.97],[81.2535,98.944],[81.3115,98.919],[81.3615,98.899],[81.4165,98.879],[81.4285,98.875],[81.4715,98.861],[81.4845,98.857],[81.5405,98.84],[81.5475,98.838],[81.5845,98.828],[81.5965,98.825],[81.6245,98.818],[81.6405,98.814],[81.7105,98.799],[81.7395,98.794],[81.7685,98.789],[81.7975,98.784],[109.812,94.886],[110.055,94.853],[110.299,94.821],[110.543,94.791],[110.882,94.752],[111.105,94.728],[111.35,94.702],[111.596,94.678],[111.842,94.656],[112.087,94.635],[112.253,94.622],[112.333,94.616],[112.523,94.602],[112.579,94.598],[112.826,94.581],[112.987,94.571],[113.071,94.566],[113.233,94.557],[113.489,94.544],[113.597,94.539],[113.619,94.538],[113.755,94.532],[113.906,94.526],[114.05,94.521],[114.167,94.517],[114.233,94.515],[114.342,94.512],[114.46,94.509],[114.548,94.507],[114.689,94.504],[114.881,94.501],[115.062,94.499],[115.18,94.498],[115.578,94.498],[115.934,94.5],[116.369,94.508],[116.45,94.51],[116.805,94.52],[116.912,94.524],[117.24,94.537],[117.676,94.558],[118.009,94.578],[118.092,94.583],[118.203,94.59],[118.375,94.602],[118.495,94.611],[118.641,94.622],[118.728,94.629],[118.909,94.644],[119.039,94.655],[119.832,94.78],[119.841,94.782],[120.269,94.888],[120.377,94.915],[120.595,94.97],[120.737,95.007],[120.813,95.027],[120.967,95.068],[121.248,95.145],[121.424,95.195],[121.68,95.27],[121.896,95.334],[122.11,95.4],[122.332,95.47],[122.558,95.543],[122.752,95.607],[123.008,95.694],[123.178,95.753],[123.232,95.772],[123.4,95.832],[123.601,95.905],[123.822,95.987],[124.033,96.067],[124.233,96.145],[124.343,96.188],[124.443,96.228],[124.453,96.232],[124.662,96.316],[124.871,96.402],[124.926,96.425],[125.134,96.513],[125.341,96.603],[125.547,96.693],[125.957,96.879],[126.16,96.974],[126.363,97.07],[126.565,97.168],[126.766,97.267],[126.967,97.367],[127.166,97.469],[127.366,97.572],[127.563,97.677],[127.762,97.783],[127.957,97.89],[128.153,97.999],[128.348,98.11],[128.543,98.221],[128.737,98.334],[128.93,98.449],[129.123,98.565],[129.314,98.683],[129.505,98.801],[129.696,98.922],[129.885,99.043],[130.075,99.167],[130.262,99.291],[130.451,99.417],[130.637,99.544],[130.824,99.673],[131.008,99.803],[131.193,99.934],[131.376,100.067],[131.56,100.201],[131.743,100.337],[131.923,100.474],[132.104,100.612],[132.284,100.752],[132.463,100.893],[132.642,101.036],[132.82,101.18],[132.998,101.325],[133.173,101.472],[133.523,101.77],[133.697,101.921],[133.87,102.074],[134.042,102.228],[134.214,102.384],[134.328,102.489],[134.498,102.645],[134.665,102.803],[134.832,102.962],[134.996,103.122],[135.161,103.283],[135.325,103.445],[135.486,103.609],[135.647,103.773],[135.807,103.939],[135.966,104.106],[136.124,104.274],[136.282,104.443],[136.438,104.614],[136.592,104.785],[136.745,104.958],[136.898,105.132],[137.05,105.306],[137.201,105.483],[137.349,105.66],[137.499,105.838],[137.645,106.017],[137.791,106.198],[137.936,106.38],[138.081,106.563],[138.223,106.747],[138.364,106.932],[138.505,107.118],[138.645,107.305],[138.784,107.493],[138.921,107.683],[139.056,107.874],[139.192,108.065],[139.326,108.258],[139.458,108.452],[139.589,108.647],[139.618,108.692],[139.651,108.745],[139.682,108.798],[139.713,108.852],[139.742,108.907],[139.769,108.962],[139.819,109.076],[139.834,109.117],[139.856,109.175],[139.876,109.233],[139.895,109.292],[139.912,109.351],[139.929,109.413],[139.943,109.47],[139.954,109.53],[139.966,109.593],[139.975,109.652],[139.984,109.713],[139.991,109.774],[139.995,109.836],[139.999,109.905],[140,109.966],[140,110.027],[139.999,110.088],[139.996,110.149],[139.992,110.209],[139.986,110.27],[139.977,110.331],[139.968,110.391],[139.958,110.449],[139.945,110.512],[139.932,110.569],[139.916,110.632],[139.901,110.686],[139.883,110.745],[139.863,110.803],[139.842,110.861],[139.82,110.918],[139.797,110.974],[139.771,111.03],[139.744,111.086],[139.716,111.14],[139.686,111.194],[139.655,111.248],[139.624,111.301],[139.589,111.353],[139.472,111.527],[139.339,111.721],[139.206,111.914],[139.071,112.106],[138.936,112.297],[138.797,112.487],[138.659,112.676],[138.52,112.864],[138.38,113.05],[138.237,113.236],[138.095,113.42],[137.951,113.604],[137.659,113.968],[137.51,114.148],[137.361,114.328],[137.21,114.506],[137.06,114.683],[136.907,114.86],[136.752,115.035],[136.597,115.209],[136.482,115.337],[136.326,115.509],[136.167,115.68],[136.008,115.85],[135.848,116.018],[135.688,116.186],[135.526,116.352],[135.2,116.68],[135.034,116.841],[134.869,117.002],[134.703,117.161],[134.535,117.319],[134.368,117.475],[134.199,117.63],[134.028,117.784],[133.857,117.937],[133.686,118.089],[133.512,118.239],[133.338,118.388],[133.164,118.536],[132.987,118.682],[132.811,118.827],[132.632,118.971],[132.454,119.114],[132.275,119.256],[132.093,119.396],[131.911,119.535],[131.728,119.673],[131.544,119.81],[131.359,119.945],[131.173,120.08],[130.799,120.344],[130.611,120.474],[130.421,120.603],[130.23,120.731],[130.039,120.857],[129.846,120.982],[129.653,121.106],[129.458,121.228],[129.263,121.349],[129.067,121.469],[128.869,121.587],[128.672,121.704],[128.472,121.819],[128.272,121.934],[128.072,122.046],[127.87,122.158],[127.595,122.307],[127.395,122.412],[127.196,122.516],[126.996,122.618],[126.796,122.719],[126.595,122.818],[126.392,122.916],[126.19,123.012],[125.987,123.107],[125.783,123.2],[125.579,123.292],[125.374,123.383],[125.169,123.472],[124.963,123.559],[124.756,123.645],[124.666,123.682],[124.549,123.73],[124.341,123.813],[124.122,123.898],[124.003,123.944],[123.704,124.057],[123.493,124.134],[123.293,124.206],[123.071,124.284],[122.884,124.348],[122.869,124.353],[122.656,124.424],[122.443,124.494],[122.206,124.57],[122.005,124.632],[121.979,124.64],[121.751,124.709],[121.523,124.776],[121.295,124.841],[121.142,124.884],[121.066,124.905],[120.924,124.943],[120.706,125.001],[120.606,125.027],[120.488,125.057],[120.269,125.112],[119.843,125.218],[119.316,125.319],[119.306,125.32],[119.05,125.344],[119.003,125.348],[118.81,125.364],[118.725,125.371],[118.561,125.384],[118.481,125.39],[118.134,125.414],[117.688,125.441],[117.649,125.443],[117.264,125.462],[117.126,125.468],[116.778,125.481],[116.564,125.487],[116.343,125.493],[115.907,125.5],[115.521,125.502],[115.177,125.502],[114.877,125.499],[114.821,125.498],[114.599,125.494],[114.456,125.491],[114.338,125.488],[114.166,125.483],[114.076,125.48],[113.93,125.475],[113.752,125.468],[113.728,125.467],[113.57,125.46],[113.462,125.455],[113.332,125.448],[113.133,125.437],[112.889,125.423],[112.644,125.407],[112.629,125.406],[112.342,125.385],[112.096,125.366],[111.849,125.345],[111.667,125.328],[111.603,125.322],[111.423,125.305],[111.179,125.28],[111.111,125.273],[110.935,125.254],[110.619,125.218],[110.373,125.188],[110.204,125.166],[109.882,125.124],[81.8275,121.22],[81.7925,121.215],[81.7425,121.207],[81.6855,121.196],[81.6535,121.189],[81.5965,121.175],[81.5845,121.172],[81.5475,121.162],[81.5365,121.159],[81.4805,121.142],[81.4285,121.125],[81.4165,121.121],[81.3615,121.101],[81.3115,121.081],[81.2535,121.056],[81.1975,121.03],[81.1555,121.009],[81.1045,120.982],[81.0865,120.972],[81.0445,120.948],[80.9925,120.917],[80.9785,120.908],[80.9435,120.885],[80.9345,120.879],[80.8865,120.846],[80.8475,120.817],[80.8395,120.811],[80.7935,120.775],[80.7555,120.744],[80.7485,120.738],[80.7045,120.7],[80.6615,120.66],[80.6405,120.64],[80.5925,120.592],[80.5575,120.555],[80.5385,120.534],[80.5185,120.511],[80.4805,120.466],[80.4445,120.42],[80.4305,120.402],[80.4095,120.374],[80.4065,120.37],[80.3725,120.322],[80.3575,120.3],[80.3425,120.278],[80.3085,120.224],[80.2785,120.173],[80.2505,120.122],[80.2305,120.084],[80.2185,120.06],[80.1955,120.012],[80.1695,119.954],[80.1485,119.903],[80.1275,119.849],[80.1085,119.793],[80.1075,119.79],[80.0905,119.738],[80.0745,119.682],[80.0595,119.625],[80.0455,119.564],[80.0345,119.507],[80.0255,119.454],[80.0245,119.448],[80.0165,119.396],[80.0115,119.353],[80.0085,119.325],[80.0025,119.245],[80.0005,119.208],[79.9995,119.179],[79.9995,100.816]]
M73 P0 R89
;TYPE:Custom
START_PRINT EXTRUDER_TEMP=255  BED_TEMP=80
G90
G21
M83 ; use relative distances for extrusion
; filament start gcode
M106 S0
;LAYER_CHANGE
;Z:0.3
;HEIGHT:0.3
;BEFORE_LAYER_CHANGE
;0.3
G92 E0

G1 E-2.5 F3600
;_SET_FAN_SPEED_CHANGING_LAYER
; printing object 3DBenchy.stl id:0 copy 0
EXCLUDE_OBJECT_START NAME=3DBenchy.stl_id_0_copy_0
G1 X114.022 Y116.436 F30000
G1 Z.4
G1 Z.3
G1 E2.5 F3600
;TYPE:Inner wall
;WIDTH:0.5
G1 F900
G1 X114.461 Y116.179 E.02624
G1 X114.772 Y115.894 E.0218
G1 X115.09 Y115.461 E.02774
G1 X115.343 Y114.976 E.02821
G1 X116.136 Y112.92 E.11374
G1 X116.229 Y113.256 E.01801
G1 X116.477 Y113.669 E.02487
G1 X116.787 Y113.961 E.022
G1 X117.132 Y114.121 E.01961
G1 X117.381 Y114.187 E.0133
G1 X117.713 Y114.222 E.01725
G1 X118.416 Y114.196 E.03628
G1 X117.776 Y114.658 E.04073
G1 X117.289 Y114.97 E.02982
G1 X116.681 Y115.322 E.03627
G1 X115.894 Y115.72 E.04555
G1 X115.052 Y116.079 E.04725
G1 X114.06 Y116.423 E.05418
G1 E-1.75 F3600
;WIPE_START
G1 F900
G1 X114.461 Y116.179 E-.70369
G1 X114.484 Y116.158 E-.04631
;WIPE_END
G1 X107.134 Y114.1 Z.7 F30000
G1 X104.993 Y113.5 Z.7
G1 Z.3
G1 E2.5 F3600
G1 F900
G1 X105.272 Y113.867 E.02382
G1 X105.866 Y114.271 E.03708
G1 X106.265 Y114.417 E.02192
G1 X106.725 Y114.483 E.02397
G1 X107.362 Y114.393 E.03322
G1 X107.708 Y114.259 E.01914
G1 X108.17 Y113.945 E.02886
G1 X108.549 Y114.122 E.02156
G1 X108.993 Y114.197 E.02326
G1 X109.387 Y114.163 E.02042
G1 X109.792 Y113.991 E.02269
G1 X110.095 Y113.742 E.02024
G1 X110.492 Y114.045 E.0258
G1 X111.001 Y114.207 E.02756
G1 X111.44 Y114.184 E.02273
G1 X111.289 Y114.425 E.01471
G1 X111.165 Y114.96 E.02835
G1 X111.213 Y115.412 E.02345
G1 X111.383 Y115.859 E.02467
G1 X111.749 Y116.331 E.03082
G1 X111.974 Y116.497 E.01443
G1 X112.452 Y116.695 E.0267
G1 X112.963 Y116.717 E.02643
G1 X111.585 Y116.928 E.07198
G1 X110.735 Y116.997 E.04401
G1 X109.831 Y117.012 E.04664
G1 X109.191 Y116.987 E.03309
G1 X86.735 Y115.614 E1.16123
G1 X85.662 Y115.524 E.05561
G1 X85.42 Y115.383 E.01444
G1 X85.302 Y115.201 E.01122
G1 X85.225 Y114.823 E.0199
G1 X85.226 Y113.298 E.07869
G1 X85.61 Y113.606 E.02538
G1 X86.104 Y113.874 E.02903
G1 X86.36 Y113.973 E.01414
G1 X87.193 Y114.156 E.04404
G1 X87.942 Y114.158 E.03867
G1 X88.598 Y114.046 E.03434
G1 X89.107 Y113.864 E.02788
G1 X89.594 Y113.561 E.02961
G1 X89.954 Y113.222 E.02553
G1 X90.193 Y112.859 E.02245
;WIDTH:0.546966
G1 X90.337 Y112.617 E.01609
;WIDTH:0.593933
G1 X90.481 Y112.375 E.01766
;WIDTH:0.620999
G1 X90.548 Y112.095 E.01902
;WIDTH:0.65348
G1 X90.515 Y111.63 E.03251
G1 X90.444 Y111.515 E.00943
;WIDTH:0.61511
G1 X90.373 Y111.4 E.00882
;WIDTH:0.57674
G1 X90.302 Y111.285 E.0082
;WIDTH:0.53837
G1 X90.231 Y111.17 E.00759
;WIDTH:0.5
G1 X89.819 Y110.746 E.03053
G1 X89.543 Y110.583 E.01653
G1 X89.258 Y110.494 E.01543
G1 X88.658 Y110.424 E.03118
G1 X88.418 Y110.465 E.01259
G1 X87.866 Y110.713 E.03121
G1 X87.626 Y110.919 E.01634
G1 X87.539 Y110.919 E.00449
G1 X87.353 Y110.856 E.01014
G1 X87.217 Y110.437 E.02275
G1 X87.185 Y109.937 E.02587
G1 X87.229 Y109.421 E.02672
G1 X87.368 Y109.059 E.02002
G1 X87.507 Y109.012 E.00756
G1 X88.057 Y109.315 E.03245
G1 X88.372 Y109.429 E.01726
G1 X88.952 Y109.518 E.03033
G1 X89.209 Y109.483 E.01336
G1 X89.661 Y109.305 E.02508
G1 X90.068 Y108.956 E.02766
G1 X90.522 Y109.122 E.02495
G1 X91.161 Y109.157 E.03303
G1 X91.172 Y110.848 E.08728
;WIDTH:0.53837
G1 X91.154 Y111.03 E.01029
;WIDTH:0.57674
G1 X91.135 Y111.212 E.01112
;WIDTH:0.61511
G1 X91.117 Y111.395 E.01196
;WIDTH:0.65348
G1 X91.099 Y111.577 E.01279
G1 X91.113 Y111.911 E.02332
;WIDTH:0.629305
G1 X91.095 Y112.492 E.03889
;WIDTH:0.593933
G1 X91.189 Y112.819 E.02135
;WIDTH:0.546966
G1 X91.282 Y113.146 E.01946
;WIDTH:0.5
G1 X91.47 Y113.475 E.01952
G1 X91.817 Y113.768 E.02345
G1 X92.22 Y113.951 E.02284
G1 X92.636 Y114.03 E.02185
G1 X93.075 Y113.991 E.02274
G1 X93.451 Y113.868 E.02045
G1 X93.818 Y113.623 E.02278
G1 X94.07 Y113.33 E.01991
G1 X94.215 Y113.021 E.01765
;WIDTH:0.53523
G1 X94.279 Y112.842 E.01061
;WIDTH:0.570461
G1 X94.344 Y112.663 E.01141
;WIDTH:0.605692
G1 X94.409 Y112.484 E.0122
;WIDTH:0.633021
G1 X94.422 Y112.204 E.01889
;WIDTH:0.66035
G1 X94.436 Y111.924 E.0198
G1 X94.414 Y111.822 E.00739
;WIDTH:0.620262
G1 X94.392 Y111.719 E.00689
;WIDTH:0.580175
G1 X94.37 Y111.617 E.00639
;WIDTH:0.540087
G1 X94.348 Y111.515 E.0059
;WIDTH:0.5
G1 X94.347 Y109.124 E.12339
G1 X94.669 Y109.109 E.01664
G1 X95.335 Y108.97 E.03511
G1 X95.569 Y108.841 E.01379
G1 X95.881 Y109.1 E.02095
G1 X95.783 Y109.641 E.02836
G1 X95.784 Y110.025 E.01986
G1 X95.903 Y110.402 E.02038
G1 X96.09 Y110.683 E.01743
G1 X95.943 Y110.743 E.00822
G1 X95.562 Y111.027 E.02451
G1 X95.184 Y111.614 E.03605
;WIDTH:0.540087
G1 X95.144 Y111.705 E.00559
;WIDTH:0.580175
G1 X95.105 Y111.796 E.00606
;WIDTH:0.620262
G1 X95.065 Y111.887 E.00654
;WIDTH:0.66035
G1 X95.026 Y111.978 E.00701
G1 X95.013 Y112.299 E.02268
;WIDTH:0.643339
G1 X95.058 Y112.422 E.009
;WIDTH:0.600339
G1 X95.103 Y112.545 E.00833
;WIDTH:0.557339
G1 X95.148 Y112.669 E.00766
;WIDTH:0.51434
G1 X95.373 Y113.144 E.02803
;WIDTH:0.5
G1 X95.559 Y113.393 E.01608
G1 X96.01 Y113.752 E.02973
G1 X96.364 Y113.933 E.02053
G1 X97.175 Y114.142 E.04323
G1 X97.795 Y114.175 E.03203
G1 X98.324 Y114.135 E.02737
G1 X98.872 Y113.999 E.02915
G1 X99.445 Y113.725 E.03281
G1 X99.91 Y113.362 E.03043
G1 X100.153 Y113.095 E.01862
G1 X100.325 Y113.395 E.01787
G1 X100.716 Y113.799 E.02902
G1 X101.139 Y113.975 E.02364
G1 X101.52 Y114.036 E.01993
G1 X102.137 Y113.998 E.03187
G1 X102.902 Y114.004 E.03953
G1 X103.526 Y113.965 E.03226
G1 X104.039 Y113.883 E.02684
G1 X104.611 Y113.705 E.03089
G1 X104.957 Y113.519 E.02031
G1 X105.17 Y112.85 F30000
G1 F900
G1 X105.307 Y113.191 E.01893
G1 X105.586 Y113.565 E.02413
G1 X106.092 Y113.899 E.03129
G1 X106.332 Y113.986 E.01315
G1 X106.751 Y114.049 E.02189
G1 X107.276 Y113.966 E.02744
G1 X107.484 Y113.885 E.01148
G1 X107.911 Y113.595 E.02666
G1 X108.137 Y113.314 E.01863
G1 X108.324 Y113.51 E.01401
G1 X108.693 Y113.711 E.02169
G1 X109.035 Y113.763 E.01787
G1 X109.272 Y113.743 E.01225
G1 X109.544 Y113.628 E.01524
G1 X109.78 Y113.443 E.01549
G1 X110.104 Y113.041 E.02665
G1 X110.352 Y113.376 E.02151
G1 X110.61 Y113.606 E.01784
G1 X110.96 Y113.753 E.01961
G1 X111.259 Y113.773 E.01546
;WIDTH:0.540591
G1 X111.524 Y113.734 E.01514
;WIDTH:0.581183
G1 X111.79 Y113.695 E.01643
G1 X112.059 Y113.476 E.02126
;WIDTH:0.544123
G1 X112.289 Y113.104 E.02488
;WIDTH:0.5
G1 X112.375 Y112.713 E.02064
G1 X112.335 Y112.292 E.02185
G1 X112.136 Y111.825 E.02622
G1 X111.504 Y110.773 E.06334
G1 X111.533 Y110.582 E.00993
G1 X112.135 Y109.563 E.06111
G1 X112.484 Y110.447 E.04905
G1 X113.105 Y112.114 E.0918
G1 X113.348 Y112.712 E.03333
G1 X113.195 Y113.117 E.02238
