; HEADER_BLOCK_START
; generated by OrcaSlicer 1.7.0 on 2023-11-19 at 14:59:44
; total layer number: 240
; HEADER_BLOCK_END

; THUMBNAIL_BLOCK_START
; THUMBNAIL_BLOCK_END

; external perimeters extrusion width = 0.40mm
; perimeters extrusion width = 0.45mm
; infill extrusion width = 0.45mm
; solid infill extrusion width = 0.40mm
; top infill extrusion width = 0.40mm
; first layer extrusion width = 0.50mm

; EXECUTABLE_BLOCK_START
EXCLUDE_OBJECT_DEFINE NAME=3DBenchy.stl_id_0_copy_0 CENTER=110,110 POLYGON=[[79.9995,100.816],[80.0025,100.755],[80.0065,100.699],[80.0115,100.646],[80.0135,100.63],[80.0195,100.583],[80.0285,100.525],[80.0455,100.436],[80.0585,100.379],[80.0735,100.322],[80.0805,100.296],[80.0975,100.239],[80.1265,100.155],[80.1405,100.118],[80.1625,100.064],[80.1695,100.047],[80.1855,100.01],[80.2095,99.958],[80.2305,99.916],[80.2635,99.854],[80.2785,99.827],[80.2905,99.806],[80.3395,99.727],[80.3575,99.7],[80.3715,99.679],[80.4055,99.631],[80.4405,99.584],[80.4835,99.531],[80.5085,99.501],[80.5385,99.466],[80.5785,99.423],[80.5925,99.408],[80.6005,99.4],[80.6415,99.359],[80.6615,99.34],[80.7045,99.3],[80.7375,99.271],[80.7825,99.234],[80.7935,99.225],[80.8285,99.197],[80.8865,99.154],[80.9345,99.121],[80.9785,99.092],[81.0445,99.052],[81.0715,99.036],[81.1235,99.008],[81.1485,98.995],[81.1755,98.981],[81.1975,98.97],[81.2535,98.944],[81.3115,98.919],[81.3615,98.899],[81.4165,98.879],[81.4285,98.875],[81.4715,98.861],[81.4845,98.857],[81.5405,98.84],[81.5475,98.838],[81.5845,98.828],[81.5965,98.825],[81.6245,98.818],[81.6405,98.814],[81.7105,98.799],[81.7395,98.794],[81.7685,98.789],[81.7975,98.784],[109.812,94.886],[110.055,94.853],[110.299,94.821],[110.543,94.791],[110.882,94.752],[111.105,94.728],[111.35,94.702],[111.596,94.678],[111.842,94.656],[112.087,94.635],[112.253,94.622],[112.333,94.616],[112.523,94.602],[112.579,94.598],[112.826,94.581],[112.987,94.571],[113.071,94.566],[113.233,94.557],[113.489,94.544],[113.597,94.539],[113.619,94.538],[113.755,94.532],[113.906,94.526],[114.05,94.521],[114.167,94.517],[114.233,94.515],[114.342,94.512],[114.46,94.509],[114.548,94.507],[114.689,94.504],[114.881,94.501],[115.062,94.499],[115.18,94.498],[115.578,94.498],[115.934,94.5],[116.369,94.508],[116.45,94.51],[116.805,94.52],[116.912,94.524],[117.24,94.537],[117.676,94.558],[118.009,94.578],[118.092,94.583],[118.203,94.59],[118.375,94.602],[118.495,94.611],[118.641,94.622],[118.728,94.629],[118.909,94.644],[119.039,94.655],[119.832,94.78],[119.841,94.782],[120.269,94.888],[120.377,94.915],[120.595,94.97],[120.737,95.007],[120.813,95.027],[120.967,95.068],[121.248,95.145],[121.424,95.195],[121.68,95.27],[121.896,95.334],[122.11,95.4],[122.332,95.47],[122.558,95.543],[122.752,95.607],[123.008,95.694],[123.178,95.753],[123.232,95.772],[123.4,95.832],[123.601,95.905],[123.822,95.987],[124.033,96.067],[124.233,96.145],[124.343,96.188],[124.443,96.228],[124.453,96.232],[124.662,96.316],[124.871,96.402],[124.926,96.425],[125.134,96.513],[125.341,96.603],[125.547,96.693],[125.957,96.879],[126.16,96.974],[126.363,97.07],[126.565,97.168],[126.766,97.267],[126.967,97.367],[127.166,97.469],[127.366,97.572],[127.563,97.677],[127.762,97.783],[127.957,97.89],[128.153,97.999],[128.348,98.11],[128.543,98.221],[128.737,98.334],[128.93,98.449],[129.123,98.565],[129.314,98.683],[129.505,98.801],[129.696,98.922],[129.885,99.043],[130.075,99.167],[130.262,99.291],[130.451,99.417],[130.637,99.544],[130.824,99.673],[131.008,99.803],[131.193,99.934],[131.376,100.067],[131.56,100.201],[131.743,100.337],[131.923,100.474],[132.104,100.612],[132.284,100.752],[132.463,100.893],[132.642,101.036],[132.82,101.18],[132.998,101.325],[133.173,101.472],[133.523,101.77],[133.697,101.921],[133.87,102.074],[134.042,102.228],[134.214,102.384],[134.328,102.489],[134.498,102.645],[134.665,102.803],[134.832,102.962],[134.996,103.122],[135.161,103.283],[135.325,103.445],[135.486,103.609],[135.647,103.773],[135.807,103.939],[135.966,104.106],[136.124,104.274],[136.282,104.443],[136.438,104.614],[136.592,104.785],[136.745,104.958],[136.898,105.132],[137.05,105.306],[137.201,105.483],[137.349,105.66],[137.499,105.838],[137.645,106.017],[137.791,106.198],[137.936,106.38],[138.081,106.563],[138.223,106.747],[138.364,106.932],[138.505,107.118],[138.645,107.305],[138.784,107.493],[138.921,107.683],[139.056,107.874],[139.192,108.065],[139.326,108.258],[139.458,108.452],[139.589,108.647],[139.618,108.692],[139.651,108.745],[139.682,108.798],[139.713,108.852],[139.742,108.907],[139.769,108.962],[139.819,109.076],[139.834,109.117],[139.856,109.175],[139.876,109.233],[139.895,109.292],[139.912,109.351],[139.929,109.413],[139.943,109.47],[139.954,109.53],[139.966,109.593],[139.975,109.652],[139.984,109.713],[139.991,109.774],[139.995,109.836],[139.999,109.905],[140,109.966],[140,110.027],[139.999,110.088],[139.996,110.149],[139.992,110.209],[139.986,110.27],[139.977,110.331],[139.968,110.391],[139.958,110.449],[139.945,110.512],[139.932,110.569],[139.916,110.632],[139.901,110.686],[139.883,110.745],[139.863,110.803],[139.842,110.861],[139.82,110.918],[139.797,110.974],[139.771,111.03],[139.744,111.086],[139.716,111.14],[139.686,111.194],[139.655,111.248],[139.624,111.301],[139.589,111.353],[139.472,111.527],[139.339,111.721],[139.206,111.914],[139.071,112.106],[138.936,112.297],[138.797,112.487],[138.659,112.676],[138.52,112.864],[138.38,113.05],[138.237,113.236],[138.095,113.42],[137.951,113.604],[137.659,113.968],[137.51,114.148],[137.361,114.328],[137.21,114.506],[137.06,114.683],[136.907,114.86],[136.752,115.035],[136.597,115.209],[136.482,115.337],[136.326,115.509],[136.167,115.68],[136.008,115.85],[135.848,116.018],[135.688,116.186],[135.526,116.352],[135.2,116.68],[135.034,116.841],[134.869,117.002],[134.703,117.161],[134.535,117.319],[134.368,117.475],[134.199,117.63],[134.028,117.784],[133.857,117.937],[133.686,118.089],[133.512,118.239],[133.338,118.388],[133.164,118.536],[132.987,118.682],[132.811,118.827],[132.632,118.971],[132.454,119.114],[132.275,119.256],[132.093,119.396],[131.911,119.535],[131.728,119.673],[131.544,119.81],[131.359,119.945],[131.173,120.08],[130.799,120.344],[130.611,120.474],[130.421,120.603],[130.23,120.731],[130.039,120.857],[129.846,120.982],[129.653,121.106],[129.458,121.228],[129.263,121.349],[129.067,121.469],[128.869,121.587],[128.672,121.704],[128.472,121.819],[128.272,121.934],[128.072,122.046],[127.87,122.158],[127.595,122.307],[127.395,122.412],[127.196,122.516],[126.996,122.618],[126.796,122.719],[126.595,122.818],[126.392,122.916],[126.19,123.012],[125.987,123.107],[125.783,123.2],[125.579,123.292],[125.374,123.383],[125.169,123.472],[124.963,123.559],[124.756,123.645],[124.666,123.682],[124.549,123.73],[124.341,123.813],[124.122,123.898],[124.003,123.944],[123.704,124.057],[123.493,124.134],[123.293,124.206],[123.071,124.284],[122.884,124.348],[122.869,124.353],[122.656,124.424],[122.443,124.494],[122.206,124.57],[122.005,124.632],[121.979,124.64],[121.751,124.709],[121.523,124.776],[121.295,124.841],[121.142,124.884],[121.066,124.905],[120.924,124.943],[120.706,125.001],[120.606,125.027],[120.488,125.057],[120.269,125.112],[119.843,125.218],[119.316,125.319],[119.306,125.32],[119.05,125.344],[119.003,125.348],[118.81,125.364],[118.725,125.371],[118.561,125.384],[118.481,125.39],[118.134,125.414],[117.688,125.441],[117.649,125.443],[117.264,125.462],[117.126,125.468],[116.778,125.481],[116.564,125.487],[116.343,125.493],[115.907,125.5],[115.521,125.502],[115.177,125.502],[114.877,125.499],[114.821,125.498],[114.599,125.494],[114.456,125.491],[114.338,125.488],[114.166,125.483],[114.076,125.48],[113.93,125.475],[113.752,125.468],[113.728,125.467],[113.57,125.46],[113.462,125.455],[113.332,125.448],[113.133,125.437],[112.889,125.423],[112.644,125.407],[112.629,125.406],[112.342,125.385],[112.096,125.366],[111.849,125.345],[111.667,125.328],[111.603,125.322],[111.423,125.305],[111.179,125.28],[111.111,125.273],[110.935,125.254],[110.619,125.218],[110.373,125.188],[110.204,125.166],[109.882,125.124],[81.8275,121.22],[81.7925,121.215],[81.7425,121.207],[81.6855,121.196],[81.6535,121.189],[81.5965,121.175],[81.5845,121.172],[81.5475,121.162],[81.5365,121.159],[81.4805,121.142],[81.4285,121.125],[81.4165,121.121],[81.3615,121.101],[81.3115,121.081],[81.2535,121.056],[81.1975,121.03],[81.1555,121.009],[81.1045,120.982],[81.0865,120.972],[81.0445,120.948],[80.9925,120.917],[80.9785,120.908],[80.9435,120.885],[80.9345,120.879],[80.8865,120.846],[80.8475,120.817],[80.8395,120.811],[80.7935,120.775],[80.7555,120.744],[80.7485,120.738],[80.7045,120.7],[80.6615,120.66],[80.6405,120.64],[80.5925,120.592],[80.5575,120.555],[80.5385,120.534],[80.5185,120.511],[80.4805,120.466],[80.4445,120.42],[80.4305,120.402],[80.4095,120.374],[80.4065,120.37],[80.3725,120.322],[80.3575,120.3],[80.3425,120.278],[80.3085,120.224],[80.2785,120.173],[80.2505,120.122],[80.2305,120.084],[80.2185,120.06],[80.1955,120.012],[80.1695,119.954],[80.1485,119.903],[80.1275,119.849],[80.1085,119.793],[80.1075,119.79],[80.0905,119.738],[80.0745,119.682],[80.0595,119.625],[80.0455,119.564],[80.0345,119.507],[80.0255,119.454],[80.0245,119.448],[80.0165,119.396],[80.0115,119.353],[80.0085,119.325],[80.0025,119.245],[80.0005,119.208],[79.9995,119.179],[79.9995,100.816]]
M73 P0 R116
;TYPE:Custom
START_PRINT EXTRUDER_TEMP=255  BED_TEMP=80
G90
G21
M83 ; use relative distances for extrusion
; filament start gcode
M106 S0
;LAYER_CHANGE
;Z:0.2
;HEIGHT:0.2
;BEFORE_LAYER_CHANGE
;0.2
G92 E0

G1 E-6 F3600
;_SET_FAN_SPEED_CHANGING_LAYER
SET_VELOCITY_LIMIT SQUARE_CORNER_VELOCITY=8
G1 X77.123 Y93.533 F12000
G1 Z.4
G1 Z.2
G1 E6 F3600
;TYPE:Skirt
;WIDTH:0.5
G1 F900
G1 X78.902 Y92.382 E.08051
G1 X79.818 Y91.924 E.03893
G1 X81.355 Y91.325 E.06271
G1 X83.669 Y90.773 E.0904
G1 X85.004 Y90.63 E.05104
G1 X108.392 Y89.209 E.89053
G1 X110.35 Y89.16 E.07443
G1 X112.276 Y89.248 E.0733
G1 X113.818 Y89.417 E.05894
G1 X115.56 Y89.714 E.06717
G1 X117.364 Y90.145 E.07048
G1 X119.091 Y90.679 E.06872
G1 X120.78 Y91.326 E.06873
G1 X122.447 Y92.095 E.06977
G1 X123.877 Y92.866 E.06176
G1 X125.437 Y93.838 E.06984
G1 X126.854 Y94.855 E.06631
G1 X128.394 Y96.125 E.07585
G1 X129.52 Y97.182 E.05869
G1 X131.705 Y99.628 E.12465
G1 X132.75 Y101.035 E.06664
G1 X133.781 Y102.636 E.07235
G1 X134.776 Y104.594 E.08347
G1 X135.251 Y105.915 E.05335
G1 X135.585 Y107.244 E.05209
G1 X135.797 Y108.684 E.05533
G1 X135.861 Y109.963 E.04866
G1 X135.686 Y112.195 E.0851
G1 X135.427 Y113.454 E.04883
G1 X135.05 Y114.697 E.04936
G1 X134.345 Y116.345 E.06816
G1 X133.869 Y117.212 E.03758
G1 X133.045 Y118.531 E.05913
G1 X131.998 Y119.996 E.06841
G1 X129.88 Y122.452 E.12324
M73 P0 R115
G1 X127.941 Y124.268 E.10099
G1 X126.016 Y125.763 E.09263
G1 X123.995 Y127.065 E.09138
G1 X121.54 Y128.34 E.10515
G1 X119.02 Y129.345 E.1031
G1 X116.69 Y130.032 E.09232
G1 X114.066 Y130.548 E.10166
G1 X111.642 Y130.795 E.09257
G1 X108.376 Y130.79 E.12416
G1 X84.997 Y129.37 E.89017
G1 X83.624 Y129.22 E.0525
G1 X81.505 Y128.725 E.0827
G1 X79.524 Y127.938 E.08101
G1 X78.086 Y127.136 E.06257
G1 X77.259 Y126.569 E.03814
G1 X75.66 Y125.198 E.08004
G1 X74.858 Y124.333 E.04482
G1 X73.795 Y122.917 E.0673
G1 X73.115 Y121.778 E.05041
G1 X72.635 Y120.795 E.04157
G1 X71.998 Y119.065 E.07007
G1 X71.71 Y117.934 E.04434
G1 X71.456 Y116.29 E.06325
G1 X71.386 Y114.88 E.05366
G1 X71.392 Y104.715 E.38631
G1 X71.459 Y103.688 E.03914
G1 X71.711 Y102.065 E.06239
G1 X72.291 Y100.056 E.07949
G1 X73.093 Y98.263 E.07468
G1 X74.179 Y96.528 E.07777
G1 X75.528 Y94.936 E.07932
G1 X77.093 Y93.559 E.07923
G1 X77.394 Y93.901 F12000
G1 F900
G1 X77.397 Y93.899 E.00014
G1 X79.123 Y92.783 E.07811
G1 X80.01 Y92.338 E.0377
G1 X81.494 Y91.76 E.06055
G1 X83.736 Y91.225 E.0876
G1 X85.032 Y91.086 E.04953
G1 X108.42 Y89.665 E.89053
G1 X110.348 Y89.617 E.0733
G1 X112.236 Y89.704 E.07183
G1 X113.752 Y89.869 E.05795
G1 X115.471 Y90.162 E.06629
G1 X117.239 Y90.585 E.0691
G1 X118.944 Y91.112 E.06782
G1 X120.6 Y91.746 E.06741
G1 X122.238 Y92.502 E.06855
G1 X123.65 Y93.263 E.06097
G1 X125.18 Y94.216 E.06851
G1 X126.58 Y95.221 E.06549
G1 X128.093 Y96.47 E.07456
G1 X129.196 Y97.505 E.05749
G1 X131.344 Y99.908 E.12253
G1 X132.376 Y101.298 E.06578
G1 X133.386 Y102.867 E.07093
G1 X134.355 Y104.772 E.08121
G1 X134.815 Y106.049 E.0516
G1 X135.137 Y107.336 E.05042
G1 X135.342 Y108.725 E.05335
G1 X135.403 Y109.963 E.04711
G1 X135.235 Y112.126 E.08245
G1 X134.985 Y113.339 E.04708
G1 X134.619 Y114.545 E.0479
G1 X133.937 Y116.138 E.06585
G1 X133.477 Y116.977 E.03637
G1 X132.666 Y118.275 E.05817
G1 X131.634 Y119.721 E.06752
G1 X129.549 Y122.137 E.12126
G1 X127.647 Y123.918 E.09905
G1 X125.749 Y125.392 E.09133
G1 X123.767 Y126.668 E.0896
G1 X121.353 Y127.922 E.10339
G1 X118.876 Y128.912 E.10141
G1 X116.578 Y129.589 E.09104
G1 X113.995 Y130.096 E.10004
G1 X111.612 Y130.339 E.09104
G1 X108.403 Y130.334 E.12195
G1 X85.025 Y128.913 E.89017
G1 X83.692 Y128.768 E.05095
G1 X81.64 Y128.289 E.08008
G1 X79.722 Y127.526 E.07845
G1 X78.333 Y126.751 E.06047
G1 X77.532 Y126.202 E.03691
G1 X75.983 Y124.875 E.07752
G1 X75.205 Y124.035 E.04351
G1 X74.178 Y122.667 E.06501
G1 X73.053 Y120.609 E.08916
G1 X72.437 Y118.936 E.06773
G1 X72.157 Y117.838 E.04309
G1 X71.911 Y116.248 E.06115
G1 X71.843 Y114.88 E.05205
G1 X71.849 Y104.73 E.38574
G1 X71.914 Y103.73 E.03809
G1 X72.157 Y102.162 E.0603
G1 X72.72 Y100.212 E.07715
G1 X73.496 Y98.479 E.07216
G1 X74.547 Y96.799 E.07531
G1 X75.853 Y95.257 E.0768
G1 X77.364 Y93.928 E.0765
G1 X77.665 Y94.27 F12000
G1 F900
G1 X77.671 Y94.265 E.00028
G1 X79.343 Y93.183 E.07571
G1 X80.202 Y92.753 E.03648
G1 X81.633 Y92.195 E.0584
G1 X83.803 Y91.677 E.0848
G1 X85.059 Y91.542 E.04801
G1 X108.447 Y90.121 E.89053
G1 X110.346 Y90.075 E.07216
G1 X112.195 Y90.159 E.07036
G1 X113.685 Y90.321 E.05697
G1 X115.382 Y90.61 E.06541
G1 X117.115 Y91.024 E.06773
G1 X118.797 Y91.544 E.06692
G1 X120.421 Y92.166 E.06609
G1 X122.029 Y92.909 E.06734
G1 X123.423 Y93.66 E.06018
G1 X124.924 Y94.594 E.06717
G1 X126.306 Y95.586 E.06466
G1 X127.792 Y96.814 E.07328
G1 X128.872 Y97.827 E.05628
G1 X130.166 Y99.207 E.07188
G1 X131.27 Y100.557 E.06631
G1 X132.293 Y101.988 E.06685
G1 X133.143 Y103.356 E.06121
G1 X133.877 Y104.815 E.06207
G1 X134.343 Y106.07 E.05088
G1 X134.69 Y107.428 E.05328
G1 X134.887 Y108.766 E.05136
G1 X134.912 Y110.949 E.08299
G1 X134.783 Y112.056 E.04236
G1 X134.542 Y113.224 E.04533
G1 X133.857 Y115.233 E.08068
G1 X132.652 Y117.456 E.09607
G1 X130.931 Y119.878 E.11294
G1 X129.002 Y122.043 E.11023
G1 X127.07 Y123.806 E.09936
G1 X125.06 Y125.314 E.09552
G1 X123.001 Y126.579 E.09186
G1 X120.715 Y127.707 E.09688
G1 X118.316 Y128.617 E.0975
G1 X116.169 Y129.217 E.08474
G1 X113.558 Y129.696 E.1009
G1 X111.198 Y129.902 E.09003
G1 X108.431 Y129.878 E.10516
G1 X85.053 Y128.457 E.89017
G1 X83.76 Y128.316 E.04941
G1 X81.776 Y127.852 E.07746
G1 X79.92 Y127.114 E.0759
G1 X78.579 Y126.366 E.05836
G1 X77.805 Y125.836 E.03568
G1 X76.306 Y124.552 E.07499
G1 X75.552 Y123.737 E.04219
G1 X74.56 Y122.418 E.06273
G1 X73.47 Y120.422 E.08643
G1 X72.876 Y118.808 E.06538
G1 X72.604 Y117.741 E.04185
G1 X72.366 Y116.205 E.05905
G1 X72.3 Y114.88 E.05045
G1 X72.306 Y104.745 E.38517
G1 X72.369 Y103.773 E.03704
G1 X72.604 Y102.259 E.05821
G1 X73.15 Y100.368 E.07481
G1 X73.898 Y98.695 E.06965
G1 X74.915 Y97.07 E.07284
G1 X76.178 Y95.579 E.07428
G1 X77.635 Y94.296 E.07378
G1 X77.939 Y94.648 F12000
G1 F900
G1 X78.054 Y94.549 E.00578
G1 X79.467 Y93.637 E.06391
G1 X80.279 Y93.221 E.03467
G1 X81.942 Y92.576 E.06782
G1 X83.871 Y92.129 E.07523
G1 X85.087 Y91.999 E.0465
G1 X108.475 Y90.577 E.89053
G1 X110.344 Y90.532 E.07103
G1 X112.154 Y90.614 E.06888
G1 X113.618 Y90.773 E.05598
G1 X115.292 Y91.058 E.06453
G1 X116.99 Y91.464 E.06635
G1 X118.65 Y91.977 E.06601
G1 X120.241 Y92.587 E.06477
G1 X121.821 Y93.316 E.06613
G1 X123.197 Y94.057 E.05939
G1 X124.667 Y94.973 E.06584
G1 X126.031 Y95.952 E.06383
G1 X127.492 Y97.158 E.07199
G1 X128.548 Y98.15 E.05507
G1 X129.823 Y99.51 E.07085
G1 X130.91 Y100.838 E.06522
