; HEADER_BLOCK_START
; generated by OrcaSlicer 1.7.0 on 2023-12-26 at 17:46:57
; total layer number: 199
; HEADER_BLOCK_END

; THUMBNAIL_BLOCK_START
; THUMBNAIL_BLOCK_END

; external perimeters extrusion width = 0.40mm
; perimeters extrusion width = 0.45mm
; infill extrusion width = 0.45mm
; solid infill extrusion width = 0.40mm
; top infill extrusion width = 0.40mm
; first layer extrusion width = 0.50mm

; EXECUTABLE_BLOCK_START
EXCLUDE_OBJECT_DEFINE NAME=Anycubic_Baseplate_Sidecar_-_0.stl_id_0_copy_0 CENTER=110,110 POLYGON=[[89,68],[89.0492,67.3743],[89.1958,66.7639],[89.436,66.184],[89.7639,65.6489],[90.1716,65.1716],[90.6489,64.7639],[91.184,64.436],[91.7639,64.1958],[92.3743,64.0492],[93,64],[127,64],[127.626,64.0492],[128.236,64.1958],[128.816,64.436],[129.351,64.7639],[129.828,65.1716],[130.236,65.6489],[130.564,66.184],[130.804,66.7639],[130.951,67.3743],[131,68],[131,146.995],[130.005,151],[128.064,156],[91.9457,156],[90.0047,151],[89,146.995],[89,68]]
M73 P0 R122
;TYPE:Custom
START_PRINT EXTRUDER_TEMP=255  BED_TEMP=80
G90
G21
M83 ; use relative distances for extrusion
; filament start gcode
M106 S0
;LAYER_CHANGE
;Z:0.3
;HEIGHT:0.3
;BEFORE_LAYER_CHANGE
;0.3
G92 E0

G1 E-5 F1800
;_SET_FAN_SPEED_CHANGING_LAYER
; printing object Anycubic Baseplate, Sidecar - 0.stl id:0 copy 0
EXCLUDE_OBJECT_START NAME=Anycubic_Baseplate_Sidecar_-_0.stl_id_0_copy_0
G1 X91.608 Y149.877 F9000
G1 Z.4
G1 Z.3
G1 E5 F1800
;TYPE:Inner wall
;WIDTH:0.5
G1 F900
G1 X91.608 Y148.504 E.07085
G1 X91.687 Y148.451 E.00492
G1 X91.771 Y148.032 E.02206
G1 X91.771 Y141.732 E.32519
;WIDTH:0.549908
G1 X91.796 Y141.357 E.02163
;WIDTH:0.599817
G1 X91.821 Y140.982 E.02385
G1 X91.858 Y141.084 E.0069
;WIDTH:0.572399
G1 X91.989 Y141.466 E.02431
;WIDTH:0.5362
G1 X92.12 Y141.848 E.02258
;WIDTH:0.5
G1 X92.45 Y142.556 E.0403
G1 X92.901 Y143.23 E.04184
G1 X93.45 Y143.825 E.04184
G1 X94.079 Y144.324 E.04143
G1 X94.759 Y144.713 E.04041
G1 X95.485 Y144.993 E.04015
G1 X96.276 Y145.168 E.04183
G1 X97.085 Y145.218 E.04184
G1 X97.887 Y145.143 E.04159
G1 X98.645 Y144.952 E.04034
G1 X99.392 Y144.638 E.04184
G1 X100.081 Y144.211 E.04184
G1 X100.69 Y143.689 E.04139
G1 X101.201 Y143.096 E.04041
G1 X101.614 Y142.436 E.04019
G1 X101.936 Y141.692 E.04183
G1 X102.151 Y140.804 E.0472
G1 X102.217 Y140.106 E.03615
G1 X102.194 Y139.49 E.03182
G1 X102.141 Y139.15 E.01779
G1 X101.981 Y138.459 E.03661
G1 X101.703 Y137.744 E.03959
G1 X101.338 Y137.099 E.03828
G1 X100.836 Y136.462 E.04184
G1 X100.241 Y135.911 E.04184
G1 X99.541 Y135.446 E.04342
G1 X98.795 Y135.104 E.04231
G1 X98.123 Y134.904 E.03621
G1 X97.321 Y134.791 E.04183
G1 X96.51 Y134.804 E.04184
G1 X95.718 Y134.942 E.0415
G1 X94.975 Y135.19 E.04041
G1 X94.285 Y135.545 E.04008
G1 X93.627 Y136.019 E.04183
G1 X93.051 Y136.589 E.04184
G1 X92.57 Y137.242 E.04184
G1 X92.2 Y137.954 E.04147
G1 X91.947 Y138.695 E.04041
;WIDTH:0.529439
G1 X91.874 Y138.995 E.01701
;WIDTH:0.558879
G1 X91.801 Y139.295 E.01808
G1 X91.786 Y138.987 E.01808
;WIDTH:0.529439
G1 X91.771 Y138.678 E.01701
;WIDTH:0.5
G1 X91.771 Y115.508 E1.19596
;WIDTH:0.535769
G1 X91.789 Y115.159 E.01955
;WIDTH:0.571539
G1 X91.807 Y114.809 E.02104
G1 X91.824 Y114.865 E.00351
;WIDTH:0.561025
G1 X91.936 Y115.255 E.02388
;WIDTH:0.530512
G1 X92.048 Y115.645 E.02241
;WIDTH:0.5
G1 X92.362 Y116.392 E.04184
G1 X92.785 Y117.077 E.04157
G1 X93.292 Y117.672 E.04035
G1 X93.906 Y118.202 E.04184
G1 X94.594 Y118.63 E.04184
G1 X95.332 Y118.944 E.04138
G1 X96.09 Y119.139 E.0404
G1 X96.865 Y119.216 E.0402
G1 X97.675 Y119.175 E.04183
G1 X98.541 Y118.981 E.04584
G1 X99.256 Y118.703 E.03957
G1 X99.901 Y118.338 E.03829
G1 X100.538 Y117.836 E.04184
G1 X101.094 Y117.234 E.0423
G1 X101.555 Y116.539 E.04306
G1 X101.896 Y115.796 E.0422
G1 X102.096 Y115.123 E.03621
G1 X102.209 Y114.321 E.04184
G1 X102.196 Y113.51 E.04184
G1 X102.058 Y112.718 E.0415
G1 X101.81 Y111.975 E.04041
G1 X101.455 Y111.285 E.04008
G1 X100.981 Y110.627 E.04183
G1 X100.411 Y110.051 E.04184
G1 X99.762 Y109.572 E.04165
G1 X99.071 Y109.21 E.04028
G1 X98.304 Y108.947 E.04184
;WIDTH:0.526939
G1 X97.992 Y108.873 E.01758
;WIDTH:0.553879
G1 X97.68 Y108.799 E.01861
G1 X98 Y108.785 E.01861
;WIDTH:0.526939
G1 X98.321 Y108.772 E.01758
;WIDTH:0.5
G1 X121.492 Y108.775 E1.19602
;WIDTH:0.533985
G1 X121.842 Y108.792 E.01948
;WIDTH:0.567971
G1 X122.191 Y108.809 E.02089
G1 X122.135 Y108.825 E.00349
;WIDTH:0.557975
G1 X121.745 Y108.936 E.02373
;WIDTH:0.528987
G1 X121.355 Y109.048 E.02233
;WIDTH:0.5
G1 X120.608 Y109.362 E.04184
G1 X119.923 Y109.785 E.04157
G1 X119.328 Y110.292 E.04035
G1 X118.798 Y110.906 E.04184
G1 X118.37 Y111.594 E.04184
G1 X118.056 Y112.332 E.04138
G1 X117.861 Y113.09 E.0404
G1 X117.784 Y113.865 E.0402
G1 X117.825 Y114.675 E.04183
G1 X118.019 Y115.541 E.04584
G1 X118.31 Y116.279 E.04095
G1 X118.671 Y116.913 E.03768
G1 X119.164 Y117.538 E.04106
G1 X119.759 Y118.089 E.04184
G1 X120.459 Y118.554 E.04343
G1 X121.204 Y118.896 E.0423
G1 X121.877 Y119.096 E.03621
G1 X122.679 Y119.209 E.04184
G1 X123.49 Y119.196 E.04184
G1 X124.282 Y119.058 E.0415
G1 X125.025 Y118.81 E.04041
G1 X125.715 Y118.455 E.04008
G1 X126.373 Y117.981 E.04183
G1 X126.949 Y117.411 E.04184
G1 X127.428 Y116.762 E.04165
G1 X127.79 Y116.071 E.04028
G1 X128.053 Y115.304 E.04184
;WIDTH:0.548465
G1 X128.202 Y114.68 E.0368
G1 X128.229 Y115.321 E.0368
;WIDTH:0.5
G1 X128.229 Y138.457 E1.1942
;WIDTH:0.544235
G1 X128.207 Y138.777 E.01826
;WIDTH:0.588471
G1 X128.185 Y139.098 E.01994
G1 X128.064 Y138.714 E.02496
;WIDTH:0.544235
G1 X127.944 Y138.331 E.02286
;WIDTH:0.5
G1 X127.639 Y137.609 E.04041
G1 X127.231 Y136.947 E.04018
G1 X126.708 Y136.328 E.04183
G1 X126.094 Y135.798 E.04184
G1 X125.406 Y135.37 E.04184
G1 X124.668 Y135.056 E.04138
G1 X123.91 Y134.861 E.04041
G1 X123.135 Y134.784 E.0402
G1 X122.325 Y134.825 E.04183
G1 X121.459 Y135.019 E.04584
G1 X120.744 Y135.297 E.03959
G1 X120.099 Y135.662 E.03829
G1 X119.462 Y136.164 E.04184
G1 X118.911 Y136.759 E.04184
G1 X118.445 Y137.459 E.04343
G1 X118.128 Y138.13 E.0383
G1 X117.942 Y138.718 E.03182
G1 X117.876 Y139.054 E.01765
G1 X117.793 Y139.62 E.02954
G1 X117.791 Y140.148 E.02727
G1 X117.842 Y140.734 E.03036
G1 X117.935 Y141.255 E.02734
G1 X118.19 Y142.025 E.04184
G1 X118.562 Y142.745 E.04184
G1 X119.036 Y143.394 E.04148
G1 X119.588 Y143.949 E.04041
G1 X120.213 Y144.411 E.0401
G1 X120.929 Y144.79 E.04183
G1 X121.696 Y145.053 E.04184
G1 X122.49 Y145.194 E.04164
G1 X123.271 Y145.211 E.04029
G1 X124.074 Y145.107 E.04184
G1 X124.852 Y144.879 E.04184
G1 X125.579 Y144.536 E.04144
G1 X126.229 Y144.1 E.04041
G1 X126.801 Y143.574 E.04014
G1 X127.31 Y142.943 E.04183
G1 X127.714 Y142.24 E.04184
G1 X128.002 Y141.487 E.0416
;WIDTH:0.5372
G1 X128.097 Y141.161 E.01907
;WIDTH:0.574401
G1 X128.192 Y140.834 E.02057
G1 X128.197 Y140.897 E.00385
;WIDTH:0.562531
G1 X128.213 Y141.205 E.01822
;WIDTH:0.531265
G1 X128.229 Y141.514 E.01708
;WIDTH:0.5
G1 X128.229 Y148.032 E.33646
G1 X128.318 Y148.463 E.02271
G1 X128.4 Y148.517 E.00511
G1 X128.4 Y149.877 E.07016
G1 X91.648 Y149.877 E1.89701
G1 E-3.5 F1800
;WIPE_START
G1 F900
G1 X91.634 Y149.377 E-1.5
;WIPE_END
G17
G3 Z.7 I.472 J1.122 P1  F9000
G1 X118.679 Y137.991 Z.7
G1 Z.3
G1 E5 F1800
G1 F900
G1 X118.836 Y137.653 E.01922
G1 X119.291 Y136.977 E.04203
G1 X119.776 Y136.465 E.03643
G1 X120.363 Y136.009 E.03834
G1 X120.952 Y135.68 E.03486
G1 X121.607 Y135.428 E.0362
G1 X122.408 Y135.253 E.04233
G1 X123.15 Y135.219 E.03833
G1 X123.86 Y135.294 E.03685
G1 X124.553 Y135.476 E.03697
G1 X125.23 Y135.768 E.03806
G1 X125.858 Y136.164 E.03834
G1 X126.418 Y136.653 E.03834
G1 X126.894 Y137.222 E.03833
G1 X127.265 Y137.832 E.03683
G1 X127.539 Y138.493 E.03697
G1 X127.718 Y139.209 E.03807
G1 X127.784 Y139.949 E.03834
G1 X127.734 Y140.69 E.03834
G1 X127.578 Y141.388 E.03692
G1 X127.309 Y142.078 E.03819
G1 X126.935 Y142.719 E.03834
G1 X126.466 Y143.295 E.03833
G1 X125.939 Y143.775 E.03681
G1 X125.342 Y144.171 E.03697
G1 X124.673 Y144.482 E.0381
G1 X123.959 Y144.687 E.03834
G1 X123.222 Y144.778 E.03833
G1 X122.507 Y144.758 E.0369
G1 X121.779 Y144.625 E.03821
G1 X121.078 Y144.38 E.03834
G1 X120.423 Y144.029 E.03832
G1 X119.852 Y143.603 E.03679
G1 X119.35 Y143.092 E.03697
G1 X118.917 Y142.493 E.03812
G1 X118.58 Y141.831 E.03834
G1 X118.351 Y141.125 E.03833
G1 X118.25 Y140.524 E.03148
G1 X118.227 Y139.808 E.03695
G1 X118.307 Y139.121 E.03568
G1 X118.519 Y138.336 E.042
G1 X118.663 Y138.027 E.01758
G1 X119.076 Y138.166 F9000
;TYPE:Outer wall
G1 F900
G1 X119.226 Y137.846 E.01823
G1 X119.634 Y137.246 E.03745
G1 X120.091 Y136.766 E.0342
G1 X120.626 Y136.355 E.03484
G1 X121.16 Y136.062 E.03144
G1 X121.755 Y135.838 E.03282
G1 X122.491 Y135.681 E.03883
G1 X123.165 Y135.655 E.03483
G1 X123.81 Y135.727 E.0335
G1 X124.437 Y135.896 E.03354
G1 X125.054 Y136.166 E.03473
G1 X125.622 Y136.53 E.03484
G1 X126.127 Y136.977 E.03484
G1 X126.557 Y137.498 E.03483
G1 X126.89 Y138.055 E.03349
G1 X127.135 Y138.656 E.03354
G1 X127.294 Y139.31 E.03474
G1 X127.349 Y139.983 E.03484
G1 X127.299 Y140.656 E.03483
G1 X127.154 Y141.289 E.03352
G1 X126.905 Y141.915 E.03479
G1 X126.561 Y142.496 E.03484
G1 X126.132 Y143.016 E.03482
G1 X125.649 Y143.45 E.03348
G1 X125.105 Y143.805 E.03354
G1 X124.493 Y144.085 E.03475
G1 X123.843 Y144.267 E.03484
G1 X123.173 Y144.346 E.03483
G1 X122.524 Y144.323 E.03352
G1 X121.861 Y144.198 E.03479
G1 X121.226 Y143.971 E.03484
G1 X120.634 Y143.647 E.03482
G1 X120.116 Y143.256 E.03347
G1 X119.664 Y142.79 E.03354
G1 X119.273 Y142.242 E.03476
G1 X118.971 Y141.638 E.03484
G1 X118.767 Y140.995 E.03483
G1 X118.681 Y140.457 E.02811
G1 X118.662 Y139.808 E.03351
G1 X118.737 Y139.189 E.03218
G1 X118.935 Y138.467 E.03863
G1 X119.059 Y138.202 E.01513
G1 E-3.5 F1800
;WIPE_START
G1 F900
G1 X119.226 Y137.846 E-1.17941
G1 X119.286 Y137.758 E-.3206
;WIPE_END
G17
G3 Z.7 I-.181 J1.203 P1  F9000
G1 X128.185 Y139.098 Z.7
G1 Z.3
G1 E5 F1800
;TYPE:Inner wall
;WIDTH:0.588471
G1 F900
G1 X128.204 Y139.506 E.02539
;WIDTH:0.54962
G1 X128.223 Y139.915 E.02351
;WIDTH:0.535825
G1 X128.211 Y140.32 E.02269
;WIDTH:0.560881
G1 X128.198 Y140.726 E.02389
;WIDTH:0.574401
G1 X128.192 Y140.834 E.00649
G1 E-3.5 F1800
;WIPE_START
G1 F900
G1 X128.198 Y140.726 E-.32224
G1 X128.21 Y140.334 E-1.17776
;WIPE_END
G17
G3 Z.7 I1.217 J-.001 P1  F9000
G1 X128.184 Y113.085 Z.7
G1 Z.3
G1 E5 F1800
;WIDTH:0.590179
G1 F900
G1 X128.132 Y112.92 E.01079
;WIDTH:0.550561
G1 X128.011 Y112.55 E.02241
;WIDTH:0.52528
G1 X127.89 Y112.18 E.02125
;WIDTH:0.5
G1 X127.55 Y111.444 E.04183
G1 X127.202 Y110.906 E.03309
G1 X126.933 Y110.584 E.02167
G1 X126.478 Y110.116 E.03367
G1 X125.943 Y109.69 E.03531
G1 X125.24 Y109.286 E.04184
G1 X124.483 Y108.997 E.04184
;WIDTH:0.539743
G1 X124.175 Y108.906 E.01808
;WIDTH:0.579487
G1 X123.867 Y108.815 E.01959
G1 X124.187 Y108.795 E.01959
;WIDTH:0.539743
G1 X124.508 Y108.775 E.01808
;WIDTH:0.5
G1 X126.44 Y108.775 E.09974
G1 X127.223 Y108.798 E.04044
G1 X127.686 Y108.987 E.02581
G1 X127.962 Y109.252 E.01975
G1 X128.146 Y109.592 E.01993
G1 X128.229 Y110.054 E.02421
G1 X128.229 Y112.294 E.11561
;WIDTH:0.545089
G1 X128.206 Y112.689 E.02257
;WIDTH:0.590179
G1 X128.186 Y113.045 E.0222
G1 E-3.5 F1800
;WIPE_START
G1 F900
G1 X128.132 Y112.92 E-.40977
G1 X128.019 Y112.574 E-1.09023
;WIPE_END
G17
G3 Z.7 I-.934 J-.78 P1  F9000
G1 X122.848 Y118.771 Z.7
G1 Z.3
G1 E5 F1800
;WIDTH:0.5
G1 F900
G1 X122.679 Y118.773 E.00869
G1 X121.945 Y118.665 E.03833
G1 X121.336 Y118.481 E.03284
G1 X120.653 Y118.164 E.03886
G1 X120.007 Y117.731 E.04011
G1 X119.465 Y117.224 E.03834
G1 X119.018 Y116.65 E.03755
G1 X118.692 Y116.071 E.03426
G1 X118.428 Y115.393 E.03757
G1 X118.253 Y114.592 E.04233
G1 X118.219 Y113.85 E.03833
G1 X118.294 Y113.14 E.03685
G1 X118.476 Y112.447 E.03697
G1 X118.768 Y111.77 E.03806
G1 X119.164 Y111.142 E.03834
G1 X119.724 Y110.514 E.04345
G1 X120.2 Y110.121 E.03182
G1 X120.831 Y109.736 E.03818
G1 X121.517 Y109.452 E.03834
G1 X122.239 Y109.278 E.03833
G1 X122.95 Y109.216 E.03683
G1 X123.665 Y109.263 E.03697
G1 X124.385 Y109.421 E.03808
G1 X125.078 Y109.691 E.03834
G1 X125.719 Y110.064 E.03834
G1 X126.201 Y110.452 E.03191
G1 X126.608 Y110.874 E.03026
G1 X126.836 Y111.142 E.01816
G1 X127.184 Y111.68 E.03309
G1 X127.491 Y112.356 E.03833
G1 X127.687 Y113.042 E.0368
G1 X127.777 Y113.753 E.03697
G1 X127.759 Y114.491 E.0381
G1 X127.625 Y115.221 E.03834
G1 X127.38 Y115.922 E.03833
G1 X127.045 Y116.554 E.03689
G1 X126.603 Y117.147 E.03822
G1 X126.072 Y117.667 E.03834
G1 X125.467 Y118.097 E.03833
G1 X124.831 Y118.42 E.03678
G1 X124.151 Y118.643 E.03697
G1 X123.422 Y118.765 E.03813
G1 X122.888 Y118.771 E.02759
G1 X122.832 Y118.337 F9000
;TYPE:Outer wall
G1 F900
G1 X122.679 Y118.338 E.00789
G1 X122.013 Y118.235 E.03483
G1 X121.467 Y118.065 E.02948
G1 X120.846 Y117.774 E.03542
G1 X120.256 Y117.374 E.03681
G1 X119.766 Y116.909 E.03484
G1 X119.365 Y116.386 E.03405
G1 X119.075 Y115.863 E.03083
G1 X118.838 Y115.245 E.03419
G1 X118.681 Y114.509 E.03883
G1 X118.655 Y113.835 E.03483
G1 X118.727 Y113.19 E.0335
G1 X118.896 Y112.563 E.03353
G1 X119.166 Y111.946 E.03473
G1 X119.53 Y111.378 E.03484
G1 X120.001 Y110.85 E.03654
G1 X120.477 Y110.458 E.03182
G1 X121.054 Y110.11 E.03478
G1 X121.68 Y109.856 E.03484
G1 X122.337 Y109.703 E.03483
G1 X122.983 Y109.651 E.03349
G1 X123.631 Y109.698 E.03354
G1 X124.288 Y109.846 E.03474
G1 X124.915 Y110.095 E.03484
G1 X125.496 Y110.439 E.03483
G1 X125.924 Y110.788 E.02852
G1 X126.283 Y111.164 E.02684
G1 X126.47 Y111.378 E.01466
G1 X126.818 Y111.917 E.03309
G1 X127.093 Y112.532 E.03482
G1 X127.267 Y113.157 E.03348
G1 X127.344 Y113.802 E.03354
G1 X127.323 Y114.475 E.03475
G1 X127.198 Y115.139 E.03484
G1 X126.971 Y115.774 E.03483
G1 X126.663 Y116.346 E.03351
G1 X126.256 Y116.884 E.0348
G1 X125.771 Y117.352 E.03484
G1 X125.218 Y117.739 E.03482
G1 X124.638 Y118.029 E.03347
G1 X124.019 Y118.228 E.03354
G1 X123.354 Y118.335 E.03476
G1 X122.872 Y118.337 E.02488
G1 E-3.5 F1800
;WIPE_START
G1 F900
G1 X122.679 Y118.338 E-.57867
G1 X122.376 Y118.291 E-.92133
;WIPE_END
G17
G3 Z.7 I1.217 J-.024 P1  F9000
G1 X122.191 Y108.809 Z.7
G1 Z.3
G1 E5 F1800
;TYPE:Inner wall
;WIDTH:0.567971
G1 F900
G1 X122.554 Y108.794 E.02165
;WIDTH:0.537499
G1 X122.916 Y108.778 E.02034
;WIDTH:0.554195
G1 X123.7 Y108.802 E.04551
;WIDTH:0.579487
G1 X123.867 Y108.815 E.01022
G1 E-3.5 F1800
;WIPE_START
G1 F900
G1 X123.7 Y108.802 E-.50237
G1 X123.368 Y108.792 E-.99763
;WIPE_END
G17
G3 Z.7 I-.81 J.908 P1  F9000
G1 X128.184 Y113.085 Z.7
G1 Z.3
G1 E5 F1800
;WIDTH:0.590179
G1 F900
G1 X128.201 Y113.393 E.01924
;WIDTH:0.554708
G1 X128.219 Y113.701 E.01794
;WIDTH:0.534829
G1 X128.211 Y114.506 E.04486
;WIDTH:0.550927
G1 X128.203 Y114.66 E.00891
G1 E-3.5 F1800
;WIPE_START
G1 F900
G1 X128.211 Y114.506 E-.46345
G1 X128.215 Y114.161 E-1.03655
;WIPE_END
G17
G3 Z.7 I.036 J-1.216 P1  F9000
G1 X91.827 Y113.086 Z.7
G1 Z.3
G1 E5 F1800
;WIDTH:0.583253
G1 F900
G1 X91.813 Y113.132 E.003
G1 X91.792 Y112.812 E.01974
;WIDTH:0.541626
G1 X91.771 Y112.492 E.01816
;WIDTH:0.5
G1 X91.771 Y110.558 E.09979
G1 X91.799 Y109.769 E.04077
G1 X91.992 Y109.308 E.02581
G1 X92.323 Y108.982 E.02396
G1 X92.592 Y108.854 E.01539
G1 X93.054 Y108.771 E.02421
G1 X95.268 Y108.772 E.1143
;WIDTH:0.549716
G1 X95.643 Y108.796 E.02162
;WIDTH:0.599433
G1 X96.018 Y108.821 E.02383
G1 X95.916 Y108.858 E.00691
;WIDTH:0.572091
G1 X95.534 Y108.989 E.0243
;WIDTH:0.536045
G1 X95.152 Y109.12 E.02257
;WIDTH:0.5
G1 X94.444 Y109.45 E.0403
G1 X93.906 Y109.798 E.03308
G1 X93.462 Y110.176 E.03009
G1 X93.084 Y110.561 E.02786
G1 X92.69 Y111.057 E.0327
G1 X92.286 Y111.76 E.04184
G1 X91.997 Y112.517 E.04184
;WIDTH:0.541626
G1 X91.905 Y112.825 E.01816
;WIDTH:0.583253
G1 X91.838 Y113.047 E.01428
G1 X92.24 Y113.683 F9000
;WIDTH:0.5
G1 F900
G1 X92.263 Y113.335 E.01797
G1 X92.421 Y112.615 E.03808
G1 X92.691 Y111.922 E.03834
G1 X93.064 Y111.281 E.03833
G1 X93.42 Y110.838 E.0293
G1 X93.874 Y110.392 E.03285
G1 X94.142 Y110.164 E.01817
G1 X94.68 Y109.816 E.03308
G1 X95.33 Y109.517 E.03691
G1 X96.041 Y109.313 E.0382
G1 X96.753 Y109.223 E.037
G1 X97.491 Y109.241 E.0381
G1 X98.221 Y109.375 E.03834
G1 X98.922 Y109.62 E.03833
G1 X99.554 Y109.955 E.03689
G1 X100.147 Y110.397 E.03822
