; HEADER_BLOCK_START
; generated by OrcaSlicer 1.7.0 on 2023-11-28 at 15:38:53
; total layer number: 200
; HEADER_BLOCK_END

; THUMBNAIL_BLOCK_START
; THUMBNAIL_BLOCK_END

; external perimeters extrusion width = 0.40mm
; perimeters extrusion width = 0.45mm
; infill extrusion width = 0.45mm
; solid infill extrusion width = 0.40mm
; top infill extrusion width = 0.40mm
; first layer extrusion width = 0.50mm

; EXECUTABLE_BLOCK_START
EXCLUDE_OBJECT_DEFINE NAME=Anycubic_Baseplate_Sidecar.step_id_0_copy_0 CENTER=112.611,110.217 POLYGON=[[91.6109,86.7169],[91.6601,86.0912],[91.8067,85.4808],[92.0469,84.9009],[92.3748,84.3658],[92.7825,83.8885],[93.2597,83.4808],[93.7949,83.1529],[94.3748,82.9127],[94.9851,82.7662],[95.6109,82.7169],[129.611,82.7169],[130.237,82.7662],[130.847,82.9127],[131.427,83.1529],[131.962,83.4808],[132.439,83.8885],[132.847,84.3658],[133.175,84.9009],[133.415,85.4808],[133.562,86.0912],[133.611,86.7169],[133.611,137.717],[91.6109,137.717],[91.6109,86.7169]]
M73 P0 R97
;TYPE:Custom
START_PRINT EXTRUDER_TEMP=255  BED_TEMP=80
G90
G21
M83 ; use relative distances for extrusion
; filament start gcode
M106 S0
;LAYER_CHANGE
;Z:0.2
;HEIGHT:0.2
;BEFORE_LAYER_CHANGE
;0.2
G92 E0

G1 E-2 F3600
;_SET_FAN_SPEED_CHANGING_LAYER
G1 X91.804 Y83.873 F9000
G1 Z.4
G1 Z.2
G1 E2 F3600
;TYPE:Skirt
;WIDTH:0.5
G1 F900
G1 X92.452 Y83.169 E.03457
G1 X93.547 Y82.438 E.04751
G1 X94.468 Y82.105 E.03539
G1 X95.374 Y81.971 E.03304
G1 X129.804 Y81.967 E1.24312
G1 X130.753 Y82.105 E.03465
G1 X131.415 Y82.316 E.02507
G1 X132.064 Y82.648 E.02633
G1 X132.799 Y83.194 E.03304
G1 X133.415 Y83.87 E.03304
G1 X133.999 Y84.881 E.04213
G1 X134.223 Y85.574 E.02633
G1 X134.357 Y86.48 E.03304
G1 X134.368 Y132.717 E1.66944
G1 X133.976 Y134.048 E.0501
G1 X132.926 Y134.955 E.0501
G1 X131.911 Y135.174 E.03748
G1 X93.311 Y135.174 E1.39369
G1 X91.98 Y134.782 E.0501
G1 X91.073 Y133.732 E.0501
G1 X90.854 Y132.717 E.03748
G1 X90.854 Y86.717 E1.66088
G1 X90.908 Y86.04 E.02453
G1 X91.125 Y85.151 E.03304
G1 X91.332 Y84.653 E.01947
G1 X91.783 Y83.907 E.03146
; printing object Anycubic Baseplate, Sidecar.step id:0 copy 0
G1 E-1.4 F3600
;WIPE_START
G1 F900
G1 X92.452 Y83.169 E-.59799
G1 X92.455 Y83.167 E-.00201
;WIPE_END
EXCLUDE_OBJECT_START NAME=Anycubic_Baseplate_Sidecar.step_id_0_copy_0
G17
G3 Z.6 I-.449 J1.131 P1  F9000
G1 X122.802 Y95.203 Z.6
G1 Z.2
G1 E2 F3600
;TYPE:Inner wall
;WIDTH:0.499999
G1 F900
G1 X123.035 Y95.358 E.01008
G1 X123.798 Y95.705 E.03028
G1 X124.476 Y95.905 E.0255
G1 X125.289 Y96.019 E.02964
G1 X126.11 Y96.005 E.02964
G1 X126.914 Y95.866 E.02948
G1 X127.675 Y95.611 E.02897
G1 X128.385 Y95.245 E.02882
G1 X129.05 Y94.764 E.02964
G1 X129.633 Y94.186 E.02964
G1 X130.118 Y93.527 E.02955
G1 X130.489 Y92.818 E.02891
G1 X130.747 Y92.07 E.02856
G1 X130.747 Y115.178 E.83435
G1 X130.771 Y115.5 E.01166
;WIDTH:0.450548
G1 X130.796 Y115.822 E.0104
G1 X130.72 Y115.422 E.01314
;WIDTH:0.499999
G1 X130.644 Y115.021 E.01473
G1 X130.331 Y114.282 E.02897
G1 X129.912 Y113.601 E.02886
G1 X129.381 Y112.975 E.02964
G1 X128.759 Y112.439 E.02964
G1 X128.062 Y112.005 E.02964
G1 X127.312 Y111.686 E.02942
G1 X126.535 Y111.486 E.02897
G1 X125.739 Y111.407 E.02887
G1 X124.919 Y111.451 E.02964
G1 X124.028 Y111.652 E.03301
G1 X123.302 Y111.937 E.02815
G1 X122.654 Y112.305 E.02691
G1 X122.009 Y112.813 E.02964
G1 X121.451 Y113.415 E.02964
G1 X120.97 Y114.141 E.03144
G1 X120.651 Y114.815 E.02692
G1 X120.462 Y115.414 E.02267
G1 X120.397 Y115.747 E.01227
G1 X120.309 Y116.531 E.02849
G1 X120.323 Y117.213 E.02463
G1 X120.418 Y117.834 E.02267
G1 X120.504 Y118.15 E.01182
G1 X120.717 Y118.781 E.02406
G1 X121.094 Y119.511 E.02964
G1 X121.575 Y120.17 E.02947
G1 X122.141 Y120.739 E.02897
G1 X122.784 Y121.212 E.02882
G1 X123.51 Y121.595 E.02964
G1 X124.287 Y121.861 E.02964
G1 X125.093 Y122.003 E.02954
G1 X125.893 Y122.021 E.02891
G1 X126.707 Y121.914 E.02964
G1 X127.495 Y121.683 E.02964
G1 X128.233 Y121.335 E.02945
G1 X128.899 Y120.888 E.02897
G1 X129.487 Y120.347 E.02884
G1 X130.001 Y119.707 E.02964
G1 X130.409 Y118.995 E.02964
G1 X130.65 Y118.397 E.02326
G1 X130.747 Y118.04 E.01336
G1 X130.747 Y131.553 E.4879
G1 X94.475 Y131.553 E1.30962
G1 X94.475 Y118.449 E.47311
G1 X94.459 Y118.127 E.01164
;WIDTH:0.46846
G1 X94.444 Y117.805 E.01084
G1 X94.544 Y118.202 E.01375
;WIDTH:0.499999
G1 X94.644 Y118.598 E.01477
G1 X94.983 Y119.324 E.02892
G1 X95.44 Y120.006 E.02964
G1 X95.997 Y120.609 E.02964
G1 X96.636 Y121.116 E.02945
G1 X97.332 Y121.515 E.02897
G1 X98.078 Y121.802 E.02885
G1 X98.88 Y121.978 E.02964
G1 X99.7 Y122.028 E.02965
G1 X100.514 Y121.951 E.02952
G1 X101.291 Y121.756 E.02894
G1 X102.047 Y121.437 E.02964
G1 X102.745 Y121.005 E.02964
G1 X103.364 Y120.474 E.02943
G1 X103.888 Y119.866 E.02897
G1 X104.229 Y119.339 E.02267
G1 X104.439 Y118.905 E.01741
G1 X104.678 Y118.285 E.02398
G1 X104.855 Y117.521 E.02833
G1 X104.921 Y116.826 E.0252
G1 X104.897 Y116.199 E.02267
G1 X104.845 Y115.861 E.01233
G1 X104.676 Y115.134 E.02697
G1 X104.391 Y114.408 E.02814
G1 X104.023 Y113.76 E.02691
G1 X103.515 Y113.115 E.02964
G1 X102.913 Y112.557 E.02964
G1 X102.187 Y112.076 E.03144
G1 X101.423 Y111.729 E.03028
G1 X100.746 Y111.529 E.0255
G1 X99.933 Y111.415 E.02964
G1 X99.112 Y111.429 E.02964
G1 X98.308 Y111.568 E.02948
G1 X97.547 Y111.823 E.02897
G1 X96.837 Y112.188 E.02882
G1 X96.172 Y112.669 E.02964
G1 X95.589 Y113.248 E.02964
G1 X95.102 Y113.909 E.02965
G1 X94.726 Y114.633 E.02946
G1 X94.475 Y115.364 E.0279
G1 X94.475 Y92.037 E.84222
G1 X94.572 Y92.397 E.01344
G1 X94.891 Y93.153 E.02964
G1 X95.321 Y93.849 E.02951
G1 X95.841 Y94.459 E.02894
G1 X96.463 Y94.995 E.02964
G1 X97.16 Y95.429 E.02964
G1 X97.91 Y95.748 E.02942
G1 X98.687 Y95.947 E.02897
G1 X99.483 Y96.026 E.02887
G1 X100.302 Y95.983 E.02964
G1 X101.194 Y95.782 E.03301
G1 X101.92 Y95.497 E.02815
G1 X102.568 Y95.129 E.0269
G1 X103.212 Y94.621 E.02964
G1 X103.771 Y94.019 E.02964
G1 X104.252 Y93.293 E.03144
G1 X104.599 Y92.529 E.03027
G1 X104.799 Y91.852 E.0255
G1 X104.913 Y91.039 E.02964
G1 X104.899 Y90.218 E.02964
G1 X104.76 Y89.414 E.02948
G1 X104.505 Y88.653 E.02897
G1 X104.139 Y87.943 E.02882
G1 X103.658 Y87.278 E.02964
G1 X103.08 Y86.695 E.02964
G1 X102.421 Y86.21 E.02955
G1 X101.712 Y85.839 E.02891
G1 X100.966 Y85.581 E.0285
G1 X124.28 Y85.583 E.84181
G1 X123.931 Y85.678 E.01307
G1 X123.174 Y85.997 E.02964
G1 X122.479 Y86.427 E.02951
G1 X121.869 Y86.947 E.02894
G1 X121.333 Y87.569 E.02964
G1 X120.899 Y88.266 E.02964
G1 X120.58 Y89.016 E.02942
G1 X120.38 Y89.793 E.02897
G1 X120.301 Y90.589 E.02887
G1 X120.345 Y91.408 E.02964
G1 X120.546 Y92.3 E.033
G1 X120.831 Y93.026 E.02815
G1 X121.199 Y93.674 E.0269
G1 X121.707 Y94.319 E.02964
G1 X122.309 Y94.877 E.02964
G1 X122.769 Y95.181 E.01992
G1 E-1.4 F3600
;WIPE_START
G1 F900
G1 X123.035 Y95.358 E-.19156
G1 X123.655 Y95.639 E-.40844
;WIPE_END
G17
G3 Z.6 I.804 J.914 P1  F9000
G1 X130.747 Y89.397 Z.6
G1 Z.2
G1 E2 F3600
G1 F900
G1 X130.584 Y88.854 E.02047
G1 X130.238 Y88.11 E.02964
G1 X129.889 Y87.569 E.02326
G1 X129.501 Y87.113 E.0216
G1 X129.136 Y86.752 E.01854
G1 X128.601 Y86.327 E.02469
G1 X127.888 Y85.918 E.02964
G1 X127.122 Y85.625 E.02965
G1 X126.909 Y85.594 E.00778
;WIDTH:0.465057
G1 X126.695 Y85.562 E.00718
;WIDTH:0.430115
G1 X126.482 Y85.531 E.00659
G1 X126.697 Y85.549 E.00659
;WIDTH:0.465057
G1 X126.912 Y85.566 E.00718
;WIDTH:0.499999
G1 X127.126 Y85.584 E.00778
G1 X129.045 Y85.584 E.06929
G1 X129.821 Y85.607 E.02802
G1 X130.243 Y85.78 E.01647
G1 X130.503 Y86.03 E.013
G1 X130.671 Y86.342 E.01279
G1 X130.747 Y86.805 E.01694
G1 X130.747 Y89.357 E.09217
G1 E-1.4 F3600
;WIPE_START
G1 F900
G1 X130.584 Y88.854 E-.3172
G1 X130.386 Y88.427 E-.2828
;WIPE_END
G17
G3 Z.6 I-.799 J-.918 P1  F9000
G1 X123.046 Y94.82 Z.6
G1 Z.2
G1 E2 F3600
G1 F900
G1 X122.571 Y94.502 E.02064
G1 X122.023 Y93.989 E.02709
G1 X121.562 Y93.397 E.02709
G1 X121.233 Y92.807 E.02439
G1 X120.976 Y92.145 E.02565
G1 X120.793 Y91.322 E.03045
G1 X120.758 Y90.572 E.02709
G1 X120.834 Y89.845 E.02639
G1 X121.021 Y89.137 E.02645
G1 X121.317 Y88.451 E.02695
G1 X121.717 Y87.817 E.02709
G1 X122.21 Y87.252 E.02709
G1 X122.77 Y86.78 E.02643
G1 X123.408 Y86.39 E.02701
G1 X124.102 Y86.102 E.02709
G1 X124.932 Y85.91 E.03079
G1 X125.558 Y85.862 E.02267
G1 X126.289 Y85.91 E.02645
G1 X127.019 Y86.07 E.02697
G1 X127.718 Y86.343 E.02709
G1 X128.367 Y86.72 E.02709
G1 X128.846 Y87.104 E.02219
G1 X129.271 Y87.542 E.02202
G1 X129.505 Y87.817 E.01304
G1 X129.854 Y88.358 E.02326
G1 X130.166 Y89.04 E.02708
G1 X130.367 Y89.742 E.02637
G1 X130.459 Y90.469 E.02645
G1 X130.44 Y91.216 E.02698
G1 X130.306 Y91.954 E.02709
G1 X130.059 Y92.663 E.02709
G1 X129.717 Y93.309 E.02641
G1 X129.269 Y93.909 E.02703
G1 X128.733 Y94.435 E.02709
G1 X128.123 Y94.871 E.02708
G1 X127.472 Y95.201 E.02636
G1 X126.776 Y95.43 E.02645
G1 X126.039 Y95.553 E.02699
G1 X125.289 Y95.562 E.02709
G1 X124.546 Y95.454 E.02709
G1 X123.936 Y95.269 E.02301
G1 X123.238 Y94.948 E.02775
G1 X123.079 Y94.842 E.00689
G1 E-1.4 F3600
;WIPE_START
G1 F900
G1 X122.571 Y94.502 E-.36702
G1 X122.287 Y94.236 E-.23298
;WIPE_END
G17
G3 Z.6 I1.169 J.337 P1  F9000
G1 X124.798 Y85.525 Z.6
G1 Z.2
G1 E2 F3600
;WIDTH:0.383634
G1 F900
G1 X125.164 Y85.51 E.00987
;WIDTH:0.35297
G1 X125.53 Y85.495 E.00898
;WIDTH:0.370376
G1 X126.319 Y85.519 E.02042
;WIDTH:0.395172
G1 X126.482 Y85.531 E.00454
G1 E-1.4 F3600
;WIPE_START
G1 F900
G1 X126.319 Y85.519 E-.098
G1 X125.53 Y85.495 E-.47376
G1 X125.483 Y85.497 E-.02824
;WIPE_END
G17
G3 Z.6 I-1.182 J-.29 P1  F9000
G1 X123.292 Y94.438 Z.6
G1 Z.2
G1 E2 F3600
;TYPE:Outer wall
;WIDTH:0.499999
G1 F900
G1 X122.832 Y94.127 E.02002
G1 X122.34 Y93.659 E.02454
G1 X121.926 Y93.12 E.02454
G1 X121.634 Y92.589 E.02187
G1 X121.406 Y91.99 E.02315
G1 X121.242 Y91.235 E.02789
G1 X121.215 Y90.556 E.02453
G1 X121.288 Y89.898 E.02391
G1 X121.461 Y89.258 E.02393
G1 X121.734 Y88.637 E.02449
G1 X122.101 Y88.065 E.02454
G1 X122.551 Y87.556 E.02454
G1 X123.061 Y87.132 E.02393
G1 X123.643 Y86.782 E.02451
G1 X124.272 Y86.526 E.02454
G1 X124.967 Y86.366 E.02577
G1 X125.593 Y86.318 E.02267
G1 X126.254 Y86.366 E.02393
G1 X126.916 Y86.516 E.02449
G1 X127.547 Y86.767 E.02454
G1 X128.133 Y87.112 E.02453
G1 X128.555 Y87.457 E.01968
G1 X129.121 Y88.065 E.02998
G1 X129.47 Y88.606 E.02326
G1 X129.749 Y89.226 E.02453
G1 X129.927 Y89.863 E.0239
G1 X130.005 Y90.521 E.02393
G1 X129.984 Y91.2 E.0245
G1 X129.857 Y91.867 E.02454
G1 X129.629 Y92.507 E.02453
G1 X129.315 Y93.091 E.02392
G1 X128.906 Y93.632 E.02452
G1 X128.417 Y94.105 E.02454
G1 X127.862 Y94.496 E.02453
G1 X127.269 Y94.792 E.0239
G1 X126.638 Y94.994 E.02393
G1 X125.968 Y95.102 E.0245
G1 X125.289 Y95.104 E.02454
G1 X124.617 Y95.002 E.02453
G1 X124.074 Y94.833 E.02052
G1 X123.441 Y94.538 E.02523
G1 X123.325 Y94.46 E.00506
G1 E-1.4 F3600
;WIPE_START
G1 F900
G1 X122.832 Y94.127 E-.35668
G1 X122.538 Y93.848 E-.24332
;WIPE_END
G17
G3 Z.6 I.536 J1.093 P1  F9000
G1 X130.794 Y89.798 Z.6
G1 Z.2
G1 E2 F3600
;TYPE:Inner wall
;WIDTH:0.404936
G1 F900
G1 X130.812 Y90.112 E.00899
;WIDTH:0.368811
G1 X130.83 Y90.426 E.0081
;WIDTH:0.349482
G1 X130.822 Y91.23 E.01946
;WIDTH:0.364966
G1 X130.814 Y91.377 E.00376
G1 E-1.4 F3600
;WIPE_START
G1 F900
G1 X130.822 Y91.23 E-.08862
G1 X130.83 Y90.426 E-.48208
G1 X130.828 Y90.377 E-.0293
;WIPE_END
G17
G3 Z.6 I-1.167 J-.344 P1  F9000
G1 X124.457 Y112.021 Z.6
G1 Z.2
G1 E2 F3600
;WIDTH:0.499999
G1 F900
G1 X125.006 Y111.899 E.02032
G1 X125.756 Y111.864 E.02709
G1 X126.483 Y111.94 E.02639
G1 X127.191 Y112.127 E.02645
G1 X127.876 Y112.423 E.02695
G1 X128.511 Y112.823 E.02709
G1 X129.076 Y113.316 E.02709
G1 X129.558 Y113.891 E.02709
G1 X129.938 Y114.515 E.02638
G1 X130.22 Y115.192 E.02645
G1 X130.4 Y115.916 E.02696
G1 X130.466 Y116.664 E.02709
G1 X130.416 Y117.412 E.02709
G1 X130.257 Y118.127 E.02643
G1 X129.985 Y118.824 E.02702
G1 X129.608 Y119.473 E.02709
G1 X129.135 Y120.055 E.02708
G1 X128.595 Y120.547 E.02637
G1 X127.985 Y120.952 E.02645
G1 X127.307 Y121.266 E.02697
G1 X126.586 Y121.473 E.02709
G1 X125.842 Y121.567 E.02709
G1 X125.11 Y121.546 E.02642
G1 X124.374 Y121.412 E.02703
G1 X123.665 Y121.165 E.02709
G1 X123.004 Y120.812 E.02709
G1 X122.418 Y120.375 E.02636
G1 X121.905 Y119.853 E.02645
G1 X121.467 Y119.247 E.02698
G1 X121.127 Y118.578 E.02709
G1 X120.94 Y118.013 E.0215
G1 X120.792 Y117.262 E.02764
G1 X120.766 Y116.531 E.02638
G1 X120.848 Y115.818 E.02594
G1 X121.059 Y115.042 E.02901
G1 X121.38 Y114.344 E.02775
G1 X121.826 Y113.677 E.02898
G1 X122.339 Y113.129 E.02709
G1 X122.931 Y112.668 E.02709
G1 X123.52 Y112.339 E.02439
G1 X124.183 Y112.082 E.02565
G1 X124.418 Y112.03 E.00869
G1 X124.562 Y112.463 F9000
;TYPE:Outer wall
G1 F900
G1 X125.093 Y112.348 E.01961
G1 X125.772 Y112.321 E.02453
G1 X126.43 Y112.394 E.02391
G1 X127.07 Y112.567 E.02393
G1 X127.691 Y112.841 E.02449
G1 X128.263 Y113.207 E.02454
G1 X128.772 Y113.657 E.02454
G1 X129.205 Y114.181 E.02453
G1 X129.546 Y114.749 E.02391
G1 X129.796 Y115.363 E.02393
G1 X129.955 Y116.022 E.02449
G1 X130.01 Y116.699 E.02454
G1 X129.96 Y117.377 E.02454
G1 X129.812 Y118.023 E.02392
G1 X129.561 Y118.654 E.02451
G1 X129.216 Y119.239 E.02454
G1 X128.784 Y119.763 E.02453
G1 X128.291 Y120.206 E.02391
G1 X127.736 Y120.568 E.02393
G1 X127.119 Y120.85 E.02449
G1 X126.465 Y121.033 E.02454
G1 X125.79 Y121.112 E.02453
G1 X125.128 Y121.09 E.02392
G1 X124.461 Y120.963 E.02452
G1 X123.82 Y120.735 E.02454
G1 X123.223 Y120.411 E.02453
G1 X122.695 Y120.012 E.0239
G1 X122.234 Y119.536 E.02393
G1 X121.84 Y118.983 E.0245
G1 X121.536 Y118.375 E.02454
G1 X121.376 Y117.876 E.01895
G1 X121.244 Y117.192 E.02515
G1 X121.223 Y116.531 E.02386
G1 X121.3 Y115.888 E.02338
G1 X121.495 Y115.18 E.02652
G1 X121.789 Y114.547 E.02523
G1 X122.201 Y113.938 E.02652
G1 X122.669 Y113.446 E.02454
G1 X123.208 Y113.032 E.02454
G1 X123.739 Y112.74 E.02187
G1 X124.338 Y112.512 E.02315
G1 X124.523 Y112.472 E.00684
G1 E-1.4 F3600
;WIPE_START
G1 F900
G1 X125.093 Y112.348 E-.34991
G1 X125.51 Y112.332 E-.25009
;WIPE_END
G17
G3 Z.6 I-.671 J1.016 P1  F9000
G1 X130.796 Y115.822 Z.6
G1 Z.2
G1 E2 F3600
;TYPE:Inner wall
;WIDTH:0.401096
G1 F900
G1 X130.815 Y116.229 E.01151
;WIDTH:0.362946
G1 X130.834 Y116.635 E.01028
;WIDTH:0.349815
G1 X130.822 Y117.039 E.0098
;WIDTH:0.374834
G1 X130.809 Y117.443 E.0106
;WIDTH:0.387922
G1 X130.803 Y117.547 E.00284
G1 E-1.4 F3600
;WIPE_START
G1 F900
G1 X130.809 Y117.443 E-.06251
G1 X130.822 Y117.039 E-.24247
G1 X130.834 Y116.635 E-.24247
G1 X130.83 Y116.548 E-.05254
;WIPE_END
G17
G3 Z.6 I.088 J-1.214 P1  F9000
M73 P0 R96
G1 X95.6 Y113.998 Z.6
G1 Z.2
G1 E2 F3600
;WIDTH:0.499999
G1 F900
G1 X95.953 Y113.525 E.02129
G1 X96.488 Y112.999 E.02709
G1 X97.099 Y112.563 E.02708
G1 X97.75 Y112.233 E.02636
G1 X98.446 Y112.004 E.02645
G1 X99.183 Y111.881 E.02699
G1 X99.933 Y111.872 E.02709
G1 X100.675 Y111.98 E.02709
G1 X101.285 Y112.165 E.02301
G1 X101.984 Y112.486 E.02775
G1 X102.651 Y112.932 E.02898
G1 X103.198 Y113.445 E.02709
G1 X103.66 Y114.037 E.02709
G1 X103.989 Y114.627 E.02439
G1 X104.246 Y115.289 E.02565
G1 X104.397 Y115.948 E.02441
G1 X104.459 Y116.707 E.02751
G1 X104.382 Y117.626 E.03329
G1 X104.237 Y118.164 E.02012
G1 X104.023 Y118.717 E.02143
G1 X103.846 Y119.091 E.01493
G1 X103.504 Y119.618 E.02267
G1 X103.023 Y120.17 E.02645
G1 X102.453 Y120.653 E.02696
G1 X101.813 Y121.044 E.02709
G1 X101.12 Y121.332 E.02709
G1 X100.409 Y121.506 E.02643
G1 X99.664 Y121.572 E.02701
G1 X98.915 Y121.522 E.02709
G1 X98.184 Y121.357 E.02708
G1 X97.503 Y121.091 E.02638
G1 X96.869 Y120.724 E.02645
G1 X96.287 Y120.256 E.02697
G1 X95.781 Y119.702 E.02709
G1 X95.367 Y119.076 E.02709
G1 X95.061 Y118.411 E.02642
G1 X94.854 Y117.692 E.02703
;WIDTH:0.549382
G1 X94.801 Y117.469 E.00917
;WIDTH:0.598764
G1 X94.748 Y117.246 E.01007
;WIDTH:0.648146
G1 X94.695 Y117.023 E.01096
;WIDTH:0.65482
G1 X94.707 Y116.195 E.04004
G1 X94.759 Y116.016 E.009
;WIDTH:0.616115
G1 X94.811 Y115.837 E.00843
;WIDTH:0.57741
G1 X94.864 Y115.658 E.00786
;WIDTH:0.538705
G1 X94.916 Y115.479 E.00729
;WIDTH:0.499999
G1 X95.156 Y114.787 E.02645
G1 X95.504 Y114.126 E.02698
G1 X95.577 Y114.03 E.00436
G1 X95.841 Y114.466 F9000
;TYPE:Outer wall
G1 F900
