; HEADER_BLOCK_START
; generated by OrcaSlicer 1.7.0 on 2023-12-08 at 00:03:45
; total layer number: 200
; HEADER_BLOCK_END

; THUMBNAIL_BLOCK_START
; THUMBNAIL_BLOCK_END

; external perimeters extrusion width = 0.40mm
; perimeters extrusion width = 0.45mm
; infill extrusion width = 0.45mm
; solid infill extrusion width = 0.40mm
; top infill extrusion width = 0.40mm
; first layer extrusion width = 0.50mm

; EXECUTABLE_BLOCK_START
EXCLUDE_OBJECT_DEFINE NAME=Anycubic_Baseplate_Sidecar.step_id_0_copy_0 CENTER=110,110 POLYGON=[[89,86.5],[89.0492,85.8743],[89.1958,85.2639],[89.436,84.684],[89.7639,84.1489],[90.1716,83.6716],[90.6489,83.2639],[91.184,82.936],[91.7639,82.6958],[92.3743,82.5492],[93,82.5],[127,82.5],[127.626,82.5492],[128.236,82.6958],[128.816,82.936],[129.351,83.2639],[129.828,83.6716],[130.236,84.1489],[130.564,84.684],[130.804,85.2639],[130.951,85.8743],[131,86.5],[131,137.5],[89,137.5],[89,86.5]]
M73 P0 R100
;TYPE:Custom
START_PRINT EXTRUDER_TEMP=255  BED_TEMP=80
G90
G21
M83 ; use relative distances for extrusion
; filament start gcode
M106 S0
;LAYER_CHANGE
;Z:0.2
;HEIGHT:0.2
;BEFORE_LAYER_CHANGE
;0.2
G92 E0

G1 E-5 F1800
;_SET_FAN_SPEED_CHANGING_LAYER
G1 X83.31 Y76.859 F9000
G1 Z.4
G1 Z.2
G1 E5 F1800
;TYPE:Skirt
;WIDTH:0.5
G1 F900
G1 X84.501 Y75.802 E.05749
G1 X86.308 Y74.589 E.07858
G1 X88.772 Y73.51 E.09711
G1 X91.463 Y72.924 E.09943
G1 X93 Y72.829 E.05561
G1 X127 Y72.829 E1.2276
G1 X128.097 Y72.882 E.03966
G1 X130.69 Y73.346 E.09512
G1 X133.195 Y74.325 E.09711
G1 X135.854 Y76.095 E.1153
G1 X137.686 Y77.988 E.09512
G1 X139.121 Y80.197 E.09512
G1 X140.129 Y82.728 E.09836
G1 X140.576 Y84.963 E.08228
G1 X140.671 Y86.5 E.05561
G1 X140.671 Y132.5 E1.66088
G1 X140.273 Y135.483 E.10866
G1 X139.106 Y138.257 E.10866
G1 X137.252 Y140.628 E.10866
G1 X134.842 Y142.429 E.10866
G1 X132.043 Y143.535 E.10866
G1 X129.3 Y143.871 E.09977
G1 X90.7 Y143.871 E1.39369
G1 X87.717 Y143.473 E.10866
G1 X84.943 Y142.306 E.10866
G1 X82.572 Y140.452 E.10866
G1 X80.771 Y138.042 E.10866
G1 X79.665 Y135.243 E.10866
G1 X79.329 Y132.5 E.09977
G1 X79.329 Y86.5 E1.66088
G1 X79.424 Y84.963 E.05561
G1 X79.846 Y82.81 E.07922
G1 X81.049 Y79.883 E.11423
G1 X82.302 Y78.001 E.08165
G1 X83.284 Y76.889 E.05354
G1 X83.626 Y77.191 F9000
G1 F900
G1 X83.634 Y77.183 E.00041
G1 X84.791 Y76.156 E.05587
G1 X86.525 Y74.991 E.07543
G1 X88.906 Y73.947 E.09385
G1 X91.507 Y73.379 E.09612
G1 X93 Y73.286 E.05402
G1 X128.053 Y73.337 E1.26562
G1 X130.56 Y73.784 E.09194
G1 X132.981 Y74.729 E.09385
G1 X135.563 Y76.448 E.112
G1 X137.333 Y78.278 E.09194
G1 X138.719 Y80.414 E.09194
G1 X139.692 Y82.862 E.0951
G1 X140.121 Y85.007 E.07897
G1 X140.214 Y86.5 E.05402
G1 X140.214 Y132.5 E1.66088
G1 X139.816 Y135.421 E.10644
G1 X138.651 Y138.129 E.10644
G1 X136.803 Y140.426 E.10644
G1 X134.408 Y142.145 E.10644
G1 X131.64 Y143.16 E.10644
G1 X129.3 Y143.414 E.08498
G1 X90.7 Y143.414 E1.39369
G1 X87.779 Y143.016 E.10644
G1 X85.071 Y141.851 E.10644
G1 X82.774 Y140.003 E.10644
G1 X81.055 Y137.608 E.10644
G1 X80.04 Y134.84 E.10644
G1 X79.786 Y132.5 E.08498
G1 X79.786 Y86.5 E1.66088
G1 X79.879 Y85.007 E.05402
G1 X80.284 Y82.94 E.07604
G1 X81.452 Y80.098 E.11097
G1 X82.656 Y78.291 E.07837
G1 X83.6 Y77.221 E.05151
G1 X83.942 Y77.523 F9000
G1 F900
G1 X83.957 Y77.506 E.00082
G1 X85.081 Y76.509 E.05425
G1 X86.743 Y75.393 E.07227
G1 X89.04 Y74.384 E.09059
G1 X91.551 Y73.834 E.09282
G1 X93 Y73.743 E.05242
G1 X128.009 Y73.792 E1.26403
G1 X130.429 Y74.222 E.08876
G1 X132.767 Y75.133 E.09058
G1 X135.273 Y76.801 E.10869
M73 P0 R99
G1 X136.981 Y78.569 E.08876
G1 X138.317 Y80.632 E.08875
G1 X139.255 Y82.996 E.09184
G1 X139.666 Y85.051 E.07567
G1 X139.757 Y86.5 E.05242
G1 X139.757 Y132.5 E1.66088
G1 X139.359 Y135.358 E.10418
G1 X138.195 Y137.998 E.10418
G1 X136.354 Y140.22 E.10418
G1 X133.976 Y141.854 E.10418
G1 X131.241 Y142.775 E.10418
G1 X129.3 Y142.957 E.0704
G1 X90.7 Y142.957 E1.39369
G1 X87.842 Y142.559 E.10418
G1 X85.202 Y141.395 E.10418
G1 X82.98 Y139.554 E.10418
G1 X81.346 Y137.176 E.10418
G1 X80.425 Y134.441 E.10418
G1 X80.243 Y132.5 E.0704
G1 X80.243 Y86.5 E1.66088
G1 X80.334 Y85.051 E.05242
G1 X80.722 Y83.071 E.07285
G1 X81.856 Y80.312 E.1077
G1 X83.009 Y78.581 E.07509
G1 X83.915 Y77.553 E.04949
; printing object Anycubic Baseplate, Sidecar.step id:0 copy 0
G1 E-3.5 F1800
;WIPE_START
G1 F900
G1 X83.957 Y77.506 E-.06261
G1 X85.032 Y76.552 E-1.43739
;WIPE_END
EXCLUDE_OBJECT_START NAME=Anycubic_Baseplate_Sidecar.step_id_0_copy_0
G17
G3 Z.6 I-.565 J1.078 P1  F9000
G1 X120.788 Y95.306 Z.6
G1 Z.2
G1 E5 F1800
;TYPE:Inner wall
;WIDTH:0.499999
G1 F900
G1 X121.188 Y95.488 E.01583
G1 X121.865 Y95.688 E.0255
G1 X122.678 Y95.802 E.02964
G1 X123.499 Y95.788 E.02964
G1 X124.303 Y95.649 E.02948
G1 X125.064 Y95.394 E.02897
G1 X125.774 Y95.028 E.02882
G1 X126.439 Y94.548 E.02964
G1 X127.022 Y93.969 E.02964
G1 X127.507 Y93.31 E.02955
G1 X127.878 Y92.601 E.02891
G1 X128.136 Y91.853 E.02856
G1 X128.136 Y114.961 E.83435
G1 X128.161 Y115.283 E.01166
;WIDTH:0.450548
G1 X128.185 Y115.605 E.0104
G1 X128.109 Y115.205 E.01314
;WIDTH:0.499999
G1 X128.033 Y114.804 E.01473
G1 X127.72 Y114.065 E.02897
G1 X127.301 Y113.384 E.02886
G1 X126.77 Y112.758 E.02964
G1 X126.148 Y112.222 E.02964
G1 X125.451 Y111.788 E.02964
G1 X124.701 Y111.469 E.02942
G1 X123.924 Y111.269 E.02897
G1 X123.128 Y111.191 E.02887
G1 X122.309 Y111.234 E.02964
G1 X121.417 Y111.435 E.03301
G1 X120.691 Y111.72 E.02815
G1 X120.043 Y112.088 E.02691
G1 X119.398 Y112.596 E.02964
G1 X118.84 Y113.198 E.02964
G1 X118.359 Y113.924 E.03144
G1 X118.041 Y114.598 E.02692
G1 X117.851 Y115.197 E.02267
G1 X117.786 Y115.53 E.01227
G1 X117.698 Y116.314 E.02849
G1 X117.712 Y116.997 E.02463
G1 X117.808 Y117.617 E.02267
G1 X117.893 Y117.933 E.01182
G1 X118.106 Y118.564 E.02406
G1 X118.483 Y119.294 E.02964
G1 X118.964 Y119.953 E.02947
G1 X119.53 Y120.522 E.02897
G1 X120.173 Y120.995 E.02882
G1 X120.899 Y121.378 E.02964
G1 X121.676 Y121.644 E.02964
G1 X122.482 Y121.786 E.02954
G1 X123.282 Y121.804 E.02891
G1 X124.096 Y121.697 E.02964
G1 X124.884 Y121.466 E.02964
G1 X125.622 Y121.119 E.02945
G1 X126.289 Y120.671 E.02897
G1 X126.876 Y120.13 E.02884
G1 X127.39 Y119.49 E.02964
G1 X127.798 Y118.778 E.02964
G1 X128.039 Y118.18 E.02326
G1 X128.136 Y117.823 E.01336
G1 X128.136 Y131.336 E.4879
G1 X91.864 Y131.336 E1.30962
G1 X91.864 Y118.232 E.47311
G1 X91.849 Y117.91 E.01164
;WIDTH:0.46846
G1 X91.833 Y117.588 E.01084
G1 X91.933 Y117.985 E.01375
;WIDTH:0.499999
G1 X92.033 Y118.382 E.01477
G1 X92.373 Y119.107 E.02892
G1 X92.829 Y119.789 E.02964
G1 X93.386 Y120.392 E.02964
G1 X94.025 Y120.9 E.02945
G1 X94.722 Y121.298 E.02897
G1 X95.467 Y121.585 E.02885
G1 X96.269 Y121.761 E.02964
G1 X97.089 Y121.811 E.02965
G1 X97.903 Y121.734 E.02952
G1 X98.68 Y121.539 E.02894
G1 X99.436 Y121.22 E.02964
G1 X100.135 Y120.788 E.02964
M73 P1 R99
G1 X100.753 Y120.257 E.02943
G1 X101.277 Y119.649 E.02897
G1 X101.619 Y119.122 E.02267
G1 X101.829 Y118.688 E.01741
G1 X102.067 Y118.068 E.02398
G1 X102.244 Y117.304 E.02833
G1 X102.31 Y116.609 E.0252
G1 X102.286 Y115.982 E.02267
G1 X102.234 Y115.644 E.01233
G1 X102.065 Y114.917 E.02697
G1 X101.78 Y114.191 E.02814
G1 X101.412 Y113.543 E.02691
G1 X100.904 Y112.898 E.02964
G1 X100.302 Y112.34 E.02964
G1 X99.576 Y111.859 E.03144
G1 X98.812 Y111.512 E.03028
G1 X98.135 Y111.312 E.0255
G1 X97.322 Y111.198 E.02964
G1 X96.501 Y111.212 E.02964
G1 X95.697 Y111.351 E.02948
G1 X94.936 Y111.606 E.02897
G1 X94.226 Y111.972 E.02882
G1 X93.561 Y112.452 E.02964
G1 X92.978 Y113.031 E.02964
G1 X92.492 Y113.692 E.02965
G1 X92.115 Y114.416 E.02946
G1 X91.864 Y115.147 E.0279
G1 X91.864 Y91.82 E.84222
G1 X91.961 Y92.18 E.01344
G1 X92.28 Y92.936 E.02964
G1 X92.71 Y93.632 E.02951
G1 X93.23 Y94.242 E.02894
G1 X93.852 Y94.778 E.02964
G1 X94.549 Y95.212 E.02964
G1 X95.299 Y95.531 E.02942
G1 X96.076 Y95.731 E.02897
G1 X96.872 Y95.809 E.02887
G1 X97.691 Y95.766 E.02964
G1 X98.583 Y95.565 E.03301
G1 X99.309 Y95.28 E.02815
G1 X99.957 Y94.912 E.0269
G1 X100.602 Y94.404 E.02964
G1 X101.16 Y93.802 E.02964
G1 X101.641 Y93.076 E.03144
G1 X101.988 Y92.312 E.03027
G1 X102.188 Y91.635 E.0255
G1 X102.302 Y90.822 E.02964
G1 X102.288 Y90.001 E.02964
G1 X102.149 Y89.197 E.02948
G1 X101.894 Y88.436 E.02897
G1 X101.528 Y87.726 E.02882
G1 X101.048 Y87.061 E.02964
G1 X100.469 Y86.478 E.02964
G1 X99.81 Y85.993 E.02955
G1 X99.101 Y85.622 E.02891
G1 X98.355 Y85.365 E.0285
G1 X121.67 Y85.366 E.84181
G1 X121.32 Y85.461 E.01307
G1 X120.564 Y85.78 E.02964
G1 X119.868 Y86.21 E.02951
G1 X119.258 Y86.73 E.02894
G1 X118.722 Y87.352 E.02964
G1 X118.288 Y88.049 E.02964
G1 X117.969 Y88.799 E.02942
G1 X117.769 Y89.576 E.02897
G1 X117.691 Y90.372 E.02887
G1 X117.734 Y91.191 E.02964
G1 X117.935 Y92.083 E.033
G1 X118.22 Y92.809 E.02815
G1 X118.588 Y93.457 E.0269
G1 X119.096 Y94.102 E.02964
G1 X119.698 Y94.66 E.02964
G1 X120.424 Y95.141 E.03144
G1 X120.752 Y95.29 E.013
G1 E-3.5 F1800
;WIPE_START
G1 F900
G1 X121.188 Y95.488 E-.47842
G1 X121.865 Y95.688 E-.7063
G1 X122.177 Y95.732 E-.31527
;WIPE_END
G17
G3 Z.6 I.9 J.819 P1  F9000
G1 X128.136 Y89.181 Z.6
G1 Z.2
G1 E5 F1800
G1 F900
G1 X127.973 Y88.638 E.02047
G1 X127.627 Y87.893 E.02964
G1 X127.278 Y87.352 E.02326
G1 X126.89 Y86.897 E.0216
G1 X126.526 Y86.535 E.01854
G1 X125.99 Y86.11 E.02469
G1 X125.278 Y85.702 E.02964
G1 X124.511 Y85.408 E.02965
G1 X124.298 Y85.377 E.00778
;WIDTH:0.465057
G1 X124.085 Y85.346 E.00718
;WIDTH:0.430115
G1 X123.871 Y85.314 E.00659
G1 X124.086 Y85.332 E.00659
;WIDTH:0.465057
G1 X124.301 Y85.349 E.00718
;WIDTH:0.499999
G1 X124.516 Y85.367 E.00778
G1 X126.435 Y85.367 E.06929
G1 X127.21 Y85.39 E.02802
G1 X127.632 Y85.563 E.01647
G1 X127.892 Y85.813 E.013
G1 X128.06 Y86.125 E.01279
G1 X128.136 Y86.588 E.01694
G1 X128.136 Y89.141 E.09217
G1 E-3.5 F1800
;WIPE_START
G1 F900
G1 X127.973 Y88.638 E-.52867
G1 X127.627 Y87.893 E-.82087
G1 X127.546 Y87.767 E-.15046
;WIPE_END
G1 E0 F1800
G17
G3 Z.6 I-.894 J-.826 P1  F9000
G1 X120.97 Y94.888 Z.6
G1 Z.2
G1 E5 F1800
G1 F900
G1 X120.627 Y94.731 E.01361
G1 X119.96 Y94.285 E.02898
G1 X119.413 Y93.772 E.02709
G1 X118.951 Y93.18 E.02709
G1 X118.622 Y92.59 E.02439
G1 X118.365 Y91.928 E.02565
G1 X118.183 Y91.105 E.03045
G1 X118.147 Y90.355 E.02709
G1 X118.223 Y89.628 E.02639
G1 X118.41 Y88.92 E.02645
G1 X118.706 Y88.235 E.02695
G1 X119.106 Y87.6 E.02709
G1 X119.599 Y87.035 E.02709
G1 X120.159 Y86.563 E.02643
G1 X120.798 Y86.173 E.02701
G1 X121.491 Y85.885 E.02709
G1 X122.22 Y85.709 E.02709
G1 X122.948 Y85.645 E.02638
G1 X123.679 Y85.693 E.02645
G1 X124.408 Y85.853 E.02697
G1 X125.107 Y86.126 E.02709
G1 X125.756 Y86.503 E.02709
G1 X126.395 Y87.029 E.0299
G1 X126.83 Y87.515 E.02355
G1 X127.244 Y88.141 E.02709
G1 X127.556 Y88.823 E.02708
G1 X127.757 Y89.525 E.02637
G1 X127.849 Y90.252 E.02645
G1 X127.83 Y90.999 E.02698
G1 X127.695 Y91.737 E.02709
G1 X127.448 Y92.446 E.02709
G1 X127.106 Y93.092 E.02641
G1 X126.658 Y93.692 E.02703
G1 X126.123 Y94.218 E.02709
G1 X125.512 Y94.654 E.02708
G1 X124.861 Y94.984 E.02636
G1 X124.165 Y95.213 E.02645
G1 X123.428 Y95.336 E.02699
G1 X122.678 Y95.345 E.02709
G1 X121.935 Y95.237 E.02709
G1 X121.325 Y95.052 E.02301
G1 X121.006 Y94.905 E.0127
G1 X121.153 Y94.472 F9000
;TYPE:Outer wall
G1 F900
G1 X120.83 Y94.321 E.01286
G1 X120.221 Y93.91 E.02652
G1 X119.729 Y93.442 E.02454
G1 X119.315 Y92.903 E.02454
G1 X119.023 Y92.372 E.02187
G1 X118.795 Y91.773 E.02315
G1 X118.631 Y91.018 E.02789
G1 X118.604 Y90.339 E.02453
G1 X118.678 Y89.681 E.02391
G1 X118.851 Y89.041 E.02393
G1 X119.124 Y88.42 E.02449
G1 X119.49 Y87.848 E.02454
G1 X119.94 Y87.339 E.02454
G1 X120.45 Y86.915 E.02393
G1 X121.032 Y86.565 E.02451
G1 X121.661 Y86.309 E.02454
G1 X122.323 Y86.154 E.02453
G1 X122.983 Y86.101 E.02391
G1 X123.644 Y86.149 E.02393
G1 X124.305 Y86.299 E.02449
G1 X124.937 Y86.55 E.02454
G1 X125.522 Y86.895 E.02453
G1 X126.058 Y87.337 E.02508
G1 X126.489 Y87.82 E.02336
G1 X126.86 Y88.389 E.02454
G1 X127.138 Y89.009 E.02453
G1 X127.316 Y89.646 E.0239
G1 X127.394 Y90.305 E.02393
G1 X127.373 Y90.983 E.0245
G1 X127.246 Y91.65 E.02454
G1 X127.018 Y92.29 E.02453
G1 X126.704 Y92.874 E.02392
G1 X126.295 Y93.415 E.02452
G1 X125.806 Y93.888 E.02454
G1 X125.251 Y94.279 E.02453
G1 X124.659 Y94.575 E.0239
G1 X124.027 Y94.777 E.02393
G1 X123.357 Y94.885 E.0245
G1 X122.678 Y94.888 E.02454
G1 X122.006 Y94.785 E.02453
G1 X121.463 Y94.616 E.02052
G1 X121.189 Y94.489 E.01093
G1 E-3.5 F1800
;WIPE_START
G1 F900
G1 X120.83 Y94.321 E-.39613
G1 X120.221 Y93.91 E-.73449
G1 X119.954 Y93.656 E-.36938
;WIPE_END
G17
G3 Z.6 I.54 J1.091 P1  F9000
G1 X128.183 Y89.581 Z.6
G1 Z.2
G1 E5 F1800
;TYPE:Inner wall
;WIDTH:0.404936
G1 F900
G1 X128.201 Y89.895 E.00899
;WIDTH:0.368811
G1 X128.219 Y90.209 E.0081
;WIDTH:0.349482
G1 X128.211 Y91.013 E.01946
;WIDTH:0.364966
G1 X128.203 Y91.16 E.00376
G1 E-3.5 F1800
;WIPE_START
G1 F900
G1 X128.211 Y91.013 E-.1477
G1 X128.219 Y90.209 E-.80346
G1 X128.201 Y89.895 E-.31448
G1 X128.188 Y89.661 E-.23436
;WIPE_END
G17
G3 Z.6 I.715 J-.985 P1  F9000
G1 X122.187 Y85.308 Z.6
G1 Z.2
G1 E5 F1800
;WIDTH:0.383634
G1 F900
G1 X122.553 Y85.293 E.00987
;WIDTH:0.35297
G1 X122.919 Y85.278 E.00898
;WIDTH:0.370376
G1 X123.709 Y85.302 E.02042
;WIDTH:0.395172
G1 X123.871 Y85.314 E.00454
G1 E-3.5 F1800
;WIPE_START
G1 F900
G1 X123.709 Y85.302 E-.16333
G1 X122.919 Y85.278 E-.7896
G1 X122.553 Y85.293 E-.36666
G1 X122.373 Y85.301 E-.18042
;WIPE_END
G17
G3 Z.6 I-.001 J-1.217 P1  F9000
G1 X96.017 Y85.321 Z.6
G1 Z.2
G1 E5 F1800
;WIDTH:0.43661
G1 F900
G1 X95.912 Y85.333 E.00327
;WIDTH:0.468305
G1 X95.525 Y85.43 E.01342
;WIDTH:0.499999
G1 X95.138 Y85.527 E.01442
G1 X94.393 Y85.873 E.02964
G1 X93.852 Y86.222 E.02326
G1 X93.397 Y86.61 E.0216
G1 X93.013 Y87 E.01975
G1 X92.61 Y87.51 E.02347
G1 X92.202 Y88.222 E.02964
G1 X91.908 Y88.989 E.02965
G1 X91.876 Y89.202 E.00778
;WIDTH:0.465895
G1 X91.845 Y89.415 E.0072
;WIDTH:0.431791
G1 X91.813 Y89.628 E.00662
G1 X91.83 Y89.414 E.00662
;WIDTH:0.465895
G1 X91.847 Y89.199 E.0072
;WIDTH:0.499999
G1 X91.864 Y88.984 E.00778
G1 X91.864 Y87.064 E.06931
G1 X91.891 Y86.285 E.02818
G1 X92.062 Y85.871 E.01617
G1 X92.312 Y85.608 E.0131
G1 X92.625 Y85.44 E.01281
G1 X93.056 Y85.364 E.01582
G1 X95.285 Y85.364 E.08046
G1 X95.651 Y85.343 E.01325
;WIDTH:0.456996
G1 X95.977 Y85.324 E.01069
G1 E-3.5 F1800
;WIPE_START
G1 F900
G1 X95.912 Y85.333 E-.06528
G1 X95.525 Y85.43 E-.3994
G1 X95.138 Y85.527 E-.3994
G1 X94.561 Y85.795 E-.63593
;WIPE_END
G17
G3 Z.6 I-.855 J.866 P1  F9000
G1 X101.387 Y92.534 Z.6
G1 Z.2
G1 E5 F1800
;WIDTH:0.499999
G1 F900
G1 X101.231 Y92.873 E.01347
G1 X100.785 Y93.54 E.02898
G1 X100.272 Y94.087 E.02709
G1 X99.68 Y94.549 E.02709
G1 X99.09 Y94.878 E.02439
G1 X98.428 Y95.135 E.02565
G1 X97.605 Y95.317 E.03045
G1 X96.855 Y95.353 E.02709
G1 X96.128 Y95.277 E.02639
G1 X95.42 Y95.09 E.02645
G1 X94.735 Y94.794 E.02695
G1 X94.1 Y94.394 E.02709
G1 X93.535 Y93.901 E.02709
G1 X93.063 Y93.341 E.02643
G1 X92.673 Y92.702 E.02701
G1 X92.385 Y92.009 E.02709
G1 X92.209 Y91.28 E.02709
G1 X92.145 Y90.552 E.02638
G1 X92.193 Y89.821 E.02645
G1 X92.353 Y89.092 E.02697
G1 X92.626 Y88.393 E.02709
G1 X93.003 Y87.744 E.02709
G1 X93.366 Y87.291 E.02097
G1 X93.825 Y86.84 E.02323
G1 X94.1 Y86.606 E.01304
G1 X94.641 Y86.256 E.02326
G1 X95.323 Y85.944 E.02708
G1 X96.025 Y85.743 E.02637
;WIDTH:0.549349
G1 X96.246 Y85.69 E.00907
;WIDTH:0.598699
G1 X96.466 Y85.638 E.00995
;WIDTH:0.648049
G1 X96.686 Y85.585 E.01083
;WIDTH:0.653098
G1 X97.502 Y85.594 E.0393
G1 X97.686 Y85.647 E.00922
;WIDTH:0.614824
G1 X97.869 Y85.699 E.00864
;WIDTH:0.576549
G1 X98.053 Y85.752 E.00806
;WIDTH:0.538274
G1 X98.237 Y85.805 E.00748
;WIDTH:0.499999
G1 X98.946 Y86.052 E.02709
G1 X99.592 Y86.394 E.02641
G1 X100.192 Y86.842 E.02703
G1 X100.718 Y87.377 E.02709
G1 X101.154 Y87.988 E.02708
G1 X101.484 Y88.639 E.02636
G1 X101.713 Y89.335 E.02645
G1 X101.836 Y90.072 E.02699
G1 X101.845 Y90.822 E.02709
G1 X101.737 Y91.565 E.02709
G1 X101.552 Y92.175 E.02301
G1 X101.403 Y92.498 E.01284
G1 X100.97 Y92.351 F9000
;TYPE:Outer wall
G1 F900
G1 X100.821 Y92.67 E.01272
G1 X100.41 Y93.279 E.02652
G1 X99.942 Y93.771 E.02454
G1 X99.403 Y94.185 E.02454
