; HEADER_BLOCK_START
; generated by OrcaSlicer 1.7.0 on 2023-11-10 at 20:49:19
; total layer number: 70
; HEADER_BLOCK_END

; THUMBNAIL_BLOCK_START
; THUMBNAIL_BLOCK_END

; external perimeters extrusion width = 0.40mm
; perimeters extrusion width = 0.45mm
; infill extrusion width = 0.45mm
; solid infill extrusion width = 0.40mm
; top infill extrusion width = 0.40mm
; first layer extrusion width = 0.50mm

; external perimeters extrusion width = 0.40mm
; perimeters extrusion width = 0.45mm
; infill extrusion width = 0.45mm
; solid infill extrusion width = 0.40mm
; top infill extrusion width = 0.40mm
; first layer extrusion width = 0.50mm

; EXECUTABLE_BLOCK_START
EXCLUDE_OBJECT_DEFINE NAME=Body5_id_0_copy_0 CENTER=125,110 POLYGON=[[112.5,102.356],[114.84,96.2509],[135.16,96.2509],[137.5,102.356],[137.5,123.749],[112.5,123.749],[112.5,102.356]]
EXCLUDE_OBJECT_DEFINE NAME=Body5_id_1_copy_0 CENTER=95,110 POLYGON=[[82.5,102.356],[84.84,96.2509],[105.16,96.2509],[107.5,102.356],[107.5,123.749],[82.5,123.749],[82.5,102.356]]
M73 P0 R34
;TYPE:Custom
START_PRINT EXTRUDER_TEMP=240  BED_TEMP=80
G90
G21
M83 ; use relative distances for extrusion
; filament start gcode
M106 S0
;LAYER_CHANGE
;Z:0.2
;HEIGHT:0.2
;BEFORE_LAYER_CHANGE
;0.2
G92 E0

G1 E-3 F1800
;_SET_FAN_SPEED_CHANGING_LAYER
SET_VELOCITY_LIMIT ACCEL=500 ACCEL_TO_DECEL=250
G1 Z.4 F12000
G1 X75.863 Y91.923
G1 Z.4
G1 Z.2
G1 E3 F1800
;TYPE:Skirt
;WIDTH:0.5
G1 F900
G1 X78.388 Y89.978 E.12111
G1 X81.316 Y88.721 E.12111
G1 X84.84 Y88.224 E.13527
G1 X135.16 Y88.224 E1.91248
G1 X138.322 Y88.622 E.12111
G1 X141.285 Y89.793 E.12111
G1 X143.866 Y91.662 E.12111
G1 X146.1 Y94.433 E.13527
G1 X148.44 Y98.351 E.17345
G1 X149.719 Y101.27 E.12111
G1 X150.242 Y104.885 E.13882
G1 X150.242 Y117.835 E.49218
G1 X149.844 Y120.996 E.12111
G1 X148.674 Y123.96 E.12111
G1 X146.805 Y126.541 E.12111
G1 X144.354 Y128.577 E.12111
G1 X141.474 Y129.942 E.12111
G1 X137.5 Y130.577 E.15295
G1 X82.5 Y130.577 E2.09035
G1 X79.338 Y130.179 E.12111
G1 X76.375 Y129.008 E.12111
G1 X73.794 Y127.139 E.12111
G1 X71.758 Y124.688 E.12111
G1 X70.393 Y121.809 E.12111
G1 X69.758 Y117.835 E.15295
G1 X69.758 Y104.885 E.49218
G1 X70.156 Y101.723 E.12111
G1 X71.56 Y98.351 E.13882
G1 X73.9 Y94.433 E.17345
G1 X75.838 Y91.954 E.11959
G1 X76.201 Y92.239 F12000
G1 F900
G1 X76.226 Y92.207 E.00153
G1 X78.717 Y90.315 E.11891
G1 X81.606 Y89.114 E.11891
G1 X84.84 Y88.681 E.124
G1 X135.16 Y88.681 E1.91248
G1 X138.263 Y89.079 E.11891
G1 X141.165 Y90.249 E.11891
G1 X143.678 Y92.113 E.11891
G1 X145.708 Y94.667 E.124
G1 X148.048 Y98.585 E.17345
M73 P1 R34
G1 X149.297 Y101.454 E.11891
G1 X149.785 Y104.885 E.1317
G1 X149.785 Y117.835 E.49218
G1 X149.387 Y120.938 E.11891
G1 X148.218 Y123.84 E.11891
G1 X146.353 Y126.352 E.11891
G1 X143.915 Y128.312 E.11891
G1 X141.06 Y129.593 E.11891
G1 X137.5 Y130.12 E.13679
G1 X82.5 Y130.12 E2.09035
G1 X79.397 Y129.722 E.11891
G1 X76.495 Y128.552 E.11891
G1 X73.982 Y126.688 E.11891
G1 X72.022 Y124.249 E.11891
G1 X70.742 Y121.395 E.11891
G1 X70.215 Y117.835 E.13679
G1 X70.215 Y104.885 E.49218
G1 X70.613 Y101.781 E.11891
G1 X71.952 Y98.585 E.1317
G1 X74.292 Y94.667 E.17345
G1 X76.176 Y92.27 E.11586
G1 X76.537 Y92.556 F12000
G1 F900
G1 X76.587 Y92.493 E.00306
G1 X79.046 Y90.654 E.11667
G1 X81.894 Y89.511 E.11667
G1 X84.84 Y89.138 E.11284
G1 X135.16 Y89.138 E1.91248
G1 X138.204 Y89.536 E.11667
G1 X141.042 Y90.704 E.11667
G1 X143.485 Y92.564 E.11667
G1 X145.315 Y94.902 E.11284
G1 X147.655 Y98.82 E.17345
G1 X148.874 Y101.637 E.11667
G1 X149.328 Y104.885 E.12463
G1 X149.328 Y117.835 E.49218
G1 X148.93 Y120.878 E.11667
G1 X147.762 Y123.717 E.11667
G1 X145.903 Y126.159 E.11667
G1 X143.478 Y128.041 E.11667
G1 X140.65 Y129.236 E.11667
G1 X137.5 Y129.663 E.12081
G1 X82.5 Y129.663 E2.09035
G1 X79.456 Y129.265 E.11667
M73 P2 R34
G1 X76.618 Y128.096 E.11667
G1 X74.175 Y126.237 E.11667
G1 X72.293 Y123.812 E.11667
G1 X71.099 Y120.984 E.11667
G1 X70.672 Y117.835 E.12081
G1 X70.672 Y104.885 E.49218
G1 X71.07 Y101.841 E.11667
G1 X72.345 Y98.82 E.12463
G1 X74.685 Y94.902 E.17345
G1 X76.513 Y92.587 E.11208
G1 X76.873 Y92.874 F12000
G1 F900
G1 X76.949 Y92.779 E.0046
G1 X79.373 Y90.996 E.11438
G1 X82.18 Y89.911 E.11438
G1 X84.84 Y89.595 E.10181
G1 X135.16 Y89.595 E1.91248
G1 X138.143 Y89.993 E.11438
G1 X140.917 Y91.16 E.11438
G1 X143.288 Y93.014 E.11438
G1 X144.923 Y95.136 E.10181
G1 X147.263 Y99.054 E.17345
G1 X148.45 Y101.819 E.11438
G1 X148.871 Y104.885 E.11759
G1 X148.871 Y117.835 E.49218
G1 X148.473 Y120.818 E.11438
G1 X147.306 Y123.592 E.11438
G1 X145.452 Y125.962 E.11438
G1 X143.042 Y127.764 E.11438
G1 X140.243 Y128.87 E.11438
G1 X137.5 Y129.206 E.10503
G1 X82.5 Y129.206 E2.09035
G1 X79.517 Y128.808 E.11438
G1 X76.743 Y127.641 E.11438
G1 X74.372 Y125.787 E.11438
G1 X72.571 Y123.376 E.11438
G1 X71.465 Y120.577 E.11438
G1 X71.129 Y117.835 E.10503
G1 X71.129 Y104.885 E.49218
G1 X71.527 Y101.902 E.11438
G1 X72.737 Y99.054 E.11759
M73 P2 R33
G1 X75.077 Y95.136 E.17345
G1 X76.849 Y92.905 E.10826
G1 X77.209 Y93.193 F12000
G1 F900
G1 X77.309 Y93.067 E.00613
G1 X79.698 Y91.339 E.11205
G1 X82.463 Y90.314 E.11205
G1 X84.84 Y90.052 E.0909
G1 X135.16 Y90.052 E1.91248
M73 P3 R33
G1 X138.081 Y90.45 E.11205
G1 X140.789 Y91.616 E.11205
G1 X143.086 Y93.464 E.11205
G1 X144.53 Y95.37 E.0909
G1 X146.87 Y99.288 E.17345
G1 X148.026 Y102.001 E.11205
G1 X148.414 Y104.885 E.1106
G1 X148.414 Y117.835 E.49218
G1 X148.016 Y120.756 E.11205
G1 X146.851 Y123.464 E.11205
G1 X145.003 Y125.761 E.11205
G1 X142.608 Y127.48 E.11205
G1 X139.84 Y128.495 E.11205
G1 X137.5 Y128.749 E.08945
G1 X82.5 Y128.749 E2.09035
G1 X79.579 Y128.351 E.11205
G1 X76.871 Y127.185 E.11205
G1 X74.574 Y125.337 E.11205
G1 X72.855 Y122.942 E.11205
G1 X71.84 Y120.174 E.11205
G1 X71.586 Y117.835 E.08945
G1 X71.586 Y104.885 E.49218
G1 X71.984 Y101.963 E.11205
G1 X73.13 Y99.288 E.1106
G1 X75.47 Y95.37 E.17345
G1 X77.184 Y93.224 E.10439
G1 X77.543 Y93.512 F12000
G1 F900
G1 X77.669 Y93.355 E.00767
G1 X80.022 Y91.685 E.10966
G1 X82.742 Y90.722 E.10966
G1 X84.84 Y90.509 E.08014
G1 X135.16 Y90.509 E1.91248
G1 X138.018 Y90.907 E.10966
G1 X140.658 Y92.071 E.10966
G1 X142.88 Y93.913 E.10966
G1 X144.138 Y95.605 E.08014
G1 X146.478 Y99.523 E.17345
G1 X147.601 Y102.181 E.10966
G1 X147.957 Y104.885 E.10366
G1 X147.957 Y117.835 E.49218
G1 X147.559 Y120.692 E.10966
G1 X146.395 Y123.333 E.10966
G1 X144.554 Y125.554 E.10966
G1 X142.176 Y127.188 E.10966
G1 X139.441 Y128.11 E.10966
G1 X137.5 Y128.292 E.07411
G1 X82.5 Y128.292 E2.09035
M73 P4 R33
G1 X79.642 Y127.894 E.10966
G1 X77.002 Y126.73 E.10966
G1 X74.78 Y124.888 E.10966
G1 X73.146 Y122.51 E.10966
G1 X72.225 Y119.776 E.10966
G1 X72.043 Y117.835 E.07411
G1 X72.043 Y104.885 E.49218
G1 X72.441 Y102.027 E.10966
G1 X73.522 Y99.523 E.10366
G1 X75.862 Y95.605 E.17345
G1 X77.518 Y93.544 E.10048
; printing object Body5 id:0 copy 0
G1 E-2.1 F1800
;WIPE_START
G1 F900
G1 X77.669 Y93.355 E-.21755
G1 X78.288 Y92.916 E-.68245
;WIPE_END
EXCLUDE_OBJECT_START NAME=Body5_id_0_copy_0
G1 Z.6 F12000
G1 X114.969 Y106.035 Z.6
G1 Z.2
G1 E3 F1800
;TYPE:Inner wall
;WIDTH:0.499999
G1 F900
G1 X115.148 Y106.012 E.00685
G1 X115.498 Y105.855 E.0146
G1 X115.794 Y105.566 E.01571
G1 X115.964 Y105.208 E.01506
G1 X116.004 Y104.906 E.01158
G1 X116.004 Y103.308 E.06073
G1 X116.459 Y103.459 E.0182
G1 X133.541 Y103.459 E.64926
G1 X133.996 Y103.308 E.0182
G1 X133.996 Y104.906 E.06073
G1 X134.036 Y105.208 E.01158
G1 X134.206 Y105.566 E.01506
G1 X134.502 Y105.855 E.01571
G1 X134.852 Y106.012 E.0146
G1 X135.139 Y106.049 E.01097
G1 X136.336 Y106.049 E.0455
G1 X136.336 Y107.246 E.0455
G1 X136.336 Y114.016 E.25729
G1 X136.296 Y113.895 E.00483
G1 X135.821 Y113.526 E.02285
G1 X135.381 Y113.438 E.01703
G1 X114.619 Y113.438 E.78912
G1 X114.179 Y113.526 E.01703
G1 X113.704 Y113.895 E.02285
G1 X113.664 Y114.016 E.00483
G1 X113.664 Y106.049 E.30279
G1 X114.861 Y106.049 E.04551
G1 X114.929 Y106.04 E.0026
G1 X114.915 Y105.585 F12000
G1 F900
G1 X115.033 Y105.57 E.00452
G1 X115.313 Y105.422 E.01201
G1 X115.474 Y105.214 E.01001
G1 X115.547 Y104.906 E.01203
G1 X115.547 Y103.115 E.06806
G1 X115.528 Y102.849 E.01014
;WIDTH:0.46146
G1 X115.509 Y102.583 E.00929
;WIDTH:0.42292
G1 X115.489 Y102.317 E.00843
;WIDTH:0.38438
G1 X115.489 Y101.616 E.01991
G1 X115.831 Y101.616 E.00969
G1 X115.831 Y101.786 E.00485
;WIDTH:0.390431
G1 X115.837 Y102.426 E.01848
;WIDTH:0.426954
G1 X115.907 Y102.572 E.00518
;WIDTH:0.463477
G1 X115.977 Y102.719 E.00568
;WIDTH:0.499999
G1 X116.047 Y102.865 E.00617
G1 X116.459 Y103.002 E.01648
G1 X133.541 Y103.002 E.64926
G1 X133.953 Y102.865 E.01648
G1 X134.023 Y102.719 E.00617
;WIDTH:0.463476
G1 X134.093 Y102.572 E.00568
;WIDTH:0.426953
G1 X134.163 Y102.426 E.00518
;WIDTH:0.39043
G1 X134.169 Y102.317 E.00316
;WIDTH:0.38438
G1 X134.169 Y101.616 E.01991
G1 X134.511 Y101.616 E.00969
G1 X134.511 Y101.786 E.00485
;WIDTH:0.39043
G1 X134.508 Y102.456 E.01934
;WIDTH:0.426953
G1 X134.489 Y102.676 E.00704
;WIDTH:0.463476
G1 X134.471 Y102.895 E.00771
;WIDTH:0.499999
G1 X134.453 Y103.115 E.00838
G1 X134.453 Y103.914 E.03035
G1 X134.477 Y105.087 E.04461
G1 X134.628 Y105.364 E.01197
G1 X134.844 Y105.525 E.01023
G1 X135.139 Y105.592 E.01148
G1 X136.793 Y105.592 E.06288
G1 X136.793 Y107.246 E.06288
G1 X136.793 Y113.882 E.25219
;WIDTH:0.544793
G1 X136.771 Y114.115 E.00977
;WIDTH:0.589586
G1 X136.748 Y114.348 E.01064
;WIDTH:0.634379
G1 X136.726 Y114.581 E.01151
G1 X136.726 Y117.06 E.12195
G1 X136.134 Y117.06 E.02909
G1 X136.134 Y114.581 E.12195
G1 X136.066 Y114.443 E.00753
;WIDTH:0.589586
G1 X135.998 Y114.306 E.00696
;WIDTH:0.544793
G1 X135.93 Y114.169 E.00639
;WIDTH:0.499999
G1 X135.645 Y113.948 E.01371
G1 X135.381 Y113.895 E.01022
G1 X114.619 Y113.895 E.78912
G1 X114.355 Y113.948 E.01022
G1 X114.07 Y114.169 E.01371
;WIDTH:0.544793
G1 X114.002 Y114.306 E.00639
;WIDTH:0.589587
G1 X113.934 Y114.443 E.00696
;WIDTH:0.63438
G1 X113.866 Y114.581 E.00753
G1 X113.866 Y117.06 E.12195
G1 X113.274 Y117.06 E.02909
G1 X113.274 Y114.581 E.12195
G1 X113.252 Y114.348 E.01151
;WIDTH:0.589587
G1 X113.229 Y114.115 E.01064
;WIDTH:0.544793
G1 X113.207 Y113.882 E.00977
;WIDTH:0.499999
G1 X113.207 Y105.592 E.31507
G1 X114.861 Y105.592 E.06288
G1 X114.876 Y105.59 E.00054
G1 X114.861 Y105.135 F12000
;TYPE:Outer wall
G1 F900
G1 X114.919 Y105.127 E.00219
G1 X115.032 Y105.059 E.00502
G1 X115.09 Y104.906 E.00621
G1 X115.09 Y101.216 E.14023
G1 X116.23 Y101.216 E.04333
G1 X116.23 Y102.317 E.04182
G1 X116.321 Y102.5 E.00777
G1 X116.459 Y102.545 E.00549
G1 X133.541 Y102.545 E.64926
G1 X133.679 Y102.5 E.00549
G1 X133.77 Y102.317 E.00777
G1 X133.77 Y101.216 E.04182
G1 X134.91 Y101.216 E.04333
G1 X134.918 Y104.966 E.14253
G1 X134.988 Y105.078 E.00501
G1 X135.139 Y105.135 E.00611
G1 X137.25 Y105.135 E.08025
G1 X137.25 Y107.246 E.08025
G1 X137.25 Y117.585 E.39293
G1 X135.61 Y117.585 E.06233
G1 X135.61 Y114.581 E.11417
G1 X135.564 Y114.443 E.00549
G1 X135.381 Y114.352 E.00777
G1 X114.619 Y114.352 E.78912
G1 X114.436 Y114.443 E.00777
G1 X114.39 Y114.581 E.00549
G1 X114.39 Y117.585 E.11417
G1 X112.75 Y117.585 E.06233
G1 X112.75 Y105.135 E.47318
G1 X114.821 Y105.135 E.07873
G1 X114.94 Y106.392 F12000
;TYPE:Bottom surface
;WIDTH:0.5
G1 F1200
G1 X114.771 Y106.934 E.0216
G1 X114.564 Y107.921 E.03831
G1 X114.451 Y108.922 E.0383
G1 X114.435 Y109.929 E.03828
G1 X114.515 Y110.933 E.03827
G1 X114.689 Y111.925 E.03826
G1 X114.957 Y112.894 E.03825
G1 X115.031 Y113.086 E.00779
G1 X114.016 Y112.919 F12000
G1 F1200
G1 X114.104 Y113.186 E.0107
G1 X114.555 Y113.096 F12000
G1 F1200
G1 X114.387 Y112.592 E.02018
G1 X114.154 Y111.591 E.03907
G1 X114.016 Y110.574 E.03902
G1 X114.016 Y108.705 F12000
M73 P5 R33
G1 F1200
G1 X114.026 Y108.517 E.00716
G1 X114.174 Y107.498 E.03912
G1 X114.451 Y106.401 E.04302
G1 X115.461 Y106.272 F12000
G1 F1200
G1 X115.278 Y106.81 E.02163
G1 X115.053 Y107.77 E.03748
G1 X114.923 Y108.747 E.03746
G1 X114.888 Y109.732 E.03745
G1 X114.949 Y110.715 E.03744
G1 X115.105 Y111.687 E.03742
G1 X115.356 Y112.639 E.03741
G1 X115.521 Y113.086 E.0181
G1 X116.008 Y113.086 F12000
G1 F1200
G1 X115.894 Y112.81 E.01135
G1 X115.62 Y111.888 E.03655
G1 X115.438 Y110.943 E.03656
G1 X115.352 Y109.985 E.03658
G1 X115.361 Y109.022 E.03659
G1 X115.466 Y108.065 E.0366
G1 X115.666 Y107.122 E.03662
G1 X115.959 Y106.204 E.03663
G1 X116.342 Y105.319 E.03665
G1 X116.811 Y104.476 E.03666
G1 X117.274 Y103.811 E.03078
G1 X116.716 Y103.811 F12000
G1 F1200
G1 X116.495 Y104.122 E.0145
G1 X116.356 Y104.363 E.01057
G1 X117.853 Y103.811 F12000
G1 F1200
G1 X117.392 Y104.421 E.02906
G1 X116.904 Y105.227 E.03579
G1 X116.501 Y106.077 E.03578
G1 X116.186 Y106.964 E.03576
G1 X115.963 Y107.878 E.03575
G1 X115.835 Y108.809 E.03573
G1 X115.802 Y109.748 E.03572
G1 X115.866 Y110.685 E.0357
G1 X116.024 Y111.611 E.03569
G1 X116.276 Y112.515 E.03567
G1 X116.501 Y113.086 E.02331
G1 X116.998 Y113.086 F12000
G1 F1200
G1 X116.822 Y112.686 E.01659
G1 X116.544 Y111.815 E.03477
G1 X116.358 Y110.919 E.03479
G1 X116.268 Y110.008 E.0348
G1 X116.273 Y109.092 E.03482
G1 X116.374 Y108.181 E.03483
G1 X116.569 Y107.285 E.03485
G1 X116.858 Y106.414 E.03486
G1 X117.236 Y105.578 E.03488
G1 X117.699 Y104.785 E.03489
G1 X118.243 Y104.045 E.03491
G1 X118.456 Y103.811 E.01202
G1 X119.08 Y103.811 F12000
G1 F1200
G1 X118.78 Y104.118 E.0163
G1 X118.227 Y104.821 E.03399
G1 X117.753 Y105.579 E.03398
G1 X117.363 Y106.383 E.03396
G1 X117.062 Y107.224 E.03394
G1 X116.853 Y108.092 E.03393
G1 X116.738 Y108.977 E.03391
G1 X116.72 Y109.868 E.0339
G1 X116.797 Y110.757 E.03388
G1 X116.969 Y111.631 E.03386
G1 X117.234 Y112.481 E.03385
G1 X117.497 Y113.086 E.02507
G1 X118.007 Y113.086 F12000
G1 F1200
G1 X117.845 Y112.771 E.01346
G1 X117.538 Y111.962 E.03289
G1 X117.322 Y111.123 E.03291
G1 X117.201 Y110.266 E.03292
G1 X117.175 Y109.399 E.03294
G1 X117.245 Y108.535 E.03296
G1 X117.41 Y107.683 E.03297
G1 X117.668 Y106.855 E.03299
G1 X118.016 Y106.059 E.03301
G1 X118.451 Y105.306 E.03302
G1 X118.965 Y104.606 E.03304
G1 X119.555 Y103.966 E.03306
G1 X119.732 Y103.811 E.00895
G1 X120.433 Y103.811 F12000
G1 F1200
G1 X119.927 Y104.242 E.02528
G1 X119.35 Y104.858 E.03209
G1 X118.847 Y105.536 E.03207
G1 X118.424 Y106.266 E.03205
G1 X118.087 Y107.038 E.03203
G1 X117.841 Y107.844 E.03202
G1 X117.688 Y108.672 E.032
G1 X117.63 Y109.511 E.03198
G1 X117.668 Y110.351 E.03196
G1 X117.801 Y111.181 E.03194
G1 X118.029 Y111.99 E.03193
G1 X118.346 Y112.767 E.03191
G1 X118.522 Y113.086 E.01384
G1 X119.043 Y113.086 F12000
G1 F1200
G1 X118.744 Y112.539 E.02368
G1 X118.442 Y111.784 E.0309
G1 X118.23 Y110.999 E.03092
G1 X118.112 Y110.194 E.03094
G1 X118.09 Y109.379 E.03096
G1 X118.163 Y108.568 E.03098
G1 X118.332 Y107.77 E.031
G1 X118.593 Y106.997 E.03102
G1 X118.944 Y106.259 E.03103
G1 X119.379 Y105.567 E.03105
G1 X119.892 Y104.931 E.03107
G1 X120.477 Y104.359 E.03109
G1 X121.204 Y103.811 E.03461
G1 X122.126 Y103.811 F12000
G1 F1200
G1 X121.838 Y103.953 E.01221
G1 X121.174 Y104.385 E.03009
G1 X120.568 Y104.893 E.03007
G1 X120.029 Y105.471 E.03005
G1 X119.564 Y106.11 E.03003
G1 X119.18 Y106.8 E.03001
G1 X118.883 Y107.531 E.02999
G1 X118.677 Y108.292 E.02997
G1 X118.565 Y109.072 E.02995
G1 X118.549 Y109.859 E.02993
G1 X118.628 Y110.642 E.0299
G1 X118.803 Y111.408 E.02988
G1 X119.069 Y112.148 E.02986
G1 X119.423 Y112.848 E.02984
G1 X119.583 Y113.086 E.01087
G1 X120.13 Y113.086 F12000
G1 F1200
G1 X120.054 Y112.99 E.00466
G1 X119.666 Y112.341 E.02875
G1 X119.362 Y111.647 E.02877
G1 X119.148 Y110.921 E.02879
G1 X119.028 Y110.172 E.02882
G1 X119.003 Y109.414 E.02884
G1 X119.074 Y108.658 E.02886
G1 X119.241 Y107.916 E.02888
G1 X119.499 Y107.201 E.0289
G1 X119.846 Y106.523 E.02893
G1 X120.275 Y105.894 E.02895
G1 X120.781 Y105.324 E.02897
G1 X121.355 Y104.821 E.02899
G1 X121.987 Y104.394 E.02901
G1 X122.669 Y104.05 E.02904
G1 X123.338 Y103.811 E.02698
G1 E-3 F1800
G1 Z.6 F12000
G1 X126.778 Y103.811 Z.6
G1 Z.2
G1 E3 F1800
G1 F1200
G1 X127.159 Y103.923 E.01507
G1 X127.863 Y104.229 E.02919
G1 X128.524 Y104.621 E.02921
G1 X129.132 Y105.092 E.02923
G1 X129.676 Y105.636 E.02925
G1 X130.149 Y106.244 E.02927
G1 X130.543 Y106.907 E.0293
