; HEADER_BLOCK_START
; generated by OrcaSlicer 1.7.0 on 2023-12-11 at 11:36:59
; total layer number: 204
; HEADER_BLOCK_END

; THUMBNAIL_BLOCK_START
; THUMBNAIL_BLOCK_END

; external perimeters extrusion width = 0.40mm
; perimeters extrusion width = 0.45mm
; infill extrusion width = 0.45mm
; solid infill extrusion width = 0.40mm
; top infill extrusion width = 0.40mm
; first layer extrusion width = 0.50mm

; EXECUTABLE_BLOCK_START
EXCLUDE_OBJECT_DEFINE NAME=Bottle_1x1x6_-_dePrintinator.stl_id_0_copy_0 CENTER=110,110 POLYGON=[[89,93],[89.0769,92.2196],[89.3045,91.4693],[89.6741,90.7777],[90.1716,90.1716],[90.7777,89.6741],[91.4693,89.3045],[92.2196,89.0769],[93,89],[127,89],[127.78,89.0769],[128.531,89.3045],[129.222,89.6741],[129.828,90.1716],[130.326,90.7777],[130.696,91.4693],[130.923,92.2196],[131,93],[131,127],[130.923,127.78],[130.696,128.531],[130.326,129.222],[129.828,129.828],[129.222,130.326],[128.531,130.696],[127.78,130.923],[127,131],[93,131],[92.2196,130.923],[91.4693,130.696],[90.7777,130.326],[90.1716,129.828],[89.6741,129.222],[89.3045,128.531],[89.0769,127.78],[89,127],[89,93]]
M73 P0 R76
;TYPE:Custom
START_PRINT EXTRUDER_TEMP=255  BED_TEMP=80
G90
G21
M83 ; use relative distances for extrusion
; filament start gcode
M106 S0
;LAYER_CHANGE
;Z:0.2
;HEIGHT:0.2
;BEFORE_LAYER_CHANGE
;0.2
G92 E0

G1 E-5 F1800
;_SET_FAN_SPEED_CHANGING_LAYER
G1 X83.7 Y83.656 F9000
G1 Z.4
G1 Z.2
G1 E5 F1800
;TYPE:Skirt
;WIDTH:0.5
G1 F900
G1 X85.789 Y81.976 E.09678
G1 X87.093 Y81.217 E.05448
G1 X90.691 Y80.033 E.13678
G1 X93 Y79.815 E.08372
G1 X127 Y79.815 E1.2276
G1 X128.922 Y79.966 E.0696
G1 X129.727 Y80.114 E.02954
G1 X132.907 Y81.217 E.12154
G1 X134.438 Y82.128 E.06433
G1 X136.3 Y83.656 E.08697
G1 X137.872 Y85.562 E.0892
G1 X138.755 Y87.037 E.06207
G1 X139.967 Y90.691 E.13901
G1 X140.185 Y93 E.08372
G1 X140.185 Y127 E1.2276
G1 X139.903 Y129.638 E.0958
G1 X138.783 Y132.907 E.12476
G1 X137.872 Y134.438 E.06433
G1 X136.3 Y136.344 E.08921
G1 X134.438 Y137.872 E.08696
G1 X132.963 Y138.755 E.06208
G1 X129.638 Y139.903 E.127
G1 X127 Y140.185 E.0958
G1 X93 Y140.185 E1.2276
G1 X90.362 Y139.903 E.0958
G1 X87.093 Y138.783 E.12477
G1 X85.562 Y137.872 E.06433
G1 X83.656 Y136.3 E.0892
G1 X82.128 Y134.438 E.08697
G1 X81.245 Y132.963 E.06207
G1 X80.097 Y129.638 E.127
G1 X79.815 Y127 E.0958
G1 X79.815 Y93 E1.2276
G1 X80.097 Y90.362 E.0958
G1 X81.217 Y87.093 E.12477
G1 X82.128 Y85.562 E.06433
G1 X83.675 Y83.687 E.08776
G1 X84.024 Y83.979 F9000
G1 F900
G1 X86.043 Y82.357 E.09354
G1 X87.3 Y81.624 E.05254
G1 X90.777 Y80.482 E.13213
G1 X93 Y80.272 E.08061
G1 X127 Y80.272 E1.2276
G1 X128.85 Y80.417 E.06701
G1 X129.637 Y80.562 E.0289
G1 X132.699 Y81.624 E.11702
G1 X134.184 Y82.508 E.06239
G1 X135.977 Y83.98 E.08374
G1 X137.492 Y85.816 E.08596
G1 X138.348 Y87.245 E.06013
G1 X139.518 Y90.777 E.13437
G1 X139.728 Y93 E.08061
G1 X139.728 Y127 E1.2276
G1 X139.455 Y129.552 E.09268
G1 X138.376 Y132.699 E.12012
G1 X137.492 Y134.184 E.06239
G1 X135.976 Y136.021 E.08598
G1 X134.184 Y137.492 E.08373
G1 X132.755 Y138.348 E.06013
G1 X129.552 Y139.455 E.12235
G1 X127 Y139.728 E.09268
G1 X93 Y139.728 E1.2276
G1 X90.448 Y139.455 E.09268
G1 X87.3 Y138.376 E.12012
G1 X85.816 Y137.492 E.06238
G1 X83.98 Y135.977 E.08596
G1 X82.508 Y134.184 E.08374
G1 X81.652 Y132.755 E.06013
G1 X80.545 Y129.552 E.12235
G1 X80.272 Y127 E.09268
G1 X80.272 Y93 E1.2276
G1 X80.545 Y90.448 E.09268
G1 X81.624 Y87.3 E.12012
G1 X82.508 Y85.816 E.06238
G1 X83.998 Y84.01 E.08453
G1 X84.347 Y84.303 F9000
G1 F900
G1 X86.297 Y82.737 E.09031
G1 X87.508 Y82.031 E.05059
G1 X90.863 Y80.931 E.12749
G1 X93 Y80.729 E.07749
G1 X127 Y80.729 E1.2276
G1 X128.779 Y80.869 E.06442
G1 X129.548 Y81.01 E.02825
G1 X132.492 Y82.031 E.1125
G1 X133.93 Y82.888 E.06044
G1 X135.653 Y84.303 E.0805
G1 X137.112 Y86.07 E.08273
G1 X137.94 Y87.452 E.05819
G1 X139.069 Y90.863 E.12973
G1 X139.271 Y93 E.07749
G1 X139.271 Y127 E1.2276
G1 X139.006 Y129.466 E.08957
G1 X137.969 Y132.492 E.11548
G1 X137.112 Y133.93 E.06044
G1 X135.653 Y135.697 E.08274
G1 X133.93 Y137.112 E.08049
G1 X132.548 Y137.94 E.05819
G1 X129.466 Y139.006 E.11771
G1 X127 Y139.271 E.08957
G1 X93 Y139.271 E1.2276
G1 X90.534 Y139.006 E.08957
G1 X87.508 Y137.969 E.11548
G1 X86.07 Y137.112 E.06044
G1 X84.303 Y135.653 E.08273
G1 X82.888 Y133.93 E.0805
G1 X82.06 Y132.548 E.05819
G1 X80.994 Y129.466 E.11771
G1 X80.729 Y127 E.08957
G1 X80.729 Y93 E1.2276
G1 X80.994 Y90.534 E.08957
G1 X82.031 Y87.508 E.11548
G1 X82.888 Y86.07 E.06044
G1 X84.321 Y84.333 E.08129
G1 X84.67 Y84.626 F9000
G1 F900
G1 X86.551 Y83.117 E.08707
G1 X87.715 Y82.438 E.04865
G1 X90.949 Y81.38 E.12285
G1 X93 Y81.186 E.07438
G1 X127 Y81.186 E1.2276
M73 P1 R75
G1 X128.707 Y81.32 E.06183
G1 X129.459 Y81.459 E.0276
G1 X132.284 Y82.438 E.10798
G1 X133.676 Y83.268 E.0585
G1 X135.33 Y84.626 E.07727
G1 X136.732 Y86.324 E.07949
G1 X137.533 Y87.66 E.05624
G1 X138.62 Y90.949 E.12508
G1 X138.814 Y93 E.07438
G1 X138.814 Y127 E1.2276
G1 X138.557 Y129.381 E.08645
G1 X137.562 Y132.284 E.11083
G1 X136.732 Y133.676 E.0585
G1 X135.33 Y135.374 E.0795
G1 X133.676 Y136.732 E.07726
G1 X132.34 Y137.533 E.05625
G1 X129.381 Y138.557 E.11307
G1 X127 Y138.814 E.08645
G1 X93 Y138.814 E1.2276
G1 X90.619 Y138.557 E.08645
G1 X87.715 Y137.562 E.11084
G1 X86.324 Y136.732 E.0585
G1 X84.626 Y135.33 E.07949
G1 X83.268 Y133.676 E.07727
G1 X82.467 Y132.34 E.05625
G1 X81.443 Y129.381 E.11307
G1 X81.186 Y127 E.08645
G1 X81.186 Y93 E1.2276
G1 X81.443 Y90.619 E.08645
G1 X82.438 Y87.715 E.11084
G1 X83.268 Y86.324 E.0585
G1 X84.645 Y84.657 E.07806
G1 X84.993 Y84.949 F9000
G1 F900
G1 X86.805 Y83.497 E.08384
G1 X87.923 Y82.846 E.04671
G1 X91.035 Y81.829 E.11821
G1 X93 Y81.643 E.07126
G1 X127 Y81.643 E1.2276
G1 X128.636 Y81.772 E.05924
G1 X129.37 Y81.907 E.02695
G1 X132.077 Y82.846 E.10345
G1 X133.422 Y83.648 E.05656
G1 X135.007 Y84.949 E.07403
G1 X136.352 Y86.578 E.07626
G1 X137.126 Y87.867 E.0543
G1 X138.171 Y91.035 E.12044
G1 X138.357 Y93 E.07126
G1 X138.357 Y127 E1.2276
G1 X138.108 Y129.295 E.08334
G1 X137.154 Y132.077 E.10619
G1 X136.352 Y133.422 E.05656
G1 X135.007 Y135.051 E.07627
G1 X133.422 Y136.352 E.07402
G1 X132.133 Y137.126 E.0543
G1 X129.295 Y138.108 E.10843
G1 X127 Y138.357 E.08334
G1 X93 Y138.357 E1.2276
G1 X90.705 Y138.108 E.08334
G1 X87.923 Y137.154 E.1062
G1 X86.578 Y136.352 E.05656
G1 X84.949 Y135.007 E.07626
G1 X83.648 Y133.422 E.07403
G1 X82.874 Y132.133 E.0543
G1 X81.892 Y129.295 E.10843
G1 X81.643 Y127 E.08334
G1 X81.643 Y93 E1.2276
G1 X81.892 Y90.705 E.08334
G1 X82.846 Y87.923 E.1062
G1 X83.648 Y86.578 E.05655
G1 X84.968 Y84.98 E.07482
; printing object Bottle 1x1x6 - dePrintinator.stl id:0 copy 0
G1 E-5 F1800
EXCLUDE_OBJECT_START NAME=Bottle_1x1x6_-_dePrintinator.stl_id_0_copy_0
G17
G3 Z.6 I-.245 J1.192 P1  F9000
G1 X125.572 Y93.341 Z.6
G1 Z.2
G1 E5 F1800
;TYPE:Inner wall
;WIDTH:0.634699
G1 F900
G1 X126.668 Y93.341 E.05127
G1 X126.668 Y94.467 E.05265
G1 X126.445 Y94.143 E.01842
G1 X126.176 Y93.858 E.01829
G1 X125.602 Y93.367 E.03534
G1 E-5 F1800
G17
G3 Z.6 I-.557 J-1.082 P1  F9000
G1 X118.61 Y96.963 Z.6
G1 Z.2
G1 E5 F1800
;WIDTH:0.499999
G1 F900
G1 X118.594 Y97.138 E.00633
G1 X118.689 Y97.921 E.02848
G1 X118.755 Y98.188 E.00995
G1 X119.035 Y98.926 E.02848
G1 X119.163 Y99.17 E.00995
G1 X119.611 Y99.819 E.02848
G1 X119.793 Y100.025 E.00995
G1 X120.284 Y100.46 E.02369
G1 X120.62 Y100.709 E.01511
G1 X121.223 Y101.018 E.02446
G1 X121.598 Y101.176 E.0147
G1 X122.332 Y101.357 E.02729
G1 X122.606 Y101.39 E.00995
G1 X123.668 Y101.357 E.03837
G1 X124.691 Y101.071 E.03837
G1 X125.39 Y100.704 E.02848
G1 X125.624 Y100.54 E.01034
G1 X126.408 Y99.792 E.03913
G1 X126.736 Y99.316 E.02085
G1 X126.736 Y120.683 E.77148
G1 X126.207 Y119.975 E.03193
G1 X125.616 Y119.452 E.02848
G1 X125.38 Y119.291 E.01034
G1 X124.402 Y118.824 E.03913
G1 X123.394 Y118.61 E.03719
G1 X122.606 Y118.61 E.02848
G1 X122.332 Y118.643 E.00995
G1 X121.566 Y118.831 E.02848
G1 X121.313 Y118.927 E.00979
G1 X120.709 Y119.244 E.02462
G1 X120.376 Y119.46 E.01434
G1 X119.889 Y119.899 E.02369
G1 X119.594 Y120.206 E.01536
G1 X119.163 Y120.83 E.0274
G1 X119.035 Y121.074 E.00995
G1 X118.755 Y121.812 E.02848
G1 X118.689 Y122.079 E.00995
G1 X118.594 Y123.138 E.03837
G1 X118.755 Y124.188 E.03837
G1 X119.163 Y125.17 E.03837
G1 X119.793 Y126.025 E.03837
G1 X120.384 Y126.548 E.02848
G1 X120.672 Y126.736 E.01242
G1 X99.329 Y126.736 E.77059
G1 X99.624 Y126.54 E.01278
G1 X100.408 Y125.792 E.03913
G1 X100.965 Y124.926 E.03719
G1 X101.311 Y123.921 E.03837
G1 X101.406 Y122.862 E.03837
G1 X101.311 Y122.079 E.02848
G1 X101.245 Y121.812 E.00995
G1 X100.965 Y121.074 E.02848
G1 X100.837 Y120.83 E.00995
G1 X100.408 Y120.208 E.02729
G1 X100.207 Y119.975 E.01112
G1 X99.616 Y119.452 E.02848
G1 X99.38 Y119.291 E.01034
G1 X98.777 Y118.982 E.02446
G1 X98.402 Y118.824 E.0147
G1 X97.668 Y118.643 E.02729
G1 X97.394 Y118.61 E.00995
G1 X96.332 Y118.643 E.03837
G1 X95.309 Y118.929 E.03837
G1 X94.61 Y119.296 E.02848
G1 X94.376 Y119.46 E.01034
G1 X93.592 Y120.208 E.03913
G1 X93.264 Y120.683 E.02085
G1 X93.264 Y99.316 E.77148
G1 X93.793 Y100.025 E.03193
G1 X94.384 Y100.548 E.02848
G1 X94.62 Y100.709 E.01034
G1 X95.598 Y101.176 E.03913
G1 X96.606 Y101.39 E.03719
G1 X97.394 Y101.39 E.02848
G1 X97.668 Y101.357 E.00995
G1 X98.434 Y101.169 E.02848
G1 X98.687 Y101.073 E.00979
G1 X99.291 Y100.756 E.02462
G1 X99.616 Y100.548 E.01395
G1 X100.207 Y100.025 E.02848
G1 X100.389 Y99.819 E.00995
G1 X100.837 Y99.17 E.02848
G1 X100.965 Y98.926 E.00995
G1 X101.245 Y98.188 E.02848
G1 X101.311 Y97.921 E.00995
G1 X101.406 Y96.862 E.03837
G1 X101.245 Y95.812 E.03837
G1 X100.837 Y94.83 E.03837
G1 X100.207 Y93.975 E.03837
G1 X99.616 Y93.452 E.02848
G1 X99.332 Y93.266 E.01227
G1 X120.655 Y93.272 E.76991
G1 X120.376 Y93.46 E.01216
G1 X119.592 Y94.208 E.03913
G1 X119.035 Y95.074 E.03719
G1 X118.689 Y96.079 E.03837
G1 X118.613 Y96.923 E.03059
G1 X119.057 Y96.992 F9000
G1 F900
G1 X119.143 Y96.134 E.03112
G1 X119.462 Y95.236 E.03441
G1 X119.968 Y94.468 E.03323
G1 X120.682 Y93.799 E.03532
G1 X121.521 Y93.334 E.03464
G1 X121.986 Y93.23 E.0172
;WIDTH:0.45838
G1 X122.452 Y93.127 E.01564
;WIDTH:0.41676
G1 X123.394 Y93.118 E.02784
;WIDTH:0.431241
G1 X123.694 Y93.168 E.00931
;WIDTH:0.46562
G1 X123.993 Y93.218 E.01013
;WIDTH:0.499999
G1 X124.292 Y93.267 E.01096
G1 X125.171 Y93.697 E.03532
G1 X125.829 Y94.251 E.03103
G1 X126.013 Y94.441 E.00956
G1 X126.461 Y95.09 E.02848
G1 X126.804 Y95.979 E.0344
;WIDTH:0.47155
G1 X126.852 Y96.451 E.01608
;WIDTH:0.431897
G1 X126.899 Y96.924 E.01459
;WIDTH:0.392243
G1 X126.902 Y97 E.0021
;WIDTH:0.414627
G1 X126.865 Y97.431 E.0127
;WIDTH:0.43995
G1 X126.827 Y97.862 E.01357
;WIDTH:0.469975
G1 X126.683 Y98.313 E.01597
;WIDTH:0.499999
G1 X126.538 Y98.764 E.01709
G1 X126.032 Y99.532 E.03323
G1 X125.318 Y100.201 E.03532
G1 X124.479 Y100.666 E.03464
G1 X123.558 Y100.913 E.03441
G1 X122.606 Y100.933 E.03441
G1 X121.708 Y100.733 E.03323
G1 X120.829 Y100.303 E.03532
G1 X120.097 Y99.683 E.03464
G1 X119.539 Y98.91 E.03441
G1 X119.182 Y98.026 E.03441
G1 X119.048 Y97.083 E.03441
G1 X119.053 Y97.032 E.00185
G1 E-5 F1800
G17
G3 Z.6 I-1.189 J.261 P1  F9000
G1 X125.567 Y126.666 Z.6
G1 Z.2
G1 E5 F1800
;WIDTH:0.640346
G1 F900
G1 X125.672 Y126.593 E.00603
G1 X126.28 Y126.043 E.03872
G1 X126.666 Y125.542 E.02982
G1 X126.666 Y126.666 E.05304
G1 X125.607 Y126.666 E.04998
G1 E-5 F1800
G17
G3 Z.6 I-.009 J-1.217 P1  F9000
G1 X121.628 Y126.694 Z.6
G1 Z.2
G1 E5 F1800
;WIDTH:0.499999
G1 F900
G1 X120.829 Y126.303 E.03213
G1 X120.097 Y125.683 E.03464
G1 X119.539 Y124.91 E.03441
G1 X119.182 Y124.026 E.03441
G1 X119.048 Y123.083 E.03441
G1 X119.143 Y122.134 E.03441
G1 X119.462 Y121.236 E.03441
G1 X119.968 Y120.468 E.03323
G1 X120.682 Y119.799 E.03532
G1 X121.521 Y119.334 E.03464
G1 X122.442 Y119.087 E.03441
G1 X123.394 Y119.067 E.03441
G1 X124.292 Y119.267 E.03323
G1 X125.171 Y119.697 E.03532
G1 X125.903 Y120.317 E.03464
G1 X126.461 Y121.09 E.03441
G1 X126.804 Y121.979 E.0344
;WIDTH:0.47155
G1 X126.852 Y122.451 E.01608
;WIDTH:0.431897
G1 X126.899 Y122.924 E.01459
;WIDTH:0.43995
G1 X126.827 Y123.862 E.02951
;WIDTH:0.469975
G1 X126.683 Y124.313 E.01597
;WIDTH:0.499999
G1 X126.538 Y124.764 E.01709
G1 X126.032 Y125.532 E.03323
G1 X125.318 Y126.201 E.03532
G1 X124.479 Y126.666 E.03464
G1 X124.324 Y126.725 E.00597
G1 X123.937 Y126.8 E.01426
;WIDTH:0.460227
G1 X123.549 Y126.875 E.01302
;WIDTH:0.420455
G1 X122.606 Y126.884 E.02813
;WIDTH:0.450615
G1 X122.157 Y126.808 E.01467
;WIDTH:0.499999
G1 X121.708 Y126.733 E.01644
G1 X121.664 Y126.711 E.00175
G1 E-5 F1800
G17
G3 Z.6 I.002 J-1.217 P1  F9000
G1 X94.437 Y126.667 Z.6
M73 P2 R75
G1 Z.2
G1 E5 F1800
;WIDTH:0.637676
G1 F900
G1 X93.333 Y126.667 E.05187
G1 X93.333 Y125.537 E.05307
G1 X93.554 Y125.858 E.01829
G1 X93.828 Y126.147 E.0187
G1 X94.407 Y126.641 E.03576
G1 E-5 F1800
G17
G3 Z.6 I.346 J1.167 P1  F9000
G1 X100.488 Y124.839 Z.6
G1 Z.2
G1 E5 F1800
;WIDTH:0.499999
G1 F900
G1 X100.032 Y125.532 E.02994
G1 X99.318 Y126.201 E.03532
G1 X98.479 Y126.666 E.03464
G1 X98.014 Y126.77 E.0172
;WIDTH:0.460227
G1 X97.549 Y126.875 E.01571
;WIDTH:0.420455
G1 X96.606 Y126.884 E.02813
;WIDTH:0.450615
G1 X96.157 Y126.808 E.01467
;WIDTH:0.499999
G1 X95.708 Y126.733 E.01644
G1 X94.829 Y126.303 E.03532
G1 X94.176 Y125.753 E.0308
G1 X93.987 Y125.559 E.0098
G1 X93.539 Y124.91 E.02848
G1 X93.198 Y124.02 E.0344
;WIDTH:0.466713
G1 X93.15 Y123.548 E.01588
;WIDTH:0.429479
G1 X93.101 Y123.076 E.01449
;WIDTH:0.439949
G1 X93.173 Y122.138 E.02951
;WIDTH:0.47155
G1 X93.196 Y121.979 E.00544
;WIDTH:0.499999
G1 X93.462 Y121.236 E.02848
G1 X93.968 Y120.468 E.03323
G1 X94.682 Y119.799 E.03532
G1 X95.521 Y119.334 E.03464
G1 X96.442 Y119.087 E.03441
G1 X97.394 Y119.067 E.03441
G1 X98.292 Y119.267 E.03323
G1 X99.171 Y119.697 E.03532
G1 X99.903 Y120.317 E.03464
G1 X100.461 Y121.09 E.03441
G1 X100.818 Y121.974 E.03441
G1 X100.952 Y122.917 E.03441
G1 X100.857 Y123.866 E.03441
G1 X100.538 Y124.764 E.03441
G1 X100.51 Y124.806 E.00184
G1 E-5 F1800
G17
G3 Z.6 I1.184 J-.28 P1  F9000
G1 X93.333 Y94.463 Z.6
G1 Z.2
G1 E5 F1800
;WIDTH:0.637621
G1 F900
G1 X93.333 Y93.333 E.05307
G1 X94.436 Y93.333 E.0518
G1 X94.338 Y93.401 E.00557
G1 X93.748 Y93.924 E.03705
G1 X93.357 Y94.431 E.03007
G1 E-5 F1800
G17
G3 Z.6 I-1.206 J.16 P1  F9000
G1 X94.043 Y99.609 Z.6
G1 Z.2
G1 E5 F1800
;WIDTH:0.499999
G1 F900
G1 X93.539 Y98.91 E.03112
G1 X93.198 Y98.02 E.0344
;WIDTH:0.466713
G1 X93.15 Y97.548 E.01588
;WIDTH:0.429479
G1 X93.101 Y97.076 E.01449
;WIDTH:0.43995
G1 X93.173 Y96.138 E.02951
;WIDTH:0.471551
G1 X93.196 Y95.979 E.00544
;WIDTH:0.499999
G1 X93.462 Y95.236 E.02848
G1 X93.987 Y94.441 E.03441
G1 X94.687 Y93.794 E.03441
G1 X95.521 Y93.334 E.03441
G1 X95.986 Y93.23 E.0172
;WIDTH:0.460027
G1 X96.451 Y93.125 E.0157
;WIDTH:0.420054
G1 X97.394 Y93.116 E.0281
;WIDTH:0.4503
G1 X97.843 Y93.192 E.01465
;WIDTH:0.499999
G1 X98.292 Y93.267 E.01644
G1 X99.171 Y93.697 E.03532
G1 X99.903 Y94.317 E.03464
G1 X100.461 Y95.09 E.03441
G1 X100.818 Y95.974 E.03441
G1 X100.952 Y96.917 E.03441
G1 X100.857 Y97.866 E.03441
G1 X100.538 Y98.764 E.03441
G1 X100.013 Y99.559 E.03441
G1 X99.313 Y100.206 E.03441
G1 X98.479 Y100.666 E.03441
G1 X97.558 Y100.913 E.03441
G1 X96.606 Y100.933 E.03441
G1 X95.708 Y100.733 E.03323
G1 X95.559 Y100.677 E.00573
G1 X94.829 Y100.303 E.02962
G1 X94.097 Y99.683 E.03464
G1 X94.067 Y99.641 E.00185
G1 E-5 F1800
G17
G3 Z.6 I.324 J1.173 P1  F9000
G1 X118.78 Y92.814 Z.6
G1 Z.2
G1 E5 F1800
G1 F900
G1 X121.62 Y92.815 E.10254
G1 X121.949 Y92.798 E.01188
;WIDTH:0.465658
G1 X122.277 Y92.781 E.01099
;WIDTH:0.431317
G1 X122.606 Y92.764 E.01009
;WIDTH:0.40879
G1 X123.591 Y92.77 E.02849
;WIDTH:0.454395
G1 X123.969 Y92.793 E.01231
;WIDTH:0.499999
G1 X124.347 Y92.816 E.01367
G1 X126.965 Y92.817 E.09453
G1 X127.138 Y92.889 E.00675
G1 X127.193 Y93.093 E.00764
G1 X127.193 Y95.116 E.07305
G1 X127.208 Y95.615 E.01802
;WIDTH:0.469975
G1 X127.223 Y96.114 E.01684
;WIDTH:0.43995
G1 X127.247 Y97.097 E.03084
;WIDTH:0.429478
G1 X127.228 Y97.596 E.01524
;WIDTH:0.466712
G1 X127.21 Y98.095 E.01671
;WIDTH:0.499999
G1 X127.193 Y98.884 E.02848
G1 X127.193 Y121.116 E.80274
