; HEADER_BLOCK_START
; generated by OrcaSlicer 1.7.0 on 2023-12-11 at 19:29:35
; total layer number: 204
; HEADER_BLOCK_END

; THUMBNAIL_BLOCK_START
; THUMBNAIL_BLOCK_END

; external perimeters extrusion width = 0.40mm
; perimeters extrusion width = 0.45mm
; infill extrusion width = 0.45mm
; solid infill extrusion width = 0.40mm
; top infill extrusion width = 0.40mm
; first layer extrusion width = 0.50mm

; EXECUTABLE_BLOCK_START
EXCLUDE_OBJECT_DEFINE NAME=Bottle_1x1x6_-_dePrintinator.stl_id_0_copy_0 CENTER=110,110 POLYGON=[[89,93],[89.0769,92.2196],[89.3045,91.4693],[89.6741,90.7777],[90.1716,90.1716],[90.7777,89.6741],[91.4693,89.3045],[92.2196,89.0769],[93,89],[127,89],[127.78,89.0769],[128.531,89.3045],[129.222,89.6741],[129.828,90.1716],[130.326,90.7777],[130.696,91.4693],[130.923,92.2196],[131,93],[131,127],[130.923,127.78],[130.696,128.531],[130.326,129.222],[129.828,129.828],[129.222,130.326],[128.531,130.696],[127.78,130.923],[127,131],[93,131],[92.2196,130.923],[91.4693,130.696],[90.7777,130.326],[90.1716,129.828],[89.6741,129.222],[89.3045,128.531],[89.0769,127.78],[89,127],[89,93]]
M73 P0 R73
;TYPE:Custom
START_PRINT EXTRUDER_TEMP=255  BED_TEMP=80
G90
G21
M83 ; use relative distances for extrusion
; filament start gcode
M106 S0
;LAYER_CHANGE
;Z:0.2
;HEIGHT:0.2
;BEFORE_LAYER_CHANGE
;0.2
G92 E0

G1 E-5 F1800
;_SET_FAN_SPEED_CHANGING_LAYER
; printing object Bottle 1x1x6 - dePrintinator.stl id:0 copy 0
EXCLUDE_OBJECT_START NAME=Bottle_1x1x6_-_dePrintinator.stl_id_0_copy_0
G1 X125.572 Y93.341 F9000
G1 Z.4
G1 Z.2
G1 E5 F1800
;TYPE:Inner wall
;WIDTH:0.634699
G1 F900
G1 X126.668 Y93.341 E.05127
G1 X126.668 Y94.467 E.05264
G1 X126.445 Y94.143 E.01842
G1 X126.176 Y93.858 E.01829
G1 X125.602 Y93.367 E.03534
G1 E-3.5 F1800
;WIPE_START
G1 F900
G1 X126.102 Y93.355 E-1.5
;WIPE_END
G17
G3 Z.6 I-.268 J-1.187 P1  F9000
G1 X119.129 Y94.928 Z.6
G1 Z.2
G1 E5 F1800
;WIDTH:0.499999
G1 F900
G1 X119.035 Y95.074 E.00631
G1 X118.689 Y96.079 E.03837
G1 X118.594 Y97.138 E.03837
G1 X118.689 Y97.921 E.02848
G1 X118.755 Y98.188 E.00995
G1 X119.035 Y98.926 E.02848
G1 X119.163 Y99.17 E.00995
G1 X119.592 Y99.792 E.02729
G1 X119.793 Y100.025 E.01112
G1 X120.384 Y100.548 E.02848
G1 X120.62 Y100.709 E.01034
G1 X121.223 Y101.018 E.02446
G1 X121.598 Y101.176 E.0147
G1 X122.332 Y101.357 E.02729
G1 X122.606 Y101.39 E.00995
G1 X123.668 Y101.357 E.03837
G1 X124.691 Y101.071 E.03837
G1 X125.39 Y100.704 E.02848
G1 X125.624 Y100.54 E.01034
G1 X126.408 Y99.792 E.03913
G1 X126.736 Y99.316 E.02085
G1 X126.736 Y120.684 E.77148
G1 X126.207 Y119.975 E.03193
G1 X125.616 Y119.452 E.02848
G1 X125.38 Y119.291 E.01034
G1 X124.402 Y118.824 E.03913
G1 X123.394 Y118.61 E.03719
G1 X122.606 Y118.61 E.02848
G1 X122.332 Y118.643 E.00995
G1 X121.566 Y118.831 E.02848
G1 X121.313 Y118.927 E.00979
G1 X120.709 Y119.244 E.02462
G1 X120.384 Y119.452 E.01395
G1 X119.793 Y119.975 E.02848
G1 X119.611 Y120.181 E.00995
G1 X119.163 Y120.83 E.02848
G1 X119.035 Y121.074 E.00995
G1 X118.755 Y121.812 E.02848
G1 X118.689 Y122.079 E.00995
G1 X118.594 Y123.138 E.03837
G1 X118.755 Y124.188 E.03837
G1 X119.163 Y125.17 E.03837
G1 X119.793 Y126.025 E.03837
G1 X120.384 Y126.548 E.02848
G1 X120.672 Y126.736 E.01242
G1 X99.329 Y126.736 E.77059
G1 X99.624 Y126.54 E.01278
G1 X100.408 Y125.792 E.03913
G1 X100.965 Y124.926 E.03719
G1 X101.311 Y123.921 E.03837
G1 X101.406 Y122.862 E.03837
G1 X101.311 Y122.079 E.02848
G1 X101.245 Y121.812 E.00995
G1 X100.965 Y121.074 E.02848
G1 X100.837 Y120.83 E.00995
G1 X100.389 Y120.181 E.02848
G1 X100.207 Y119.975 E.00995
G1 X99.716 Y119.54 E.02369
G1 X99.38 Y119.291 E.01511
G1 X98.777 Y118.982 E.02446
G1 X98.402 Y118.824 E.0147
G1 X97.668 Y118.643 E.02729
G1 X97.394 Y118.61 E.00995
G1 X96.332 Y118.643 E.03837
G1 X95.309 Y118.929 E.03837
G1 X94.61 Y119.296 E.02848
G1 X94.376 Y119.46 E.01034
G1 X93.592 Y120.208 E.03913
G1 X93.264 Y120.684 E.02085
G1 X93.264 Y99.317 E.77148
G1 X93.793 Y100.025 E.03192
G1 X94.384 Y100.548 E.02848
G1 X94.62 Y100.709 E.01034
G1 X95.598 Y101.176 E.03913
G1 X96.606 Y101.39 E.03719
G1 X97.394 Y101.39 E.02848
G1 X97.668 Y101.357 E.00995
G1 X98.434 Y101.169 E.02848
G1 X98.687 Y101.073 E.00979
G1 X99.291 Y100.756 E.02462
G1 X99.624 Y100.54 E.01434
G1 X100.111 Y100.101 E.02369
G1 X100.406 Y99.794 E.01536
G1 X100.837 Y99.17 E.0274
G1 X100.965 Y98.926 E.00995
G1 X101.245 Y98.188 E.02848
G1 X101.311 Y97.921 E.00995
G1 X101.406 Y96.862 E.03837
G1 X101.245 Y95.812 E.03837
G1 X100.837 Y94.83 E.03837
G1 X100.207 Y93.975 E.03837
G1 X99.616 Y93.452 E.02848
G1 X99.332 Y93.266 E.01227
G1 X120.655 Y93.272 E.76991
G1 X120.376 Y93.46 E.01216
G1 X119.592 Y94.208 E.03913
G1 X119.151 Y94.894 E.02944
G1 X119.512 Y95.161 F9000
G1 F900
G1 X119.968 Y94.468 E.02994
G1 X120.682 Y93.799 E.03532
G1 X121.521 Y93.334 E.03464
G1 X121.986 Y93.23 E.01721
;WIDTH:0.458379
G1 X122.452 Y93.127 E.01564
;WIDTH:0.416759
G1 X123.394 Y93.118 E.02784
;WIDTH:0.431241
G1 X123.694 Y93.168 E.00931
;WIDTH:0.46562
G1 X123.993 Y93.218 E.01013
;WIDTH:0.499999
G1 X124.292 Y93.267 E.01096
G1 X125.171 Y93.697 E.03532
G1 X125.829 Y94.251 E.03103
G1 X126.013 Y94.441 E.00956
G1 X126.461 Y95.09 E.02848
G1 X126.804 Y95.979 E.0344
;WIDTH:0.47155
G1 X126.852 Y96.451 E.01608
;WIDTH:0.431897
G1 X126.899 Y96.924 E.01459
;WIDTH:0.43995
G1 X126.827 Y97.862 E.02951
;WIDTH:0.469975
G1 X126.683 Y98.313 E.01597
;WIDTH:0.499999
G1 X126.538 Y98.764 E.01709
G1 X126.032 Y99.532 E.03323
G1 X125.318 Y100.201 E.03532
G1 X124.479 Y100.666 E.03464
G1 X123.558 Y100.913 E.03441
G1 X122.606 Y100.933 E.03441
G1 X121.708 Y100.733 E.03323
G1 X120.829 Y100.303 E.03532
G1 X120.097 Y99.683 E.03464
G1 X119.539 Y98.91 E.03441
G1 X119.182 Y98.026 E.03441
G1 X119.048 Y97.083 E.03441
G1 X119.143 Y96.134 E.03441
G1 X119.462 Y95.236 E.03441
G1 X119.49 Y95.194 E.00184
G1 E-3.5 F1800
;WIPE_START
G1 F900
G1 X119.765 Y94.776 E-1.5
;WIPE_END
G17
G3 Z.6 I.069 J-1.215 P1  F9000
G1 X94.433 Y93.335 Z.6
G1 Z.2
G1 E5 F1800
;WIDTH:0.64029
G1 F900
G1 X94.328 Y93.407 E.006
G1 X93.72 Y93.957 E.03871
G1 X93.334 Y94.458 E.02983
G1 X93.334 Y93.334 E.05304
G1 X94.393 Y93.335 E.04995
G1 E-3.5 F1800
;WIPE_START
G1 F900
G1 X94.328 Y93.407 E-.29144
G1 X94.03 Y93.677 E-1.20856
;WIPE_END
G17
G3 Z.6 I-.145 J1.208 P1  F9000
G1 X99.957 Y94.391 Z.6
G1 Z.2
G1 E5 F1800
;WIDTH:0.499999
G1 F900
G1 X100.461 Y95.09 E.03112
G1 X100.818 Y95.974 E.03441
G1 X100.952 Y96.917 E.03441
G1 X100.857 Y97.866 E.03441
G1 X100.538 Y98.764 E.03441
G1 X100.032 Y99.532 E.03323
G1 X99.318 Y100.201 E.03532
G1 X98.479 Y100.666 E.03464
G1 X97.558 Y100.913 E.03441
G1 X96.606 Y100.933 E.03441
G1 X95.708 Y100.733 E.03323
G1 X94.829 Y100.303 E.03532
G1 X94.097 Y99.683 E.03464
G1 X93.539 Y98.91 E.03441
G1 X93.198 Y98.02 E.0344
;WIDTH:0.466713
G1 X93.15 Y97.548 E.01588
;WIDTH:0.429479
G1 X93.101 Y97.076 E.01449
;WIDTH:0.439949
G1 X93.173 Y96.138 E.02951
;WIDTH:0.47155
G1 X93.196 Y95.979 E.00544
;WIDTH:0.499999
G1 X93.462 Y95.236 E.02848
G1 X93.539 Y95.09 E.00597
G1 X93.968 Y94.468 E.02729
G1 X94.682 Y93.799 E.03532
G1 X95.521 Y93.334 E.03464
G1 X95.986 Y93.23 E.0172
;WIDTH:0.460026
G1 X96.451 Y93.125 E.0157
;WIDTH:0.420053
G1 X97.394 Y93.116 E.0281
;WIDTH:0.450299
M73 P0 R72
G1 X97.843 Y93.192 E.01465
;WIDTH:0.499999
G1 X98.292 Y93.267 E.01644
G1 X99.171 Y93.697 E.03532
G1 X99.903 Y94.317 E.03464
G1 X99.933 Y94.359 E.00185
G1 E-3.5 F1800
;WIPE_START
G1 F900
G1 X100.226 Y94.764 E-1.5
;WIPE_END
G17
G3 Z.6 I-1.197 J-.217 P1  F9000
G1 X94.437 Y126.667 Z.6
G1 Z.2
G1 E5 F1800
;WIDTH:0.637677
G1 F900
G1 X93.333 Y126.667 E.05187
G1 X93.333 Y125.537 E.05307
G1 X93.554 Y125.858 E.01828
G1 X93.828 Y126.147 E.0187
G1 X94.407 Y126.641 E.03576
G1 E-3.5 F1800
;WIPE_START
G1 F900
G1 X93.907 Y126.653 E-1.5
;WIPE_END
G17
G3 Z.6 I.56 J1.081 P1  F9000
G1 X100.943 Y123.008 Z.6
G1 Z.2
G1 E5 F1800
;WIDTH:0.499999
G1 F900
G1 X100.857 Y123.866 E.03112
G1 X100.538 Y124.764 E.03441
G1 X100.032 Y125.532 E.03323
G1 X99.318 Y126.201 E.03532
G1 X98.479 Y126.666 E.03464
G1 X98.014 Y126.77 E.0172
;WIDTH:0.460227
G1 X97.549 Y126.875 E.01571
;WIDTH:0.420455
G1 X96.606 Y126.884 E.02813
;WIDTH:0.450615
G1 X96.157 Y126.808 E.01467
;WIDTH:0.499999
G1 X95.708 Y126.733 E.01644
G1 X94.829 Y126.303 E.03532
G1 X94.176 Y125.753 E.0308
G1 X93.987 Y125.559 E.0098
G1 X93.539 Y124.91 E.02848
G1 X93.198 Y124.02 E.0344
;WIDTH:0.466713
G1 X93.15 Y123.548 E.01588
;WIDTH:0.429479
G1 X93.101 Y123.076 E.01449
;WIDTH:0.439949
G1 X93.173 Y122.138 E.02951
;WIDTH:0.47155
G1 X93.196 Y121.979 E.00544
;WIDTH:0.499999
G1 X93.462 Y121.236 E.02848
G1 X93.968 Y120.468 E.03323
G1 X94.682 Y119.799 E.03532
G1 X95.521 Y119.334 E.03464
G1 X96.442 Y119.087 E.03441
G1 X97.394 Y119.067 E.03441
G1 X98.292 Y119.267 E.03323
G1 X99.171 Y119.697 E.03532
G1 X99.903 Y120.317 E.03464
G1 X100.461 Y121.09 E.03441
G1 X100.818 Y121.974 E.03441
G1 X100.952 Y122.917 E.03441
G1 X100.947 Y122.968 E.00185
G1 E-3.5 F1800
;WIPE_START
G1 F900
G1 X100.897 Y123.466 E-1.5
;WIPE_END
G17
G3 Z.6 I-.098 J1.213 P1  F9000
G1 X126.667 Y125.537 Z.6
G1 Z.2
G1 E5 F1800
;WIDTH:0.637677
G1 F900
G1 X126.667 Y126.667 E.05307
G1 X125.564 Y126.667 E.05183
G1 X125.662 Y126.599 E.0056
G1 X126.252 Y126.076 E.03705
G1 X126.643 Y125.569 E.03007
G1 E-3.5 F1800
;WIPE_START
G1 F900
G1 X126.654 Y126.069 E-1.5
;WIPE_END
G17
G3 Z.6 I1.208 J-.148 P1  F9000
G1 X125.957 Y120.391 Z.6
G1 Z.2
G1 E5 F1800
;WIDTH:0.499999
G1 F900
G1 X126.461 Y121.09 E.03112
G1 X126.804 Y121.979 E.0344
;WIDTH:0.47155
G1 X126.852 Y122.451 E.01608
;WIDTH:0.431897
G1 X126.899 Y122.924 E.01459
;WIDTH:0.392244
G1 X126.902 Y123 E.0021
;WIDTH:0.414627
G1 X126.865 Y123.431 E.0127
;WIDTH:0.43995
G1 X126.827 Y123.862 E.01357
;WIDTH:0.469975
G1 X126.683 Y124.313 E.01597
;WIDTH:0.499999
G1 X126.538 Y124.764 E.01709
G1 X126.013 Y125.559 E.03441
G1 X125.313 Y126.206 E.03441
G1 X124.479 Y126.666 E.03441
G1 X124.014 Y126.77 E.0172
;WIDTH:0.460227
G1 X123.549 Y126.875 E.01571
;WIDTH:0.420455
G1 X122.606 Y126.884 E.02813
;WIDTH:0.450615
G1 X122.157 Y126.808 E.01467
;WIDTH:0.499999
G1 X121.708 Y126.733 E.01644
G1 X120.829 Y126.303 E.03532
G1 X120.097 Y125.683 E.03464
G1 X119.539 Y124.91 E.03441
G1 X119.182 Y124.026 E.03441
G1 X119.048 Y123.083 E.03441
G1 X119.143 Y122.134 E.03441
G1 X119.462 Y121.236 E.03441
G1 X119.987 Y120.441 E.03441
G1 X120.687 Y119.794 E.03441
G1 X121.521 Y119.334 E.03441
G1 X122.442 Y119.087 E.03441
G1 X123.394 Y119.067 E.03441
G1 X124.292 Y119.267 E.03323
G1 X125.171 Y119.697 E.03532
G1 X125.903 Y120.317 E.03464
G1 X125.933 Y120.359 E.00185
G1 E-3.5 F1800
;WIPE_START
G1 F900
G1 X126.226 Y120.764 E-1.5
;WIPE_END
G17
G3 Z.6 I1.183 J-.285 P1  F9000
G1 X119.494 Y92.815 Z.6
G1 Z.2
G1 E5 F1800
G1 F900
G1 X121.62 Y92.815 E.07675
G1 X121.949 Y92.798 E.01188
;WIDTH:0.465658
G1 X122.277 Y92.781 E.01099
;WIDTH:0.431317
G1 X122.606 Y92.764 E.01009
;WIDTH:0.408791
G1 X123.591 Y92.77 E.02849
;WIDTH:0.454395
G1 X123.969 Y92.793 E.01231
;WIDTH:0.499999
G1 X124.347 Y92.816 E.01367
G1 X126.965 Y92.817 E.09453
G1 X127.138 Y92.889 E.00675
G1 X127.193 Y93.093 E.00764
G1 X127.193 Y95.116 E.07305
G1 X127.208 Y95.615 E.01802
;WIDTH:0.469975
G1 X127.223 Y96.114 E.01684
;WIDTH:0.43995
G1 X127.247 Y97.097 E.03084
;WIDTH:0.429478
G1 X127.228 Y97.596 E.01524
;WIDTH:0.466712
G1 X127.21 Y98.095 E.01671
;WIDTH:0.499999
G1 X127.193 Y98.884 E.02848
G1 X127.193 Y121.116 E.80274
G1 X127.208 Y121.615 E.01802
;WIDTH:0.469975
G1 X127.223 Y122.114 E.01684
;WIDTH:0.43995
G1 X127.247 Y123.097 E.03084
;WIDTH:0.429478
G1 X127.228 Y123.596 E.01524
;WIDTH:0.466712
G1 X127.21 Y124.095 E.01671
;WIDTH:0.499999
G1 X127.193 Y126.906 E.10149
G1 X127.138 Y127.111 E.00767
G1 X126.933 Y127.193 E.00797
G1 X124.381 Y127.193 E.09214
G1 X123.888 Y127.218 E.01784
;WIDTH:0.450615
G1 X123.394 Y127.242 E.01591
;WIDTH:0.413252
G1 X122.408 Y127.236 E.02887
;WIDTH:0.456626
G1 X122.03 Y127.215 E.01237
;WIDTH:0.499999
G1 X121.652 Y127.193 E.01367
G1 X98.381 Y127.193 E.84021
G1 X97.888 Y127.218 E.01784
;WIDTH:0.450615
G1 X97.394 Y127.242 E.01591
;WIDTH:0.413252
G1 X96.408 Y127.236 E.02887
;WIDTH:0.456626
G1 X96.03 Y127.215 E.01237
;WIDTH:0.499999
G1 X95.652 Y127.193 E.01367
G1 X93.094 Y127.193 E.09234
G1 X92.889 Y127.138 E.00767
G1 X92.807 Y126.933 E.00797
G1 X92.807 Y124.884 E.074
G1 X92.792 Y124.385 E.01802
;WIDTH:0.469974
G1 X92.777 Y123.886 E.01684
;WIDTH:0.439949
G1 X92.753 Y122.903 E.03084
;WIDTH:0.431897
G1 X92.773 Y122.404 E.01534
;WIDTH:0.47155
G1 X92.793 Y121.905 E.0169
;WIDTH:0.499999
G1 X92.807 Y121.116 E.02848
G1 X92.807 Y98.884 E.80274
G1 X92.792 Y98.385 E.01802
;WIDTH:0.469974
G1 X92.777 Y97.886 E.01684
;WIDTH:0.439949
G1 X92.753 Y96.903 E.03084
;WIDTH:0.431897
G1 X92.773 Y96.404 E.01534
;WIDTH:0.47155
G1 X92.793 Y95.905 E.0169
;WIDTH:0.499999
G1 X92.807 Y93.094 E.10149
G1 X92.862 Y92.889 E.00767
G1 X93.067 Y92.807 E.00796
G1 X95.619 Y92.808 E.09215
G1 X96.112 Y92.783 E.01783
;WIDTH:0.450356
G1 X96.606 Y92.758 E.0159
;WIDTH:0.412583
G1 X97.592 Y92.765 E.02881
;WIDTH:0.456291
G1 X97.97 Y92.787 E.01236
;WIDTH:0.499999
G1 X98.348 Y92.809 E.01367
G1 X119.454 Y92.815 E.76205
G1 E-3.5 F1800
;WIPE_START
G1 F900
G1 X119.954 Y92.815 E-1.5
;WIPE_END
G17
G3 Z.6 I.018 J-1.217 P1  F9000
G1 X92.741 Y92.418 Z.6
G1 Z.2
G1 E5 F1800
;TYPE:Outer wall
G1 F900
G1 X92.769 Y92.399 E.0012
G1 X93.024 Y92.35 E.00937
G1 X126.917 Y92.36 E1.22374
G1 X127.231 Y92.398 E.01142
G1 X127.473 Y92.565 E.01063
G1 X127.6 Y92.764 E.00854
G1 X127.65 Y93.093 E.01201
G1 X127.65 Y126.906 E1.22083
G1 X127.6 Y127.236 E.01205
G1 X127.473 Y127.435 E.00854
M73 P1 R72
G1 X127.231 Y127.601 E.01059
G1 X126.976 Y127.65 E.00938
G1 X93.094 Y127.65 E1.22334
G1 X92.764 Y127.6 E.01205
G1 X92.565 Y127.473 E.00854
G1 X92.399 Y127.231 E.01059
G1 X92.35 Y126.976 E.00938
G1 X92.35 Y93.094 E1.22334
G1 X92.4 Y92.764 E.01205
G1 X92.527 Y92.565 E.00854
G1 X92.708 Y92.44 E.00795
G1 E-3.5 F1800
;WIPE_START
G1 F900
G1 X92.769 Y92.399 E-.2197
G1 X93.024 Y92.35 E-.77895
G1 X93.191 Y92.35 E-.50135
;WIPE_END
G17
G3 Z.6 I-.138 J1.209 P1  F9000
G1 X119.894 Y95.392 Z.6
G1 Z.2
G1 E5 F1800
G1 F900
G1 X120.344 Y94.728 E.02897
G1 X120.988 Y94.138 E.03152
G1 X121.734 Y93.739 E.03053
G1 X122.551 Y93.53 E.03045
G1 X123.394 Y93.524 E.03045
G1 X124.183 Y93.711 E.02927
G1 X124.963 Y94.104 E.03152
G1 X125.637 Y94.701 E.03251
G1 X126.085 Y95.35 E.02848
G1 X126.39 Y96.136 E.03045
G1 X126.498 Y96.972 E.03045
G1 X126.403 Y97.811 E.03045
G1 X126.111 Y98.601 E.03045
G1 X125.656 Y99.272 E.02927
G1 X125.012 Y99.862 E.03152
G1 X124.266 Y100.261 E.03053
G1 X123.449 Y100.47 E.03045
G1 X122.606 Y100.476 E.03045
G1 X121.817 Y100.289 E.02927
G1 X121.037 Y99.896 E.03152
G1 X120.4 Y99.341 E.03053
G1 X119.915 Y98.65 E.03045
G1 X119.61 Y97.864 E.03045
G1 X119.502 Y97.028 E.03045
G1 X119.597 Y96.189 E.03045
G1 X119.878 Y95.428 E.0293
G1 E-3.5 F1800
;WIPE_START
G1 F900
G1 X120.155 Y95.012 E-1.5
;WIPE_END
G17
G3 Z.6 I-1.19 J.253 P1  F9000
G1 X125.604 Y120.664 Z.6
G1 Z.2
G1 E5 F1800
G1 F900
G1 X126.085 Y121.35 E.03023
G1 X126.39 Y122.136 E.03045
G1 X126.5 Y123 E.03145
G1 X126.403 Y123.81 E.02947
G1 X126.111 Y124.601 E.03045
G1 X125.637 Y125.299 E.03045
G1 X125.01 Y125.864 E.03045
G1 X124.266 Y126.261 E.03045
G1 X123.449 Y126.47 E.03045
G1 X122.606 Y126.476 E.03045
G1 X121.817 Y126.289 E.02927
G1 X121.037 Y125.896 E.03152
G1 X120.4 Y125.341 E.03053
G1 X119.915 Y124.65 E.03045
G1 X119.61 Y123.864 E.03045
G1 X119.502 Y123.028 E.03045
G1 X119.597 Y122.19 E.03045
G1 X119.889 Y121.399 E.03045
G1 X120.363 Y120.701 E.03045
G1 X120.99 Y120.136 E.03045
G1 X121.734 Y119.739 E.03045
G1 X122.551 Y119.53 E.03045
G1 X123.394 Y119.524 E.03045
G1 X124.183 Y119.711 E.02927
G1 X124.963 Y120.104 E.03152
G1 X125.575 Y120.637 E.02931
G1 E-3.5 F1800
;WIPE_START
G1 F900
G1 X125.866 Y121.044 E-1.5
;WIPE_END
G17
G3 Z.6 I-.093 J-1.213 P1  F9000
G1 X100.497 Y122.982 Z.6
G1 Z.2
G1 E5 F1800
G1 F900
G1 X100.403 Y123.81 E.03009
G1 X100.111 Y124.601 E.03045
G1 X99.656 Y125.272 E.02927
G1 X99.012 Y125.862 E.03152
G1 X98.266 Y126.261 E.03053
G1 X97.449 Y126.47 E.03045
G1 X96.606 Y126.476 E.03045
G1 X95.817 Y126.289 E.02927
G1 X95.037 Y125.896 E.03152
G1 X94.363 Y125.299 E.03251
G1 X93.915 Y124.65 E.02848
