; HEADER_BLOCK_START
; generated by OrcaSlicer 1.7.0 on 2023-12-11 at 23:02:21
; total layer number: 204
; HEADER_BLOCK_END

; THUMBNAIL_BLOCK_START
; THUMBNAIL_BLOCK_END

; external perimeters extrusion width = 0.40mm
; perimeters extrusion width = 0.45mm
; infill extrusion width = 0.45mm
; solid infill extrusion width = 0.40mm
; top infill extrusion width = 0.40mm
; first layer extrusion width = 0.50mm

; EXECUTABLE_BLOCK_START
EXCLUDE_OBJECT_DEFINE NAME=Bottle_1x1x6_-_dePrintinator.stl_id_0_copy_0 CENTER=110,133.498 POLYGON=[[89,116.498],[89.0769,115.717],[89.3045,114.967],[89.6741,114.275],[90.1716,113.669],[90.7777,113.172],[91.4693,112.802],[92.2196,112.574],[93,112.498],[127,112.498],[127.78,112.574],[128.531,112.802],[129.222,113.172],[129.828,113.669],[130.326,114.275],[130.696,114.967],[130.923,115.717],[131,116.498],[131,150.498],[130.923,151.278],[130.696,152.028],[130.326,152.72],[129.828,153.326],[129.222,153.823],[128.531,154.193],[127.78,154.421],[127,154.498],[93,154.498],[92.2196,154.421],[91.4693,154.193],[90.7777,153.823],[90.1716,153.326],[89.6741,152.72],[89.3045,152.028],[89.0769,151.278],[89,150.498],[89,116.498]]
M73 P0 R75
;TYPE:Custom
START_PRINT EXTRUDER_TEMP=255  BED_TEMP=80
G90
G21
M83 ; use relative distances for extrusion
; filament start gcode
M106 S0
;LAYER_CHANGE
;Z:0.2
;HEIGHT:0.2
;BEFORE_LAYER_CHANGE
;0.2
G92 E0

G1 E-5 F1800
;_SET_FAN_SPEED_CHANGING_LAYER
; printing object Bottle 1x1x6 - dePrintinator.stl id:0 copy 0
EXCLUDE_OBJECT_START NAME=Bottle_1x1x6_-_dePrintinator.stl_id_0_copy_0
G1 X125.572 Y116.838 F9000
G1 Z.4
G1 Z.2
G1 E5 F1800
;TYPE:Inner wall
;WIDTH:0.634699
G1 F900
G1 X126.668 Y116.839 E.05127
G1 X126.668 Y117.965 E.05265
G1 X126.445 Y117.641 E.01842
G1 X126.176 Y117.356 E.01829
G1 X125.602 Y116.864 E.03534
G1 E-3.5 F1800
;WIPE_START
G1 F900
G1 X126.102 Y116.852 E-1.5
;WIPE_END
G17
G3 Z.6 I-.528 J-1.096 P1  F9000
G1 X118.61 Y120.461 Z.6
G1 Z.2
G1 E5 F1800
;WIDTH:0.499999
G1 F900
G1 X118.594 Y120.635 E.00633
G1 X118.689 Y121.418 E.02848
G1 X118.755 Y121.686 E.00995
G1 X119.035 Y122.423 E.02848
G1 X119.163 Y122.667 E.00995
G1 X119.611 Y123.316 E.02848
G1 X119.793 Y123.522 E.00995
G1 X120.284 Y123.957 E.02369
G1 X120.62 Y124.207 E.01511
G1 X121.223 Y124.516 E.02446
G1 X121.598 Y124.674 E.0147
G1 X122.332 Y124.855 E.02729
G1 X122.606 Y124.888 E.00995
G1 X123.668 Y124.855 E.03837
G1 X124.691 Y124.568 E.03837
G1 X125.39 Y124.202 E.02848
G1 X125.624 Y124.038 E.01034
G1 X126.408 Y123.289 E.03913
G1 X126.736 Y122.814 E.02085
G1 X126.736 Y144.181 E.77148
G1 X126.207 Y143.473 E.03193
G1 X125.616 Y142.95 E.02848
G1 X125.38 Y142.788 E.01034
G1 X124.402 Y142.321 E.03913
G1 X123.394 Y142.107 E.03719
G1 X122.606 Y142.107 E.02848
G1 X122.332 Y142.14 E.00995
G1 X121.566 Y142.329 E.02848
G1 X121.313 Y142.425 E.00979
G1 X120.709 Y142.742 E.02462
G1 X120.376 Y142.957 E.01434
G1 X119.889 Y143.397 E.02369
G1 X119.594 Y143.704 E.01536
G1 X119.163 Y144.328 E.0274
G1 X119.035 Y144.572 E.00995
G1 X118.755 Y145.309 E.02848
G1 X118.689 Y145.577 E.00995
G1 X118.594 Y146.635 E.03837
G1 X118.755 Y147.686 E.03837
G1 X119.163 Y148.667 E.03837
G1 X119.793 Y149.522 E.03837
G1 X120.384 Y150.045 E.02848
G1 X120.672 Y150.233 E.01242
G1 X99.329 Y150.233 E.77059
G1 X99.624 Y150.038 E.01278
G1 X100.408 Y149.289 E.03913
G1 X100.965 Y148.423 E.03719
G1 X101.311 Y147.418 E.03837
G1 X101.406 Y146.36 E.03837
G1 X101.311 Y145.577 E.02848
G1 X101.245 Y145.309 E.00995
G1 X100.965 Y144.572 E.02848
G1 X100.837 Y144.328 E.00995
G1 X100.408 Y143.706 E.02729
G1 X100.207 Y143.473 E.01112
G1 X99.616 Y142.95 E.02848
G1 X99.38 Y142.788 E.01034
G1 X98.777 Y142.479 E.02446
G1 X98.402 Y142.321 E.0147
G1 X97.668 Y142.14 E.02729
G1 X97.394 Y142.107 E.00995
G1 X96.332 Y142.14 E.03837
G1 X95.309 Y142.427 E.03837
G1 X94.61 Y142.793 E.02848
G1 X94.376 Y142.957 E.01034
G1 X93.592 Y143.706 E.03913
G1 X93.264 Y144.181 E.02085
G1 X93.264 Y122.814 E.77148
G1 X93.793 Y123.522 E.03193
G1 X94.384 Y124.045 E.02848
G1 X94.62 Y124.207 E.01034
G1 X95.598 Y124.674 E.03913
G1 X96.606 Y124.888 E.03719
G1 X97.394 Y124.888 E.02848
G1 X97.668 Y124.855 E.00995
G1 X98.434 Y124.666 E.02848
G1 X98.687 Y124.571 E.00979
G1 X99.291 Y124.254 E.02462
G1 X99.616 Y124.045 E.01395
G1 X100.207 Y123.522 E.02848
G1 X100.389 Y123.316 E.00995
G1 X100.837 Y122.667 E.02848
G1 X100.965 Y122.423 E.00995
G1 X101.245 Y121.686 E.02848
G1 X101.311 Y121.418 E.00995
G1 X101.406 Y120.36 E.03837
G1 X101.245 Y119.309 E.03837
G1 X100.837 Y118.328 E.03837
G1 X100.207 Y117.473 E.03837
G1 X99.616 Y116.95 E.02848
G1 X99.332 Y116.764 E.01227
G1 X120.655 Y116.77 E.76991
G1 X120.376 Y116.957 E.01216
G1 X119.592 Y117.706 E.03913
G1 X119.035 Y118.572 E.03719
G1 X118.689 Y119.577 E.03837
G1 X118.613 Y120.421 E.03059
G1 X119.057 Y120.489 F9000
G1 F900
G1 X119.143 Y119.632 E.03112
G1 X119.462 Y118.734 E.03441
G1 X119.968 Y117.966 E.03323
G1 X120.682 Y117.296 E.03532
G1 X121.521 Y116.832 E.03464
G1 X121.986 Y116.728 E.0172
;WIDTH:0.45838
G1 X122.452 Y116.625 E.01564
;WIDTH:0.41676
G1 X123.394 Y116.616 E.02784
;WIDTH:0.431241
G1 X123.694 Y116.666 E.00931
;WIDTH:0.46562
G1 X123.993 Y116.715 E.01013
;WIDTH:0.499999
G1 X124.292 Y116.765 E.01096
G1 X125.171 Y117.195 E.03532
G1 X125.829 Y117.749 E.03103
G1 X126.013 Y117.939 E.00956
G1 X126.461 Y118.588 E.02848
G1 X126.804 Y119.477 E.0344
;WIDTH:0.47155
G1 X126.852 Y119.949 E.01608
;WIDTH:0.431897
G1 X126.899 Y120.421 E.01459
;WIDTH:0.392243
G1 X126.902 Y120.498 E.0021
;WIDTH:0.414627
G1 X126.865 Y120.929 E.0127
;WIDTH:0.43995
G1 X126.827 Y121.36 E.01357
;WIDTH:0.469975
G1 X126.683 Y121.81 E.01597
;WIDTH:0.499999
G1 X126.538 Y122.261 E.01709
G1 X126.032 Y123.03 E.03323
G1 X125.318 Y123.699 E.03532
G1 X124.479 Y124.164 E.03464
G1 X123.558 Y124.411 E.03441
G1 X122.606 Y124.431 E.03441
G1 X121.708 Y124.23 E.03323
G1 X120.829 Y123.8 E.03532
G1 X120.097 Y123.18 E.03464
G1 X119.539 Y122.407 E.03441
G1 X119.182 Y121.524 E.03441
G1 X119.048 Y120.58 E.03441
G1 X119.053 Y120.529 E.00185
G1 E-3.5 F1800
;WIPE_START
G1 F900
G1 X119.103 Y120.032 E-1.5
;WIPE_END
G17
G3 Z.6 I-1.19 J.255 P1  F9000
G1 X125.567 Y150.163 Z.6
G1 Z.2
G1 E5 F1800
;WIDTH:0.640346
G1 F900
G1 X125.672 Y150.09 E.00603
G1 X126.28 Y149.54 E.03872
G1 X126.666 Y149.039 E.02982
G1 X126.666 Y150.163 E.05304
G1 X125.607 Y150.163 E.04998
G1 E-3.5 F1800
;WIPE_START
G1 F900
G1 X125.672 Y150.09 E-.29326
G1 X125.97 Y149.821 E-1.20674
;WIPE_END
G17
G3 Z.6 I-.104 J-1.213 P1  F9000
G1 X121.628 Y150.191 Z.6
G1 Z.2
G1 E5 F1800
;WIDTH:0.499999
G1 F900
G1 X120.829 Y149.8 E.03213
G1 X120.097 Y149.18 E.03464
G1 X119.539 Y148.407 E.03441
G1 X119.182 Y147.524 E.03441
G1 X119.048 Y146.58 E.03441
G1 X119.143 Y145.632 E.03441
G1 X119.462 Y144.734 E.03441
G1 X119.968 Y143.966 E.03323
G1 X120.682 Y143.296 E.03532
G1 X121.521 Y142.832 E.03464
G1 X122.442 Y142.584 E.03441
G1 X123.394 Y142.564 E.03441
G1 X124.292 Y142.765 E.03323
G1 X125.171 Y143.195 E.03532
G1 X125.903 Y143.815 E.03464
G1 X126.461 Y144.588 E.03441
G1 X126.804 Y145.477 E.0344
;WIDTH:0.47155
G1 X126.852 Y145.949 E.01608
;WIDTH:0.431897
G1 X126.899 Y146.421 E.01459
;WIDTH:0.392243
G1 X126.902 Y146.498 E.0021
;WIDTH:0.414627
G1 X126.865 Y146.929 E.0127
;WIDTH:0.43995
G1 X126.827 Y147.36 E.01357
;WIDTH:0.469975
G1 X126.683 Y147.81 E.01597
;WIDTH:0.499999
G1 X126.538 Y148.261 E.01709
G1 X126.032 Y149.03 E.03323
G1 X125.318 Y149.699 E.03532
G1 X124.479 Y150.164 E.03464
G1 X124.014 Y150.268 E.0172
;WIDTH:0.460227
G1 X123.549 Y150.372 E.01571
;WIDTH:0.420455
G1 X122.606 Y150.382 E.02813
;WIDTH:0.450615
G1 X122.157 Y150.306 E.01467
;WIDTH:0.499999
G1 X121.708 Y150.23 E.01644
G1 X121.664 Y150.209 E.00175
G1 E-3.5 F1800
;WIPE_START
G1 F900
G1 X121.215 Y149.989 E-1.5
;WIPE_END
G17
G3 Z.6 I-.008 J-1.217 P1  F9000
G1 X94.437 Y150.165 Z.6
G1 Z.2
G1 E5 F1800
;WIDTH:0.637676
G1 F900
G1 X93.333 Y150.165 E.05187
G1 X93.333 Y149.035 E.05307
G1 X93.554 Y149.355 E.01829
G1 X93.828 Y149.645 E.0187
G1 X94.407 Y150.139 E.03576
G1 E-3.5 F1800
;WIPE_START
G1 F900
G1 X93.907 Y150.151 E-1.5
;WIPE_END
G17
G3 Z.6 I.323 J1.173 P1  F9000
G1 X100.488 Y148.337 Z.6
G1 Z.2
G1 E5 F1800
;WIDTH:0.499999
G1 F900
G1 X100.032 Y149.03 E.02994
G1 X99.318 Y149.699 E.03532
G1 X98.479 Y150.164 E.03464
G1 X98.014 Y150.268 E.0172
;WIDTH:0.460227
G1 X97.549 Y150.372 E.01571
;WIDTH:0.420455
G1 X96.606 Y150.382 E.02813
;WIDTH:0.450615
G1 X96.157 Y150.306 E.01467
;WIDTH:0.499999
G1 X95.708 Y150.23 E.01644
G1 X94.829 Y149.8 E.03532
G1 X94.176 Y149.251 E.0308
G1 X93.987 Y149.057 E.0098
G1 X93.539 Y148.407 E.02848
G1 X93.198 Y147.518 E.0344
;WIDTH:0.466713
G1 X93.15 Y147.046 E.01588
;WIDTH:0.429479
G1 X93.101 Y146.574 E.01449
;WIDTH:0.439949
G1 X93.173 Y145.636 E.02951
;WIDTH:0.47155
G1 X93.196 Y145.477 E.00544
;WIDTH:0.499999
G1 X93.462 Y144.734 E.02848
G1 X93.968 Y143.966 E.03323
G1 X94.682 Y143.296 E.03532
G1 X95.521 Y142.832 E.03464
G1 X96.442 Y142.584 E.03441
G1 X97.394 Y142.564 E.03441
G1 X98.292 Y142.765 E.03323
G1 X99.171 Y143.195 E.03532
G1 X99.903 Y143.815 E.03464
G1 X100.461 Y144.588 E.03441
G1 X100.818 Y145.472 E.03441
G1 X100.952 Y146.415 E.03441
G1 X100.857 Y147.363 E.03441
G1 X100.538 Y148.261 E.03441
G1 X100.51 Y148.304 E.00184
G1 E-3.5 F1800
;WIPE_START
G1 F900
G1 X100.235 Y148.721 E-1.5
;WIPE_END
G17
G3 Z.6 I1.187 J-.266 P1  F9000
G1 X93.333 Y117.96 Z.6
G1 Z.2
G1 E5 F1800
;WIDTH:0.637621
G1 F900
G1 X93.333 Y116.831 E.05307
G1 X94.436 Y116.831 E.0518
G1 X94.338 Y116.898 E.00557
G1 X93.748 Y117.421 E.03705
G1 X93.357 Y117.929 E.03007
G1 E-3.5 F1800
;WIPE_START
G1 F900
G1 X93.346 Y117.429 E-1.5
;WIPE_END
G17
G3 Z.6 I-1.208 J.148 P1  F9000
G1 X94.043 Y123.106 Z.6
G1 Z.2
G1 E5 F1800
;WIDTH:0.499999
G1 F900
G1 X93.539 Y122.407 E.03112
G1 X93.198 Y121.518 E.0344
;WIDTH:0.466713
G1 X93.15 Y121.046 E.01588
;WIDTH:0.429479
G1 X93.101 Y120.574 E.01449
;WIDTH:0.43995
G1 X93.173 Y119.636 E.02951
;WIDTH:0.471551
G1 X93.196 Y119.477 E.00544
;WIDTH:0.499999
G1 X93.462 Y118.734 E.02848
G1 X93.987 Y117.939 E.03441
G1 X94.687 Y117.292 E.03441
G1 X95.521 Y116.832 E.03441
G1 X95.986 Y116.727 E.0172
;WIDTH:0.460027
G1 X96.451 Y116.623 E.0157
;WIDTH:0.420054
G1 X97.394 Y116.614 E.0281
;WIDTH:0.4503
G1 X97.843 Y116.689 E.01465
;WIDTH:0.499999
G1 X98.292 Y116.765 E.01644
G1 X99.171 Y117.195 E.03532
G1 X99.903 Y117.815 E.03464
G1 X100.461 Y118.588 E.03441
G1 X100.818 Y119.472 E.03441
G1 X100.952 Y120.415 E.03441
G1 X100.857 Y121.363 E.03441
G1 X100.538 Y122.261 E.03441
G1 X100.013 Y123.057 E.03441
G1 X99.313 Y123.703 E.03441
G1 X98.479 Y124.164 E.03441
G1 X97.558 Y124.411 E.03441
G1 X96.606 Y124.431 E.03441
G1 X95.708 Y124.23 E.03323
G1 X94.829 Y123.8 E.03532
G1 X94.097 Y123.18 E.03464
G1 X94.067 Y123.139 E.00185
G1 E-3.5 F1800
;WIPE_START
G1 F900
G1 X93.774 Y122.733 E-1.5
;WIPE_END
G17
G3 Z.6 I.303 J1.179 P1  F9000
M73 P0 R74
G1 X118.78 Y116.312 Z.6
G1 Z.2
G1 E5 F1800
G1 F900
G1 X121.62 Y116.313 E.10254
G1 X121.949 Y116.296 E.01188
;WIDTH:0.465658
G1 X122.277 Y116.279 E.01099
;WIDTH:0.431317
G1 X122.606 Y116.262 E.01009
;WIDTH:0.40879
G1 X123.591 Y116.268 E.02849
;WIDTH:0.454395
G1 X123.969 Y116.291 E.01231
;WIDTH:0.499999
G1 X124.347 Y116.314 E.01367
G1 X126.965 Y116.314 E.09453
G1 X127.138 Y116.387 E.00675
G1 X127.193 Y116.591 E.00764
G1 X127.193 Y118.614 E.07305
G1 X127.208 Y119.113 E.01802
;WIDTH:0.469975
G1 X127.223 Y119.612 E.01684
;WIDTH:0.43995
G1 X127.247 Y120.595 E.03084
;WIDTH:0.429478
G1 X127.228 Y121.094 E.01524
;WIDTH:0.466712
G1 X127.21 Y121.592 E.01671
;WIDTH:0.499999
G1 X127.193 Y122.381 E.02848
G1 X127.193 Y144.614 E.80274
G1 X127.208 Y145.113 E.01802
;WIDTH:0.469975
G1 X127.223 Y145.612 E.01684
;WIDTH:0.43995
G1 X127.247 Y146.595 E.03084
;WIDTH:0.429478
G1 X127.228 Y147.094 E.01524
;WIDTH:0.466712
G1 X127.21 Y147.592 E.01671
;WIDTH:0.499999
G1 X127.193 Y150.403 E.10149
G1 X127.138 Y150.609 E.00767
G1 X126.933 Y150.691 E.00797
G1 X124.381 Y150.691 E.09214
G1 X123.888 Y150.715 E.01784
;WIDTH:0.450615
G1 X123.394 Y150.74 E.01591
;WIDTH:0.413252
G1 X122.408 Y150.734 E.02887
;WIDTH:0.456626
G1 X122.03 Y150.712 E.01237
;WIDTH:0.499999
G1 X121.652 Y150.691 E.01367
G1 X98.381 Y150.691 E.84021
G1 X97.888 Y150.715 E.01784
;WIDTH:0.450615
G1 X97.394 Y150.74 E.01591
;WIDTH:0.413251
G1 X96.408 Y150.734 E.02887
;WIDTH:0.456625
G1 X96.03 Y150.712 E.01237
;WIDTH:0.499999
G1 X95.652 Y150.691 E.01367
G1 X93.094 Y150.691 E.09234
G1 X92.889 Y150.635 E.00767
G1 X92.807 Y150.431 E.00797
G1 X92.807 Y148.381 E.074
G1 X92.792 Y147.882 E.01802
;WIDTH:0.469975
G1 X92.777 Y147.384 E.01684
;WIDTH:0.43995
G1 X92.753 Y146.4 E.03084
;WIDTH:0.431897
G1 X92.773 Y145.902 E.01534
;WIDTH:0.47155
G1 X92.793 Y145.403 E.0169
;WIDTH:0.499999
G1 X92.807 Y144.614 E.02848
G1 X92.807 Y122.381 E.80274
G1 X92.792 Y121.882 E.01802
;WIDTH:0.469975
G1 X92.777 Y121.383 E.01684
;WIDTH:0.43995
G1 X92.753 Y120.4 E.03084
;WIDTH:0.431897
G1 X92.773 Y119.902 E.01534
;WIDTH:0.471551
G1 X92.793 Y119.403 E.0169
;WIDTH:0.499999
G1 X92.807 Y116.592 E.10149
G1 X92.862 Y116.387 E.00767
G1 X93.067 Y116.305 E.00796
G1 X95.619 Y116.305 E.09215
G1 X96.112 Y116.281 E.01783
;WIDTH:0.450356
G1 X96.606 Y116.256 E.0159
;WIDTH:0.412583
G1 X97.592 Y116.262 E.02881
;WIDTH:0.456291
G1 X97.97 Y116.284 E.01236
;WIDTH:0.499999
G1 X98.348 Y116.306 E.01367
G1 X118.74 Y116.312 E.73627
G1 E-3.5 F1800
;WIPE_START
G1 F900
G1 X119.24 Y116.312 E-1.5
;WIPE_END
G17
G3 Z.6 I-.003 J1.217 P1  F9000
G1 X127.612 Y116.336 Z.6
G1 Z.2
G1 E5 F1800
;TYPE:Outer wall
G1 F900
G1 X127.65 Y116.591 E.0093
G1 X127.65 Y150.403 E1.22083
G1 X127.6 Y150.733 E.01205
G1 X127.473 Y150.933 E.00854
G1 X127.231 Y151.099 E.01059
G1 X126.976 Y151.148 E.00938
G1 X93.094 Y151.148 E1.22334
G1 X92.764 Y151.098 E.01205
G1 X92.565 Y150.971 E.00854
G1 X92.399 Y150.729 E.01059
G1 X92.35 Y150.474 E.00938
G1 X92.35 Y116.592 E1.22334
M73 P1 R74
G1 X92.4 Y116.262 E.01205
G1 X92.527 Y116.062 E.00854
G1 X92.769 Y115.896 E.01059
G1 X93.024 Y115.848 E.00938
G1 X126.917 Y115.857 E1.22374
G1 X127.231 Y115.896 E.01142
G1 X127.473 Y116.062 E.01063
G1 X127.6 Y116.262 E.00854
G1 X127.606 Y116.297 E.00127
G1 E-3.5 F1800
;WIPE_START
G1 F900
G1 X127.65 Y116.591 E-.89251
G1 X127.65 Y116.793 E-.60749
;WIPE_END
G17
G3 Z.6 I-.506 J-1.107 P1  F9000
G1 X119.502 Y120.517 Z.6
G1 Z.2
G1 E5 F1800
G1 F900
G1 X119.597 Y119.687 E.03016
G1 X119.889 Y118.896 E.03045
G1 X120.344 Y118.225 E.02927
G1 X120.988 Y117.636 E.03152
G1 X121.734 Y117.236 E.03053
G1 X122.551 Y117.028 E.03045
G1 X123.394 Y117.021 E.03045
G1 X124.183 Y117.209 E.02927
G1 X124.963 Y117.602 E.03152
G1 X125.637 Y118.198 E.03251
G1 X126.085 Y118.847 E.02848
G1 X126.39 Y119.634 E.03045
G1 X126.5 Y120.498 E.03145
G1 X126.403 Y121.308 E.02947
G1 X126.111 Y122.099 E.03045
G1 X125.656 Y122.77 E.02927
G1 X125.012 Y123.36 E.03152
G1 X124.266 Y123.759 E.03053
G1 X123.449 Y123.967 E.03045
G1 X122.606 Y123.974 E.03045
G1 X121.817 Y123.786 E.02927
G1 X121.037 Y123.394 E.03152
G1 X120.4 Y122.838 E.03053
G1 X119.915 Y122.148 E.03045
G1 X119.61 Y121.362 E.03045
G1 X119.506 Y120.557 E.0293
G1 E-3.5 F1800
;WIPE_START
G1 F900
G1 X119.558 Y120.059 E-1.5
;WIPE_END
G17
G3 Z.6 I-1.214 J.091 P1  F9000
G1 X121.79 Y149.773 Z.6
G1 Z.2
G1 E5 F1800
G1 F900
G1 X121.037 Y149.394 E.03041
G1 X120.4 Y148.838 E.03053
G1 X119.915 Y148.148 E.03045
G1 X119.61 Y147.362 E.03045
G1 X119.502 Y146.525 E.03045
G1 X119.597 Y145.687 E.03045
G1 X119.889 Y144.896 E.03045
G1 X120.344 Y144.225 E.02927
G1 X120.988 Y143.636 E.03152
G1 X121.734 Y143.236 E.03053
G1 X122.551 Y143.028 E.03045
G1 X123.394 Y143.021 E.03045
G1 X124.183 Y143.209 E.02927
G1 X124.963 Y143.602 E.03152
G1 X125.6 Y144.157 E.03053
G1 X126.085 Y144.847 E.03045
G1 X126.39 Y145.634 E.03045
G1 X126.5 Y146.498 E.03145
G1 X126.403 Y147.308 E.02947
G1 X126.111 Y148.099 E.03045
G1 X125.656 Y148.77 E.02927
G1 X125.012 Y149.36 E.03152
G1 X124.266 Y149.759 E.03053
G1 X123.449 Y149.967 E.03045
G1 X122.606 Y149.974 E.03045
G1 X121.826 Y149.789 E.02893
G1 E-3.5 F1800
;WIPE_START
G1 F900
G1 X121.379 Y149.565 E-1.5
;WIPE_END
G17
G3 Z.6 I.083 J-1.214 P1  F9000
G1 X100.106 Y148.106 Z.6
G1 Z.2
G1 E5 F1800
G1 F900
G1 X99.656 Y148.77 E.02897
