; HEADER_BLOCK_START
; generated by OrcaSlicer 1.7.0 on 2023-12-26 at 21:43:40
; total layer number: 203
; HEADER_BLOCK_END

; THUMBNAIL_BLOCK_START
; THUMBNAIL_BLOCK_END

; external perimeters extrusion width = 0.40mm
; perimeters extrusion width = 0.45mm
; infill extrusion width = 0.45mm
; solid infill extrusion width = 0.40mm
; top infill extrusion width = 0.40mm
; first layer extrusion width = 0.50mm

; EXECUTABLE_BLOCK_START
EXCLUDE_OBJECT_DEFINE NAME=Bottle_1x1x6_-_dePrintinator.stl_id_0_copy_0 CENTER=110,110 POLYGON=[[89,93],[89.0769,92.2196],[89.3045,91.4693],[89.6741,90.7777],[90.1716,90.1716],[90.7777,89.6741],[91.4693,89.3045],[92.2196,89.0769],[93,89],[127,89],[127.78,89.0769],[128.531,89.3045],[129.222,89.6741],[129.828,90.1716],[130.326,90.7777],[130.696,91.4693],[130.923,92.2196],[131,93],[131,127],[130.923,127.78],[130.696,128.531],[130.326,129.222],[129.828,129.828],[129.222,130.326],[128.531,130.696],[127.78,130.923],[127,131],[93,131],[92.2196,130.923],[91.4693,130.696],[90.7777,130.326],[90.1716,129.828],[89.6741,129.222],[89.3045,128.531],[89.0769,127.78],[89,127],[89,93]]
M73 P0 R76
;TYPE:Custom
START_PRINT EXTRUDER_TEMP=255  BED_TEMP=80
G90
G21
M83 ; use relative distances for extrusion
; filament start gcode
M106 S0
;LAYER_CHANGE
;Z:0.3
;HEIGHT:0.3
;BEFORE_LAYER_CHANGE
;0.3
G92 E0

G1 E-5 F1800
;_SET_FAN_SPEED_CHANGING_LAYER
; printing object Bottle 1x1x6 - dePrintinator.stl id:0 copy 0
EXCLUDE_OBJECT_START NAME=Bottle_1x1x6_-_dePrintinator.stl_id_0_copy_0
G1 X125.06 Y93.171 F9000
G1 Z.4
G1 Z.3
G1 E5 F1800
;TYPE:Inner wall
;WIDTH:0.5
G1 F900
G1 X126.829 Y93.171 E.0913
G1 X126.829 Y94.906 E.08952
G1 X126.179 Y94.008 E.05718
G1 X125.587 Y93.483 E.04084
G1 X125.094 Y93.192 E.02954
G1 E-3.5 F1800
;WIPE_START
G1 F900
G1 X125.594 Y93.186 E-1.5
;WIPE_END
G17
G3 Z.7 I-.322 J-1.174 P1  F9000
G1 X119.167 Y94.947 Z.7
G1 Z.3
G1 E5 F1800
G1 F900
G1 X119.075 Y95.088 E.00867
G1 X118.732 Y96.083 E.05432
G1 X118.636 Y97.131 E.05432
G1 X118.732 Y97.917 E.04084
G1 X118.795 Y98.172 E.01355
G1 X119.075 Y98.912 E.04084
G1 X119.197 Y99.144 E.01355
G1 X119.647 Y99.795 E.04084
G1 X119.821 Y99.992 E.01355
G1 X120.413 Y100.517 E.04084
G1 X120.629 Y100.666 E.01355
G1 X121.33 Y101.033 E.04084
G1 X121.575 Y101.127 E.01355
G1 X122.344 Y101.316 E.04084
G1 X122.604 Y101.348 E.01355
G1 X123.656 Y101.316 E.05432
G1 X124.67 Y101.033 E.05432
G1 X125.587 Y100.517 E.05432
G1 X126.353 Y99.795 E.05432
G1 X126.829 Y99.094 E.04372
G1 X126.829 Y120.906 E1.12581
G1 X126.179 Y120.008 E.05718
G1 X125.371 Y119.334 E.05432
G1 X124.425 Y118.873 E.05432
G1 X123.396 Y118.652 E.05432
G1 X122.604 Y118.652 E.04084
G1 X122.344 Y118.684 E.01355
G1 X121.575 Y118.873 E.04084
G1 X121.33 Y118.967 E.01355
G1 X120.629 Y119.334 E.04084
G1 X120.413 Y119.483 E.01355
G1 X119.821 Y120.008 E.04084
G1 X119.647 Y120.205 E.01355
G1 X119.197 Y120.856 E.04084
G1 X119.075 Y121.088 E.01355
G1 X118.795 Y121.828 E.04084
G1 X118.732 Y122.083 E.01355
G1 X118.636 Y123.131 E.05432
G1 X118.795 Y124.172 E.05432
G1 X119.197 Y125.144 E.05432
G1 X119.821 Y125.992 E.05432
G1 X120.413 Y126.517 E.04084
G1 X120.94 Y126.829 E.03161
G1 X99.06 Y126.829 E1.12936
G1 X99.587 Y126.517 E.03161
G1 X100.353 Y125.795 E.05432
G1 X100.925 Y124.912 E.05432
G1 X101.268 Y123.917 E.05432
G1 X101.364 Y122.869 E.05432
G1 X101.268 Y122.083 E.04084
G1 X101.205 Y121.828 E.01355
G1 X100.925 Y121.088 E.04084
G1 X100.803 Y120.856 E.01355
G1 X100.353 Y120.205 E.04084
G1 X100.179 Y120.008 E.01355
G1 X99.587 Y119.483 E.04084
G1 X99.371 Y119.334 E.01355
G1 X98.67 Y118.967 E.04084
G1 X98.425 Y118.873 E.01355
G1 X97.656 Y118.684 E.04084
G1 X97.396 Y118.652 E.01355
G1 X96.344 Y118.684 E.05432
G1 X95.33 Y118.967 E.05432
G1 X94.413 Y119.483 E.05432
G1 X93.647 Y120.205 E.05432
G1 X93.171 Y120.906 E.04372
G1 X93.171 Y99.094 E1.12581
G1 X93.821 Y99.992 E.05718
G1 X94.629 Y100.666 E.05432
G1 X95.575 Y101.127 E.05432
G1 X96.604 Y101.348 E.05432
G1 X97.396 Y101.348 E.04084
G1 X97.656 Y101.316 E.01355
G1 X98.425 Y101.127 E.04084
G1 X98.67 Y101.033 E.01355
G1 X99.371 Y100.666 E.04084
G1 X99.587 Y100.517 E.01355
G1 X100.179 Y99.992 E.04084
G1 X100.353 Y99.795 E.01355
G1 X100.803 Y99.144 E.04084
G1 X100.925 Y98.912 E.01355
G1 X101.205 Y98.172 E.04084
G1 X101.268 Y97.917 E.01355
G1 X101.364 Y96.869 E.05432
G1 X101.205 Y95.828 E.05432
G1 X100.803 Y94.856 E.05432
G1 X100.179 Y94.008 E.05432
G1 X99.587 Y93.483 E.04084
G1 X99.06 Y93.171 E.03161
G1 X120.94 Y93.171 E1.12936
G1 X120.413 Y93.483 E.03161
G1 X119.647 Y94.205 E.05432
G1 X119.188 Y94.914 E.04358
G1 X119.531 Y95.17 F9000
G1 F900
G1 X120.005 Y94.452 E.04442
G1 X120.702 Y93.81 E.04893
G1 X121.532 Y93.352 E.04892
G1 X122.452 Y93.122 E.04892
;WIDTH:0.469767
G1 X123.396 Y93.109 E.04535
;WIDTH:0.5
G1 X124.32 Y93.296 E.0487
G1 X125.168 Y93.72 E.04893
G1 X125.811 Y94.264 E.04345
G1 X125.995 Y94.452 E.01359
G1 X126.444 Y95.103 E.04084
G1 X126.797 Y95.983 E.04893
;WIDTH:0.49875
G1 X126.906 Y96.924 E.04877
;WIDTH:0.449448
G1 X126.909 Y97 E.00346
;WIDTH:0.471884
G1 X126.872 Y97.432 E.02094
;WIDTH:0.497312
G1 X126.834 Y97.864 E.02225
;WIDTH:0.5
G1 X126.517 Y98.757 E.04891
G1 X125.995 Y99.548 E.04892
G1 X125.298 Y100.19 E.04893
G1 X124.468 Y100.648 E.04892
G1 X123.552 Y100.893 E.04893
G1 X122.604 Y100.912 E.04893
G1 X121.68 Y100.704 E.04893
G1 X120.832 Y100.28 E.04893
G1 X120.11 Y99.666 E.04892
G1 X119.556 Y98.897 E.04893
G1 X119.202 Y98.017 E.04893
G1 X119.069 Y97.079 E.04893
G1 X119.164 Y96.136 E.04893
G1 X119.483 Y95.243 E.04893
G1 X119.509 Y95.203 E.00244
G1 X119.894 Y95.392 F9000
;TYPE:Outer wall
G1 F900
G1 X120.364 Y94.7 E.04318
G1 X120.991 Y94.136 E.04354
G1 X121.735 Y93.738 E.04354
G1 X122.552 Y93.53 E.04354
G1 X123.396 Y93.524 E.04354
G1 X124.216 Y93.719 E.04354
G1 X124.966 Y94.106 E.04354
G1 X125.636 Y94.7 E.04623
G1 X126.086 Y95.351 E.04084
G1 X126.391 Y96.137 E.04354
G1 X126.5 Y97 E.04489
G1 X126.403 Y97.812 E.0422
G1 X126.11 Y98.603 E.04354
G1 X125.636 Y99.3 E.04354
G1 X125.009 Y99.864 E.04354
G1 X124.265 Y100.262 E.04354
G1 X123.448 Y100.47 E.04354
G1 X122.604 Y100.476 E.04354
G1 X121.784 Y100.281 E.04354
G1 X121.034 Y99.894 E.04354
G1 X120.399 Y99.34 E.04353
G1 X119.914 Y98.649 E.04354
G1 X119.609 Y97.863 E.04354
G1 X119.501 Y97.026 E.04354
G1 X119.597 Y96.188 E.04354
G1 X119.878 Y95.428 E.04183
G1 E-3.5 F1800
;WIPE_START
G1 F900
G1 X120.156 Y95.012 E-1.5
;WIPE_END
G17
G3 Z.7 I-1.203 J.185 P1  F9000
G1 X125.06 Y126.829 Z.7
G1 Z.3
G1 E5 F1800
;TYPE:Inner wall
G1 F900
G1 X125.587 Y126.517 E.03161
G1 X126.353 Y125.795 E.05432
G1 X126.829 Y125.094 E.04372
G1 X126.829 Y126.829 E.08952
G1 X125.1 Y126.829 E.08923
G1 E-3.5 F1800
;WIPE_START
G1 F900
G1 X125.521 Y126.559 E-1.5
;WIPE_END
G17
G3 Z.7 I.211 J-1.198 P1  F9000
G1 X120.059 Y125.595 Z.7
G1 Z.3
G1 E5 F1800
G1 F900
G1 X119.556 Y124.897 E.04442
G1 X119.202 Y124.017 E.04892
G1 X119.069 Y123.079 E.04893
G1 X119.164 Y122.136 E.04893
G1 X119.483 Y121.243 E.04893
G1 X120.068 Y120.375 E.05401
G1 X120.702 Y119.81 E.04388
G1 X121.532 Y119.352 E.04893
G1 X122.448 Y119.107 E.04893
G1 X123.396 Y119.088 E.04893
G1 X124.32 Y119.296 E.04893
G1 X125.168 Y119.72 E.04893
G1 X125.89 Y120.334 E.04893
G1 X126.444 Y121.103 E.04893
G1 X126.797 Y121.983 E.04892
;WIDTH:0.49875
G1 X126.906 Y122.924 E.04877
;WIDTH:0.497312
G1 X126.834 Y123.864 E.04835
;WIDTH:0.5
G1 X126.517 Y124.757 E.04891
G1 X125.995 Y125.548 E.04893
G1 X125.298 Y126.19 E.04893
G1 X124.468 Y126.648 E.04892
G1 X123.548 Y126.878 E.04892
;WIDTH:0.469768
G1 X122.604 Y126.891 E.04535
;WIDTH:0.5
G1 X121.68 Y126.704 E.0487
G1 X120.832 Y126.28 E.04893
G1 X120.11 Y125.666 E.04893
G1 X120.082 Y125.627 E.00244
G1 X120.395 Y125.334 F9000
;TYPE:Outer wall
G1 F900
G1 X119.914 Y124.649 E.04318
G1 X119.609 Y123.863 E.04354
G1 X119.501 Y123.026 E.04354
G1 X119.597 Y122.188 E.04354
G1 X119.89 Y121.397 E.04354
G1 X120.385 Y120.674 E.04523
G1 X120.991 Y120.136 E.04185
G1 X121.735 Y119.738 E.04354
G1 X122.552 Y119.53 E.04354
G1 X123.396 Y119.524 E.04354
G1 X124.216 Y119.719 E.04354
G1 X124.966 Y120.106 E.04354
G1 X125.601 Y120.66 E.04354
G1 X126.086 Y121.351 E.04354
G1 X126.391 Y122.137 E.04354
G1 X126.499 Y122.974 E.04354
G1 X126.403 Y123.812 E.04354
G1 X126.11 Y124.603 E.04354
G1 X125.636 Y125.3 E.04354
G1 X125.009 Y125.864 E.04354
G1 X124.265 Y126.262 E.04354
G1 X123.448 Y126.47 E.04354
G1 X122.604 Y126.476 E.04354
G1 X121.784 Y126.281 E.04354
G1 X121.034 Y125.894 E.04354
G1 X120.424 Y125.361 E.04183
G1 E-3.5 F1800
;WIPE_START
G1 F900
G1 X120.133 Y124.955 E-1.5
;WIPE_END
G17
G3 Z.7 I-.09 J-1.214 P1  F9000
G1 X94.94 Y126.829 Z.7
G1 Z.3
G1 E5 F1800
;TYPE:Inner wall
G1 F900
G1 X93.171 Y126.829 E.0913
G1 X93.171 Y125.094 E.08952
M73 P0 R75
G1 X93.821 Y125.992 E.05718
G1 X94.413 Y126.517 E.04084
G1 X94.906 Y126.808 E.02954
G1 E-3.5 F1800
;WIPE_START
G1 F900
G1 X94.406 Y126.814 E-1.5
;WIPE_END
G17
G3 Z.7 I.614 J1.051 P1  F9000
G1 X100.922 Y123.008 Z.7
G1 Z.3
G1 E5 F1800
G1 F900
G1 X100.836 Y123.864 E.04442
G1 X100.517 Y124.757 E.04893
G1 X99.995 Y125.548 E.04893
G1 X99.298 Y126.19 E.04893
G1 X98.468 Y126.648 E.04892
G1 X97.548 Y126.878 E.04892
;WIDTH:0.469768
G1 X96.604 Y126.891 E.04535
;WIDTH:0.5
G1 X95.68 Y126.704 E.0487
G1 X94.832 Y126.28 E.04893
G1 X94.189 Y125.736 E.04345
G1 X94.005 Y125.548 E.01359
G1 X93.556 Y124.897 E.04084
;WIDTH:0.500407
G1 X93.202 Y124.017 E.04897
G1 X93.148 Y123.547 E.02448
;WIDTH:0.474927
G1 X93.094 Y123.076 E.02305
;WIDTH:0.49731
G1 X93.166 Y122.136 E.04835
;WIDTH:0.5
G1 X93.483 Y121.243 E.04891
G1 X94.005 Y120.452 E.04893
G1 X94.702 Y119.81 E.04893
G1 X95.532 Y119.352 E.04892
G1 X96.448 Y119.107 E.04893
G1 X97.396 Y119.088 E.04893
G1 X98.32 Y119.296 E.04893
G1 X99.168 Y119.72 E.04893
G1 X99.89 Y120.334 E.04893
G1 X100.444 Y121.103 E.04893
G1 X100.798 Y121.983 E.04892
G1 X100.931 Y122.921 E.04893
G1 X100.926 Y122.968 E.00244
G1 X100.497 Y122.989 F9000
;TYPE:Outer wall
G1 F900
G1 X100.403 Y123.812 E.04276
G1 X100.11 Y124.603 E.04354
G1 X99.636 Y125.3 E.04354
G1 X99.009 Y125.864 E.04354
G1 X98.265 Y126.262 E.04354
G1 X97.448 Y126.47 E.04354
G1 X96.604 Y126.476 E.04354
G1 X95.784 Y126.281 E.04354
G1 X95.034 Y125.894 E.04354
G1 X94.364 Y125.3 E.04623
G1 X93.914 Y124.649 E.04084
G1 X93.609 Y123.863 E.04354
G1 X93.501 Y123.026 E.04354
G1 X93.597 Y122.188 E.04354
G1 X93.89 Y121.397 E.04354
G1 X94.364 Y120.7 E.04354
G1 X94.991 Y120.136 E.04354
G1 X95.735 Y119.738 E.04354
G1 X96.552 Y119.53 E.04354
G1 X97.396 Y119.524 E.04354
G1 X98.216 Y119.719 E.04354
G1 X98.966 Y120.106 E.04354
G1 X99.601 Y120.66 E.04354
G1 X100.086 Y121.351 E.04354
G1 X100.391 Y122.137 E.04354
G1 X100.495 Y122.949 E.04225
G1 E-3.5 F1800
;WIPE_START
G1 F900
G1 X100.442 Y123.446 E-1.5
;WIPE_END
G17
G3 Z.7 I1.197 J-.218 P1  F9000
G1 X94.94 Y93.171 Z.7
G1 Z.3
G1 E5 F1800
;TYPE:Inner wall
G1 F900
G1 X94.413 Y93.483 E.03161
G1 X93.647 Y94.205 E.05432
G1 X93.171 Y94.906 E.04372
G1 X93.171 Y93.171 E.08952
G1 X94.9 Y93.171 E.08923
G1 E-3.5 F1800
;WIPE_START
G1 F900
G1 X94.479 Y93.441 E-1.5
;WIPE_END
G17
G3 Z.7 I-.211 J1.198 P1  F9000
G1 X99.941 Y94.405 Z.7
G1 Z.3
G1 E5 F1800
G1 F900
G1 X100.444 Y95.103 E.04442
G1 X100.798 Y95.983 E.04893
G1 X100.931 Y96.921 E.04893
G1 X100.836 Y97.864 E.04893
G1 X100.517 Y98.757 E.04893
G1 X99.974 Y99.577 E.05077
G1 X99.298 Y100.19 E.04712
G1 X98.468 Y100.648 E.04892
G1 X97.552 Y100.893 E.04893
G1 X96.604 Y100.912 E.04893
G1 X95.68 Y100.704 E.04893
G1 X94.832 Y100.28 E.04893
G1 X94.11 Y99.666 E.04893
G1 X93.556 Y98.897 E.04893
;WIDTH:0.500407
G1 X93.202 Y98.017 E.04897
G1 X93.148 Y97.547 E.02448
;WIDTH:0.474927
G1 X93.094 Y97.076 E.02305
;WIDTH:0.49731
G1 X93.166 Y96.136 E.04835
;WIDTH:0.5
G1 X93.483 Y95.243 E.04891
G1 X94.005 Y94.452 E.04892
G1 X94.702 Y93.81 E.04893
G1 X95.532 Y93.352 E.04892
G1 X96.452 Y93.122 E.04892
;WIDTH:0.469767
G1 X97.396 Y93.109 E.04535
;WIDTH:0.5
G1 X98.32 Y93.296 E.0487
G1 X99.168 Y93.72 E.04893
G1 X99.89 Y94.334 E.04893
G1 X99.918 Y94.373 E.00244
G1 X99.605 Y94.666 F9000
;TYPE:Outer wall
G1 F900
G1 X100.086 Y95.351 E.04318
G1 X100.391 Y96.137 E.04354
G1 X100.499 Y96.974 E.04354
G1 X100.403 Y97.812 E.04354
G1 X100.11 Y98.603 E.04354
G1 X99.629 Y99.31 E.04415
G1 X99.009 Y99.864 E.04293
G1 X98.265 Y100.262 E.04354
G1 X97.448 Y100.47 E.04354
G1 X96.604 Y100.476 E.04354
G1 X95.784 Y100.281 E.04354
G1 X95.034 Y99.894 E.04354
G1 X94.399 Y99.34 E.04354
G1 X93.914 Y98.649 E.04354
G1 X93.609 Y97.863 E.04354
G1 X93.501 Y97.026 E.04354
G1 X93.597 Y96.188 E.04354
G1 X93.89 Y95.397 E.04354
G1 X94.364 Y94.7 E.04354
G1 X94.991 Y94.136 E.04354
G1 X95.735 Y93.738 E.04354
G1 X96.552 Y93.53 E.04354
G1 X97.396 Y93.524 E.04354
G1 X98.216 Y93.719 E.04354
G1 X98.966 Y94.106 E.04354
G1 X99.576 Y94.639 E.04183
G1 E-3.5 F1800
;WIPE_START
G1 F900
G1 X99.867 Y95.045 E-1.5
;WIPE_END
G17
G3 Z.7 I.142 J1.209 P1  F9000
G1 X119.482 Y92.736 Z.7
G1 Z.3
G1 E5 F1800
;TYPE:Inner wall
G1 F900
G1 X121.612 Y92.736 E.10994
G1 X122.604 Y92.715 E.05126
;WIDTH:0.470654
G1 X123.597 Y92.721 E.04779
;WIDTH:0.5
G1 X126.39 Y92.736 E.14418
G1 X127.073 Y92.761 E.03524
G1 X127.216 Y92.88 E.00962
G1 X127.264 Y93.098 E.0115
G1 X127.266 Y96.11 E.15548
;WIDTH:0.497312
G1 X127.29 Y97.099 E.05076
;WIDTH:0.474927
G1 X127.277 Y97.601 E.02442
;WIDTH:0.500406
G1 X127.264 Y98.894 E.06682
;WIDTH:0.5
G1 X127.266 Y122.11 E1.19831
;WIDTH:0.497312
G1 X127.29 Y123.099 E.05076
;WIDTH:0.474927
G1 X127.277 Y123.601 E.02442
;WIDTH:0.500406
G1 X127.264 Y124.894 E.06682
;WIDTH:0.5
G1 X127.251 Y127.01 E.10922
G1 X127.155 Y127.194 E.01072
G1 X126.936 Y127.264 E.01186
G1 X124.388 Y127.264 E.1315
G1 X123.396 Y127.285 E.05126
;WIDTH:0.470654
G1 X122.403 Y127.279 E.04779
;WIDTH:0.5
G1 X121.612 Y127.264 E.04085
G1 X98.388 Y127.264 E1.19869
G1 X97.396 Y127.285 E.05125
;WIDTH:0.470654
G1 X96.403 Y127.279 E.04779
;WIDTH:0.5
G1 X92.99 Y127.251 E.17616
G1 X92.806 Y127.155 E.01072
G1 X92.736 Y126.936 E.01186
G1 X92.734 Y123.89 E.15722
;WIDTH:0.49731
G1 X92.71 Y122.901 E.05076
;WIDTH:0.498749
G1 X92.735 Y121.897 E.05168
;WIDTH:0.5
G1 X92.734 Y97.89 E1.23915
;WIDTH:0.49731
G1 X92.71 Y96.901 E.05076
;WIDTH:0.498749
G1 X92.735 Y95.897 E.05168
;WIDTH:0.5
G1 X92.749 Y92.99 E.15006
G1 X92.845 Y92.806 E.01072
G1 X93.064 Y92.736 E.01186
G1 X95.612 Y92.736 E.1315
G1 X96.604 Y92.715 E.05125
;WIDTH:0.470654
G1 X97.597 Y92.721 E.04779
;WIDTH:0.5
G1 X98.388 Y92.736 E.04085
G1 X119.442 Y92.736 E1.08669
G1 E-3.5 F1800
;WIPE_START
G1 F900
G1 X119.942 Y92.736 E-1.5
;WIPE_END
G17
G3 Z.7 I.032 J1.217 P1  F9000
G1 X127.516 Y92.538 Z.7
G1 Z.3
G1 E5 F1800
;TYPE:Outer wall
G1 F900
G1 X127.649 Y92.751 E.01296
M73 P1 R75
G1 X127.7 Y93.098 E.01809
G1 X127.7 Y126.902 E1.74488
G1 X127.65 Y127.244 E.01782
G1 X127.462 Y127.516 E.01706
G1 X127.249 Y127.649 E.01296
G1 X126.977 Y127.7 E.01431
G1 X93.098 Y127.7 E1.74871
G1 X92.756 Y127.65 E.01782
G1 X92.484 Y127.462 E.01706
G1 X92.351 Y127.249 E.01296
G1 X92.3 Y126.977 E.01431
G1 X92.3 Y93.098 E1.74871
G1 X92.35 Y92.756 E.01782
G1 X92.538 Y92.484 E.01706
G1 X92.751 Y92.351 E.01296
G1 X93.023 Y92.3 E.01431
G1 X126.902 Y92.3 E1.74871
G1 X127.244 Y92.35 E.01781
G1 X127.483 Y92.515 E.015
G1 X126.237 Y93.507 F9000
;TYPE:Bottom surface
;WIDTH:0.5
G1 F1200
G1 X126.182 Y93.562 E.00407
G1 E-3.5 F1800
;WIPE_START
G1 F1200
G1 X126.237 Y93.507 E-1.5
;WIPE_END
G17
G3 Z.7 I0 J-1.217 P1  F9000
G1 X118.033 Y93.507 Z.7
G1 Z.3
G1 E5 F1800
G1 F1200
G1 X118.201 Y93.674 E.01225
G1 X118.369 Y93.507 E.01225
G1 X119.265 Y93.507 F9000
G1 F1200
G1 X119.433 Y93.674 E.01225
G1 X119.125 Y93.982 E.02249
G1 X118.817 Y93.674 E.02248
G1 X118.509 Y93.982 E.02248
G1 X119.032 Y94.505 E.03816
G1 X118.625 Y95.33 F9000
G1 F1200
G1 X118.509 Y95.215 E.00845
G1 X118.768 Y94.956 E.0189
G1 X118.802 Y94.891 F9000
G1 F1200
G1 X118.201 Y94.291 E.04385
G1 X117.893 Y94.599 E.02248
G1 X118.201 Y94.907 E.02248
G1 X117.893 Y95.215 E.02249
G1 X117.585 Y94.907 E.02248
G1 X117.277 Y95.215 E.02249
G1 X117.893 Y95.831 E.04497
G1 X118.201 Y95.523 E.02248
G1 X118.462 Y95.784 E.01905
G1 X118.431 Y95.909 F9000
G1 F1200
G1 X118.201 Y96.139 E.0168
G1 X118.367 Y96.305 E.01212
G1 X118.303 Y96.856 F9000
G1 F1200
G1 X118.201 Y96.755 E.00742
G1 X117.893 Y97.063 E.02248
