; HEADER_BLOCK_START
; generated by OrcaSlicer 1.7.0 on 2023-11-05 at 13:54:37
; total layer number: 209
; HEADER_BLOCK_END

; THUMBNAIL_BLOCK_START
; THUMBNAIL_BLOCK_END

; external perimeters extrusion width = 0.40mm
; perimeters extrusion width = 0.45mm
; infill extrusion width = 0.45mm
; solid infill extrusion width = 0.40mm
; top infill extrusion width = 0.40mm
; first layer extrusion width = 0.50mm

; EXECUTABLE_BLOCK_START
EXCLUDE_OBJECT_DEFINE NAME=c270ender3cammount.stl_id_0_copy_0 CENTER=123.709,113.999 POLYGON=[[83.6852,111.873],[89.6435,99.9485],[96.1614,92.967],[99.1975,89.7151],[159.97,90.4504],[163.625,92.0756],[163.733,96.14],[163.709,96.1945],[163.638,96.3542],[150.61,125.651],[149.81,127.45],[149.715,127.664],[143.078,138.283],[83.6852,111.873],[83.6852,111.873]]
M73 P0 R93
;TYPE:Custom
START_PRINT EXTRUDER_TEMP=240  BED_TEMP=80
G90
G21
M83 ; use relative distances for extrusion
; filament start gcode
M106 S0
;LAYER_CHANGE
;Z:0.2
;HEIGHT:0.2
;BEFORE_LAYER_CHANGE
;0.2
G92 E0

G1 E-5 F3600
;_SET_FAN_SPEED_CHANGING_LAYER
SET_VELOCITY_LIMIT ACCEL=500 ACCEL_TO_DECEL=250
G1 Z.4 F12000
G1 X84.766 Y80.71
G1 Z.4
G1 Z.2
G1 E5 F2400
;TYPE:Skirt
;WIDTH:0.5
G1 F900
G1 X87.118 Y78.358 E.12643
G1 X87.949 Y77.72 E.03982
G1 X90.83 Y76.057 E.12643
G1 X91.798 Y75.656 E.03982
G1 X95.011 Y74.795 E.12643
G1 X96.05 Y74.658 E.03982
G1 X98.351 Y74.565 E.08753
G1 X158.879 Y77.599 E2.30333
G1 X160.943 Y77.829 E.07893
G1 X164.156 Y78.69 E.12643
G1 X169.413 Y81.107 E.21991
G1 X171.711 Y82.511 E.10233
G1 X172.542 Y83.149 E.03982
G1 X174.894 Y85.501 E.12643
G1 X175.532 Y86.333 E.03982
G1 X177.195 Y89.213 E.12643
G1 X177.596 Y90.181 E.03982
G1 X178.457 Y93.394 E.12643
G1 X178.594 Y94.433 E.03982
G1 X178.594 Y97.76 E.12643
G1 X178.457 Y98.799 E.03982
G1 X177.596 Y102.012 E.12643
G1 X177.195 Y102.98 E.03982
G1 X158.288 Y145.508 E1.76887
G1 X156.755 Y148.088 E.11407
G1 X156.117 Y148.919 E.03982
G1 X153.765 Y151.271 E.12643
G1 X152.933 Y151.909 E.03982
G1 X150.052 Y153.572 E.12643
G1 X149.084 Y153.973 E.03982
G1 X145.871 Y154.834 E.12643
G1 X144.832 Y154.971 E.03982
G1 X141.506 Y154.971 E.12643
G1 X140.467 Y154.834 E.03982
G1 X137.254 Y153.973 E.12643
G1 X136.286 Y153.572 E.03982
G1 X114.908 Y144.18 E.88744
G1 X76.389 Y127 E1.60299
G1 X73.822 Y125.472 E.11353
G1 X72.991 Y124.834 E.03982
G1 X70.639 Y122.482 E.12643
G1 X70.001 Y121.651 E.03982
G1 X68.338 Y118.77 E.12643
G1 X67.937 Y117.802 E.03982
G1 X67.076 Y114.589 E.12643
G1 X66.939 Y113.55 E.03982
G1 X66.939 Y110.224 E.12643
G1 X67.076 Y109.185 E.03982
G1 X67.937 Y105.972 E.12643
G1 X68.338 Y105.004 E.03982
G1 X69.604 Y102.669 E.10095
G1 X83.731 Y82.087 E.94877
G1 X84.742 Y80.742 E.06395
G1 X85.107 Y81.016 F12000
G1 F900
G1 X85.128 Y80.988 E.00134
G1 X87.396 Y78.72 E.12189
G1 X88.227 Y78.082 E.03982
G1 X91.005 Y76.479 E.12189
G1 X91.973 Y76.078 E.03982
G1 X95.071 Y75.248 E.12189
G1 X96.11 Y75.111 E.03982
G1 X98.328 Y75.021 E.08439
G1 X158.856 Y78.056 E2.30333
G1 X160.883 Y78.282 E.07753
G1 X163.981 Y79.112 E.12189
G1 X169.217 Y81.52 E.21904
G1 X171.432 Y82.874 E.09866
G1 X172.264 Y83.512 E.03982
G1 X174.531 Y85.78 E.12189
G1 X175.169 Y86.611 E.03982
G1 X176.773 Y89.388 E.12189
G1 X177.174 Y90.356 E.03982
G1 X178.004 Y93.454 E.12189
G1 X178.141 Y94.493 E.03982
G1 X178.141 Y97.7 E.12189
G1 X178.004 Y98.739 E.03982
G1 X177.174 Y101.837 E.12189
G1 X176.773 Y102.805 E.03982
G1 X157.871 Y145.322 E1.76843
G1 X156.392 Y147.809 E.10998
G1 X155.754 Y148.641 E.03982
G1 X153.486 Y150.908 E.12189
G1 X152.655 Y151.546 E.03982
G1 X149.878 Y153.15 E.12189
G1 X148.909 Y153.551 E.03982
G1 X145.812 Y154.381 E.12189
G1 X144.773 Y154.518 E.03982
G1 X141.566 Y154.518 E.12189
G1 X140.527 Y154.381 E.03982
G1 X137.429 Y153.551 E.12189
G1 X136.461 Y153.15 E.03982
G1 X115.095 Y143.763 E.88698
G1 X76.575 Y126.583 E1.60299
G1 X74.1 Y125.109 E.10946
G1 X73.269 Y124.472 E.03982
G1 X71.001 Y122.204 E.12189
G1 X70.364 Y121.373 E.03982
G1 X68.76 Y118.595 E.12189
G1 X68.359 Y117.627 E.03982
G1 X67.529 Y114.529 E.12189
G1 X67.392 Y113.49 E.03982
G1 X67.392 Y110.283 E.12189
G1 X67.529 Y109.244 E.03982
G1 X68.359 Y106.147 E.12189
G1 X68.76 Y105.178 E.03982
G1 X69.981 Y102.928 E.09733
G1 X84.108 Y82.346 E.94877
G1 X85.083 Y81.048 E.06168
G1 X85.448 Y81.323 F12000
G1 F900
G1 X85.491 Y81.266 E.00269
G1 X87.674 Y79.083 E.11736
G1 X88.506 Y78.445 E.03982
G1 X91.18 Y76.901 E.11736
G1 X92.148 Y76.5 E.03982
G1 X95.13 Y75.701 E.11736
G1 X96.169 Y75.564 E.03982
G1 X98.305 Y75.478 E.08125
G1 X158.833 Y78.512 E2.30333
G1 X160.824 Y78.735 E.07613
G1 X163.806 Y79.534 E.11736
G1 X169.022 Y81.933 E.21817
G1 X171.154 Y83.237 E.09499
G1 X171.985 Y83.874 E.03982
G1 X174.169 Y86.058 E.11736
G1 X174.807 Y86.889 E.03982
G1 X176.351 Y89.563 E.11736
G1 X176.751 Y90.531 E.03982
G1 X177.551 Y93.514 E.11736
G1 X177.687 Y94.553 E.03982
G1 X177.687 Y97.64 E.11736
G1 X177.551 Y98.679 E.03982
G1 X176.751 Y101.662 E.11736
G1 X176.351 Y102.63 E.03982
G1 X157.453 Y145.137 E1.76798
G1 X156.029 Y147.531 E.10588
G1 X155.391 Y148.362 E.03982
G1 X153.208 Y150.546 E.11736
G1 X152.377 Y151.184 E.03982
G1 X149.703 Y152.728 E.11736
G1 X148.735 Y153.129 E.03982
G1 X145.752 Y153.928 E.11736
G1 X144.713 Y154.065 E.03982
G1 X141.625 Y154.065 E.11736
G1 X140.587 Y153.928 E.03982
G1 X137.604 Y153.129 E.11736
M73 P0 R92
G1 X136.636 Y152.728 E.03982
G1 X115.281 Y143.345 E.88651
G1 X76.761 Y126.165 E1.60299
M73 P1 R92
G1 X74.379 Y124.747 E.10539
G1 X73.547 Y124.109 E.03982
G1 X71.364 Y121.926 E.11736
G1 X70.726 Y121.094 E.03982
G1 X69.182 Y118.42 E.11736
G1 X68.781 Y117.452 E.03982
G1 X67.982 Y114.47 E.11736
G1 X67.845 Y113.431 E.03982
G1 X67.845 Y110.343 E.11736
G1 X67.982 Y109.304 E.03982
G1 X68.781 Y106.321 E.11736
G1 X69.182 Y105.353 E.03982
G1 X70.358 Y103.186 E.09371
G1 X84.485 Y82.605 E.94877
G1 X85.424 Y81.355 E.05942
G1 X85.79 Y81.63 F12000
G1 F900
G1 X85.854 Y81.545 E.00404
G1 X87.953 Y79.446 E.11282
G1 X88.784 Y78.808 E.03982
G1 X91.355 Y77.323 E.11282
G1 X92.323 Y76.922 E.03982
G1 X95.19 Y76.154 E.11282
G1 X96.229 Y76.017 E.03982
G1 X98.282 Y75.934 E.07811
G1 X158.81 Y78.969 E2.30333
G1 X160.764 Y79.188 E.07472
G1 X163.631 Y79.957 E.11282
G1 X168.826 Y82.346 E.2173
G1 X170.876 Y83.599 E.09132
G1 X171.707 Y84.237 E.03982
G1 X173.806 Y86.336 E.11282
G1 X174.444 Y87.167 E.03982
G1 X175.928 Y89.738 E.11282
G1 X176.329 Y90.706 E.03982
G1 X177.097 Y93.573 E.11282
G1 X177.234 Y94.612 E.03982
G1 X177.234 Y97.581 E.11282
G1 X177.097 Y98.62 E.03982
G1 X176.329 Y101.487 E.11282
G1 X175.928 Y102.455 E.03982
G1 X157.036 Y144.951 E1.76753
G1 X155.667 Y147.253 E.10179
G1 X155.029 Y148.084 E.03982
G1 X152.93 Y150.183 E.11282
G1 X152.098 Y150.821 E.03982
G1 X149.528 Y152.305 E.11282
G1 X148.56 Y152.706 E.03982
G1 X145.692 Y153.475 E.11282
G1 X144.653 Y153.611 E.03982
G1 X141.685 Y153.611 E.11282
G1 X140.646 Y153.475 E.03982
G1 X137.779 Y152.706 E.11282
G1 X136.811 Y152.305 E.03982
G1 X115.467 Y142.928 E.88605
G1 X76.948 Y125.748 E1.60299
G1 X74.657 Y124.384 E.10132
G1 X73.826 Y123.746 E.03982
G1 X71.727 Y121.647 E.11282
G1 X71.089 Y120.816 E.03982
G1 X69.605 Y118.245 E.11282
G1 X69.204 Y117.277 E.03982
G1 X68.435 Y114.41 E.11282
G1 X68.299 Y113.371 E.03982
G1 X68.299 Y110.403 E.11282
G1 X68.435 Y109.364 E.03982
G1 X69.204 Y106.496 E.11282
G1 X69.605 Y105.528 E.03982
G1 X70.735 Y103.445 E.09009
G1 X84.862 Y82.863 E.94877
G1 X85.766 Y81.662 E.05714
G1 X86.131 Y81.936 F12000
G1 F900
G1 X86.216 Y81.823 E.0054
G1 X88.231 Y79.808 E.10829
G1 X89.062 Y79.17 E.03982
G1 X91.53 Y77.746 E.10829
G1 X92.498 Y77.345 E.03982
G1 X95.25 Y76.607 E.10829
G1 X96.288 Y76.471 E.03982
G1 X98.26 Y76.391 E.07497
G1 X158.787 Y79.425 E2.30333
G1 X160.704 Y79.642 E.07332
G1 X163.456 Y80.379 E.10829
G1 X168.63 Y82.759 E.21643
G1 X170.598 Y83.962 E.08765
G1 X171.429 Y84.6 E.03982
G1 X173.443 Y86.614 E.10829
G1 X174.081 Y87.446 E.03982
G1 X175.506 Y89.913 E.10829
G1 X175.907 Y90.881 E.03982
G1 X176.644 Y93.633 E.10829
G1 X176.781 Y94.672 E.03982
G1 X176.781 Y97.521 E.10829
G1 X176.644 Y98.56 E.03982
G1 X175.907 Y101.312 E.10829
G1 X175.506 Y102.28 E.03982
G1 X156.618 Y144.765 E1.76709
G1 X155.304 Y146.975 E.0977
G1 X154.666 Y147.806 E.03982
G1 X152.652 Y149.821 E.10829
G1 X151.82 Y150.458 E.03982
G1 X149.353 Y151.883 E.10829
G1 X148.385 Y152.284 E.03982
G1 X145.633 Y153.021 E.10829
G1 X144.594 Y153.158 E.03982
G1 X141.745 Y153.158 E.10829
G1 X140.706 Y153.021 E.03982
G1 X137.954 Y152.284 E.10829
G1 X136.986 Y151.883 E.03982
G1 X115.653 Y142.51 E.88558
G1 X77.134 Y125.33 E1.60299
G1 X74.935 Y124.022 E.09724
G1 X74.104 Y123.384 E.03982
G1 X72.089 Y121.369 E.10829
G1 X71.451 Y120.538 E.03982
G1 X70.027 Y118.07 E.10829
G1 X69.626 Y117.102 E.03982
G1 X68.888 Y114.35 E.10829
G1 X68.752 Y113.311 E.03982
G1 X68.752 Y110.462 E.10829
G1 X68.888 Y109.423 E.03982
G1 X69.626 Y106.671 E.10829
G1 X70.027 Y105.703 E.03982
G1 X71.112 Y103.704 E.08647
G1 X85.239 Y83.122 E.94877
G1 X86.107 Y81.968 E.05487
G1 X86.468 Y82.246 F12000
G1 F900
G1 X86.579 Y82.101 E.00692
G1 X88.509 Y80.171 E.10375
G1 X89.34 Y79.533 E.03982
G1 X91.704 Y78.168 E.10375
G1 X92.673 Y77.767 E.03982
G1 X95.309 Y77.06 E.10375
G1 X96.348 Y76.924 E.03982
G1 X98.237 Y76.847 E.07183
G1 X158.764 Y79.882 E2.30333
G1 X160.645 Y80.095 E.07192
G1 X163.281 Y80.801 E.10375
G1 X168.434 Y83.172 E.21556
G1 X170.319 Y84.324 E.08398
G1 X171.151 Y84.962 E.03982
G1 X173.081 Y86.893 E.10375
G1 X173.719 Y87.724 E.03982
G1 X175.084 Y90.088 E.10375
G1 X175.485 Y91.056 E.03982
G1 X176.191 Y93.693 E.10375
G1 X176.328 Y94.732 E.03982
G1 X176.328 Y97.461 E.10375
G1 X176.191 Y98.5 E.03982
G1 X175.485 Y101.137 E.10375
G1 X174.978 Y102.352 E.05004
G1 X156.2 Y144.579 E1.75642
G1 X154.941 Y146.696 E.09361
G1 X154.304 Y147.528 E.03982
G1 X152.373 Y149.458 E.10375
G1 X151.542 Y150.096 E.03982
G1 X149.178 Y151.461 E.10375
G1 X148.21 Y151.862 E.03982
G1 X145.573 Y152.568 E.10375
M73 P2 R92
G1 X144.534 Y152.705 E.03982
G1 X141.804 Y152.705 E.10375
G1 X140.766 Y152.568 E.03982
G1 X138.129 Y151.862 E.10375
G1 X137.161 Y151.461 E.03982
G1 X115.839 Y142.093 E.88511
M73 P2 R91
G1 X77.32 Y124.913 E1.60299
G1 X75.213 Y123.659 E.09317
G1 X74.382 Y123.021 E.03982
G1 X72.452 Y121.091 E.10375
G1 X71.814 Y120.259 E.03982
G1 X70.449 Y117.895 E.10375
G1 X70.048 Y116.927 E.03982
G1 X69.342 Y114.291 E.10375
G1 X69.205 Y113.252 E.03982
G1 X69.205 Y110.522 E.10375
G1 X69.342 Y109.483 E.03982
G1 X70.048 Y106.846 E.10375
G1 X70.449 Y105.878 E.03982
G1 X71.489 Y103.962 E.08284
G1 X85.941 Y82.932 E.96981
G1 X86.444 Y82.277 E.03138
; printing object c270ender3cammount.stl id:0 copy 0
G1 E-3.5 F3600
;WIPE_START
G1 F900
G1 X86.579 Y82.101 E-.33315
G1 X87.129 Y81.551 E-1.16685
;WIPE_END
EXCLUDE_OBJECT_START NAME=c270ender3cammount.stl_id_0_copy_0
G1 Z.6 F12000
G1 X154.587 Y93.36 Z.6
G1 Z.2
G1 E5 F2400
;TYPE:Brim
G1 F900
G1 X154.965 Y92.448 E.03754
G1 X155.566 Y91.664 E.03754
G1 X156.349 Y91.063 E.03754
G1 X157.262 Y90.685 E.03754
G1 X158.241 Y90.556 E.03754
G1 X159.22 Y90.685 E.03754
G1 X160.133 Y91.063 E.03754
G1 X160.916 Y91.664 E.03754
G1 X161.383 Y92.272 E.02913
G1 X161.507 Y92.355 E.00567
G1 X161.594 Y92.36 E.0033
G1 X161.947 Y92.313 E.01352
G1 X162.926 Y92.442 E.03754
G1 X163.838 Y92.82 E.03754
G1 X164.622 Y93.421 E.03754
G1 X165.223 Y94.205 E.03754
G1 X165.601 Y95.117 E.03754
G1 X165.73 Y96.097 E.03754
G1 X165.601 Y97.076 E.03754
G1 X165.223 Y97.988 E.03754
G1 X164.622 Y98.772 E.03754
G1 X163.838 Y99.373 E.03754
G1 X162.926 Y99.751 E.03754
G1 X161.947 Y99.88 E.03754
G1 X160.967 Y99.751 E.03754
G1 X160.633 Y99.612 E.01375
G1 X162.155 Y96.189 E.14238
G1 X162.181 Y96.073 E.00451
G1 X162.137 Y95.904 E.00665
G1 X162.078 Y95.827 E.00368
G1 X161.989 Y95.756 E.00434
G1 X158.334 Y94.13 E.15203
G1 X158.218 Y94.105 E.00451
G1 X158.048 Y94.149 E.00665
G1 X157.971 Y94.208 E.00368
G1 X157.9 Y94.297 E.00434
G1 X156.413 Y97.642 E.13912
G1 X156.349 Y97.616 E.00261
G1 X155.566 Y97.014 E.03754
G1 X154.965 Y96.231 E.03754
G1 X154.587 Y95.318 E.03754
G1 X154.458 Y94.339 E.03754
G1 X154.581 Y93.4 E.03602
G1 X155.039 Y93.463 F12000
G1 F900
G1 X155.375 Y92.664 E.03294
G1 X155.906 Y91.979 E.03294
G1 X156.596 Y91.455 E.03294
G1 X157.399 Y91.128 E.03294
G1 X158.223 Y91.019 E.03159
G1 X159.083 Y91.128 E.03294
G1 X159.916 Y91.473 E.03429
G1 X160.576 Y91.979 E.03159
G1 X161.013 Y92.541 E.02708
G1 X161.24 Y92.726 E.01111
G1 X161.494 Y92.811 E.01017
G1 X161.663 Y92.812 E.00642
G1 X161.964 Y92.777 E.01154
G1 X162.789 Y92.885 E.03159
G1 X163.622 Y93.23 E.03429
G1 X164.307 Y93.762 E.03294
G1 X164.831 Y94.452 E.03294
G1 X165.158 Y95.255 E.03294
G1 X165.266 Y96.079 E.03159
G1 X165.149 Y96.973 E.03429
G1 X164.813 Y97.772 E.03294
G1 X164.307 Y98.431 E.03159
G1 X163.591 Y98.981 E.03429
G1 X162.789 Y99.308 E.03294
G1 X161.929 Y99.416 E.03294
G1 X161.442 Y99.352 E.01866
G1 X161.345 Y99.291 E.00435
G1 X161.334 Y99.161 E.00497
G1 X162.605 Y96.273 E.11993
G1 X162.624 Y96.186 E.00338
G1 X162.619 Y95.943 E.00924
G1 X162.582 Y95.802 E.00552
G1 X162.495 Y95.622 E.00758
G1 X162.356 Y95.465 E.00799
G1 X162.163 Y95.333 E.00889
G1 X158.529 Y93.717 E.15115
G1 X158.327 Y93.662 E.00797
G1 X158.087 Y93.667 E.00911
G1 X157.946 Y93.704 E.00552
G1 X157.706 Y93.835 E.01044
G1 X157.545 Y94.01 E.00902
G1 X157.479 Y94.119 E.00484
G1 X156.294 Y96.784 E.11083
G1 X156.208 Y96.859 E.00435
G1 X156.085 Y96.837 E.00475
G1 X155.881 Y96.674 E.00994
G1 X155.357 Y95.984 E.03294
G1 X155.03 Y95.181 E.03294
G1 X154.921 Y94.321 E.03294
G1 X155.033 Y93.502 E.03142
G1 X155.49 Y93.568 F12000
G1 F900
G1 X155.784 Y92.882 E.02834
G1 X156.245 Y92.296 E.02834
G1 X156.842 Y91.849 E.02834
G1 X157.535 Y91.571 E.02838
G1 X158.242 Y91.483 E.02709
G1 X158.946 Y91.571 E.02699
G1 X159.7 Y91.883 E.031
G1 X160.237 Y92.295 E.02572
G1 X160.731 Y92.901 E.02971
G1 X160.942 Y93.073 E.01034
G1 X161.107 Y93.163 E.00715
G1 X161.339 Y93.241 E.00929
G1 X161.497 Y93.267 E.0061
G1 X161.978 Y93.239 E.01829
G1 X162.651 Y93.328 E.02582
G1 X163.373 Y93.622 E.02963
G1 X163.965 Y94.075 E.02831
G1 X164.419 Y94.666 E.02834
G1 X164.715 Y95.39 E.02972
G1 X164.803 Y96.097 E.02705
G1 X164.706 Y96.834 E.02828
G1 X164.403 Y97.554 E.02969
G1 X163.966 Y98.116 E.02705
G1 X163.376 Y98.569 E.02828
G1 X162.688 Y98.855 E.02831
G1 X162.164 Y98.926 E.02011
G1 X162.055 Y98.892 E.00435
G1 X162.021 Y98.735 E.00608
G1 X163.053 Y96.361 E.0984
G1 X163.08 Y96.168 E.00739
G1 X163.058 Y95.818 E.01334
G1 X162.99 Y95.598 E.00876
G1 X162.83 Y95.312 E.01245
G1 X162.604 Y95.081 E.01226
G1 X162.339 Y94.911 E.01198
G1 X158.723 Y93.303 E.15042
G1 X158.454 Y93.223 E.01065
G1 X158.31 Y93.206 E.00551
G1 X157.964 Y93.228 E.0132
G1 X157.716 Y93.309 E.00991
G1 X157.496 Y93.429 E.00953
G1 X157.363 Y93.533 E.00641
G1 X157.149 Y93.782 E.01247
G1 X157.058 Y93.94 E.00693
G1 X156.163 Y95.954 E.08375
G1 X156.077 Y96.029 E.00435
G1 X155.928 Y95.981 E.00594
G1 X155.768 Y95.77 E.01007
G1 X155.482 Y95.081 E.02834
G1 X155.384 Y94.342 E.02834
G1 X155.485 Y93.607 E.02817
G1 E-3.5 F3600
;WIPE_START
G1 F900
G1 X155.784 Y92.882 E-1.17653
G1 X155.917 Y92.713 E-.32347
;WIPE_END
G1 Z.6 F12000
G1 X161.294 Y93.894 Z.6
G1 Z.2
G1 E5 F2400
G1 F900
G1 X161.31 Y93.781 E.00435
G1 X161.421 Y93.718 E.00484
G1 X161.974 Y93.7 E.02102
G1 X162.55 Y93.78 E.0221
G1 X163.127 Y94.015 E.0237
G1 X163.625 Y94.39 E.02368
G1 X164.026 Y94.913 E.02505
G1 X164.271 Y95.525 E.02505
G1 X164.34 Y96.112 E.02248
G1 X164.263 Y96.696 E.02235
G1 X164.012 Y97.305 E.02504
G1 X163.628 Y97.8 E.02384
G1 X163.16 Y98.159 E.02242
G1 X162.995 Y98.233 E.00686
G1 X162.88 Y98.229 E.00435
G1 X162.809 Y98.139 E.00435
G1 X162.816 Y98.051 E.00334
G1 X163.468 Y96.551 E.06216
G1 X163.506 Y96.419 E.00523
G1 X163.536 Y96.128 E.01111
G1 X163.515 Y95.802 E.01241
G1 X163.43 Y95.473 E.01294
G1 X163.232 Y95.094 E.01623
G1 X163.152 Y94.988 E.00507
G1 X162.841 Y94.69 E.01634
G1 X162.516 Y94.49 E.01451
G1 X161.37 Y93.98 E.04768
G1 X161.321 Y93.924 E.00283
G1 X160.49 Y93.5 F12000
G1 F900
G1 X160.487 Y93.507 E.00027
G1 X160.346 Y93.524 E.00539
G1 X158.916 Y92.889 E.05948
G1 X158.595 Y92.788 E.01279
G1 X158.269 Y92.75 E.01246
G1 X157.815 Y92.796 E.01734
G1 X157.488 Y92.912 E.0132
G1 X157.209 Y93.074 E.01227
