; HEADER_BLOCK_START
; generated by OrcaSlicer 1.7.0 on 2023-11-05 at 11:57:51
; total layer number: 209
; HEADER_BLOCK_END

; THUMBNAIL_BLOCK_START
; THUMBNAIL_BLOCK_END

; external perimeters extrusion width = 0.40mm
; perimeters extrusion width = 0.45mm
; infill extrusion width = 0.45mm
; solid infill extrusion width = 0.40mm
; top infill extrusion width = 0.40mm
; first layer extrusion width = 0.50mm

; EXECUTABLE_BLOCK_START
EXCLUDE_OBJECT_DEFINE NAME=c270ender3cammount.stl_id_0_copy_0 CENTER=118.012,102.685 POLYGON=[[85.2842,112.584],[88.7235,100.542],[88.7477,100.488],[88.8188,100.328],[102.214,70.2037],[102.646,69.2328],[102.741,69.0185],[105.831,66.3763],[109.486,68.0015],[150.739,112.634],[150.358,117.067],[149.54,126.583],[144.677,138.994],[144.677,138.994],[108.957,123.11],[85.2842,112.584],[85.2842,112.584]]
M73 P0 R91
;TYPE:Custom
START_PRINT EXTRUDER_TEMP=240  BED_TEMP=80
G90
G21
M83 ; use relative distances for extrusion
; filament start gcode
M106 S0
;LAYER_CHANGE
;Z:0.2
;HEIGHT:0.2
;BEFORE_LAYER_CHANGE
;0.2
G92 E0

G1 E-5 F3600
;_SET_FAN_SPEED_CHANGING_LAYER
SET_VELOCITY_LIMIT ACCEL=500 ACCEL_TO_DECEL=250
G1 Z.4 F9000
G1 X90.517 Y60.501
G1 Z.4
G1 Z.2
G1 E5 F2400
;TYPE:Skirt
;WIDTH:0.5
G1 F900
G1 X91.155 Y59.67 E.03982
G1 X93.507 Y57.318 E.12643
G1 X94.338 Y56.68 E.03982
G1 X97.219 Y55.017 E.12643
G1 X98.187 Y54.616 E.03982
G1 X101.4 Y53.755 E.12643
G1 X102.439 Y53.618 E.03982
G1 X105.765 Y53.618 E.12643
G1 X106.804 Y53.755 E.03982
G1 X110.017 Y54.616 E.12643
G1 X115.274 Y57.033 E.21991
G1 X117.572 Y58.437 E.10233
G1 X119.657 Y60.175 E.10316
G1 X162.482 Y103.008 E2.30202
G1 X164.218 Y105.091 E.10308
G1 X165.882 Y107.972 E.12643
G1 X166.283 Y108.94 E.03982
G1 X167.144 Y112.153 E.12643
G1 X167.28 Y113.192 E.03982
G1 X167.28 Y116.519 E.12643
G1 X167.144 Y117.557 E.03982
G1 X166.887 Y118.926 E.05293
G1 X160.949 Y143.163 E.9484
G1 X160.345 Y145.008 E.07376
G1 X159.944 Y145.976 E.03982
G1 X158.281 Y148.856 E.12643
G1 X157.643 Y149.688 E.03982
G1 X155.291 Y152.04 E.12643
G1 X154.459 Y152.678 E.03982
G1 X151.579 Y154.341 E.12643
G1 X150.611 Y154.742 E.03982
G1 X147.398 Y155.603 E.12643
G1 X146.359 Y155.74 E.03982
G1 X143.032 Y155.74 E.12643
G1 X141.993 Y155.603 E.03982
G1 X138.78 Y154.742 E.12643
G1 X137.812 Y154.341 E.03982
G1 X77.985 Y127.71 E2.48891
G1 X75.421 Y126.183 E.11341
G1 X74.59 Y125.545 E.03982
G1 X72.238 Y123.193 E.12643
G1 X71.6 Y122.362 E.03982
G1 X69.937 Y119.481 E.12643
G1 X69.536 Y118.513 E.03982
G1 X68.675 Y115.3 E.12643
G1 X68.538 Y114.261 E.03982
G1 X68.538 Y110.935 E.12643
G1 X68.675 Y109.896 E.03982
G1 X69.536 Y106.683 E.12643
G1 X88.992 Y63.06 E1.81538
G1 X90.496 Y60.536 E.11167
G1 X90.88 Y60.78 F9000
G1 F900
G1 X91.517 Y59.948 E.03982
G1 X93.785 Y57.68 E.12189
G1 X94.616 Y57.043 E.03982
G1 X97.394 Y55.439 E.12189
G1 X98.362 Y55.038 E.03982
G1 X101.46 Y54.208 E.12189
G1 X102.499 Y54.071 E.03982
G1 X105.706 Y54.071 E.12189
G1 X106.745 Y54.208 E.03982
G1 X109.842 Y55.038 E.12189
G1 X115.079 Y57.446 E.21904
G1 X117.294 Y58.8 E.09866
G1 X119.334 Y60.498 E.10089
G1 X162.159 Y103.331 E2.30202
G1 X163.856 Y105.37 E.10081
G1 X165.459 Y108.147 E.12189
G1 X165.86 Y109.115 E.03982
G1 X166.69 Y112.213 E.12189
G1 X166.827 Y113.252 E.03982
G1 X166.827 Y116.459 E.12189
G1 X166.69 Y117.498 E.03982
G1 X166.443 Y118.818 E.05103
G1 X160.505 Y143.054 E.9484
G1 X159.923 Y144.833 E.07111
G1 X159.522 Y145.801 E.03982
G1 X157.918 Y148.578 E.12189
G1 X157.28 Y149.409 E.03982
G1 X155.012 Y151.677 E.12189
G1 X154.181 Y152.315 E.03982
G1 X151.404 Y153.919 E.12189
G1 X150.436 Y154.32 E.03982
G1 X147.338 Y155.15 E.12189
G1 X146.299 Y155.286 E.03982
G1 X143.092 Y155.286 E.12189
G1 X142.053 Y155.15 E.03982
G1 X138.955 Y154.32 E.12189
G1 X137.987 Y153.919 E.03982
G1 X78.171 Y127.293 E2.48844
G1 X75.699 Y125.82 E.10934
G1 X74.868 Y125.183 E.03982
G1 X72.6 Y122.915 E.12189
G1 X71.963 Y122.084 E.03982
G1 X70.359 Y119.306 E.12189
G1 X69.958 Y118.338 E.03982
G1 X69.128 Y115.24 E.12189
G1 X68.991 Y114.201 E.03982
G1 X68.991 Y110.994 E.12189
G1 X69.128 Y109.955 E.03982
G1 X69.958 Y106.858 E.12189
G1 X89.41 Y63.246 E1.81491
G1 X90.859 Y60.814 E.10761
G1 X91.242 Y61.058 F9000
G1 F900
G1 X91.88 Y60.226 E.03982
G1 X94.063 Y58.043 E.11736
G1 X94.895 Y57.405 E.03982
G1 X97.569 Y55.861 E.11736
G1 X98.537 Y55.46 E.03982
G1 X101.519 Y54.661 E.11736
G1 X102.558 Y54.524 E.03982
G1 X105.646 Y54.524 E.11736
G1 X106.685 Y54.661 E.03982
G1 X109.667 Y55.46 E.11736
G1 X114.883 Y57.859 E.21817
G1 X117.015 Y59.162 E.09499
G1 X119.011 Y60.821 E.09862
M73 P0 R90
G1 X161.836 Y103.654 E2.30202
G1 X163.493 Y105.648 E.09854
G1 X165.037 Y108.322 E.11736
G1 X165.438 Y109.29 E.03982
G1 X166.237 Y112.273 E.11736
G1 X166.374 Y113.311 E.03982
G1 X166.374 Y116.399 E.11736
G1 X166.237 Y117.438 E.03982
G1 X165.999 Y118.709 E.04914
G1 X160.061 Y142.946 E.9484
G1 X159.5 Y144.658 E.06847
G1 X159.099 Y145.626 E.03982
G1 X157.555 Y148.3 E.11736
G1 X156.918 Y149.131 E.03982
G1 X154.734 Y151.315 E.11736
G1 X153.903 Y151.952 E.03982
G1 X151.229 Y153.496 E.11736
G1 X150.261 Y153.897 E.03982
G1 X147.278 Y154.696 E.11736
G1 X146.239 Y154.833 E.03982
G1 X143.152 Y154.833 E.11736
G1 X142.113 Y154.696 E.03982
G1 X139.13 Y153.897 E.11736
G1 X138.162 Y153.496 E.03982
G1 X78.358 Y126.875 E2.48797
M73 P1 R90
G1 X75.978 Y125.458 E.10527
G1 X75.146 Y124.82 E.03982
G1 X72.963 Y122.637 E.11736
G1 X72.325 Y121.805 E.03982
G1 X70.781 Y119.131 E.11736
G1 X70.38 Y118.163 E.03982
G1 X69.581 Y115.181 E.11736
G1 X69.444 Y114.142 E.03982
G1 X69.444 Y111.054 E.11736
G1 X69.581 Y110.015 E.03982
G1 X70.38 Y107.032 E.11736
G1 X89.827 Y63.433 E1.81443
G1 X91.222 Y61.092 E.10355
G1 X91.605 Y61.336 F9000
G1 F900
G1 X92.243 Y60.505 E.03982
G1 X94.342 Y58.406 E.11282
G1 X95.173 Y57.768 E.03982
G1 X97.744 Y56.284 E.11282
G1 X98.712 Y55.883 E.03982
G1 X101.579 Y55.114 E.11282
G1 X102.618 Y54.978 E.03982
G1 X105.586 Y54.978 E.11282
G1 X106.625 Y55.114 E.03982
G1 X109.493 Y55.883 E.11282
G1 X114.687 Y58.272 E.2173
G1 X116.737 Y59.525 E.09132
G1 X118.687 Y61.144 E.09634
G1 X161.513 Y103.977 E2.30202
G1 X163.131 Y105.926 E.09627
G1 X164.615 Y108.497 E.11282
G1 X165.016 Y109.465 E.03982
G1 X165.784 Y112.332 E.11282
G1 X165.921 Y113.371 E.03982
G1 X165.921 Y116.34 E.11282
G1 X165.784 Y117.378 E.03982
G1 X165.555 Y118.6 E.04724
G1 X159.617 Y142.837 E.9484
G1 X158.677 Y145.451 E.10557
G1 X157.193 Y148.022 E.11282
G1 X156.555 Y148.853 E.03982
G1 X154.456 Y150.952 E.11282
G1 X153.625 Y151.59 E.03982
G1 X151.054 Y153.074 E.11282
G1 X150.086 Y153.475 E.03982
G1 X147.219 Y154.243 E.11282
G1 X146.18 Y154.38 E.03982
G1 X143.211 Y154.38 E.11282
G1 X142.172 Y154.243 E.03982
G1 X139.305 Y153.475 E.11282
G1 X138.337 Y153.074 E.03982
G1 X78.544 Y126.458 E2.4875
G1 X76.256 Y125.095 E.1012
G1 X75.425 Y124.457 E.03982
G1 X73.326 Y122.358 E.11282
G1 X72.688 Y121.527 E.03982
G1 X71.204 Y118.956 E.11282
G1 X70.803 Y117.988 E.03982
G1 X70.034 Y115.121 E.11282
G1 X69.898 Y114.082 E.03982
G1 X69.898 Y111.114 E.11282
G1 X70.034 Y110.075 E.03982
G1 X70.803 Y107.207 E.11282
G1 X90.244 Y63.619 E1.81395
G1 X91.584 Y61.37 E.09949
G1 X91.967 Y61.614 F9000
G1 F900
G1 X92.605 Y60.783 E.03982
G1 X94.62 Y58.768 E.10829
G1 X95.451 Y58.13 E.03982
G1 X97.919 Y56.706 E.10829
G1 X98.887 Y56.305 E.03982
G1 X101.639 Y55.568 E.10829
G1 X102.678 Y55.431 E.03982
G1 X105.527 Y55.431 E.10829
G1 X106.566 Y55.568 E.03982
G1 X109.318 Y56.305 E.10829
G1 X114.491 Y58.685 E.21643
G1 X116.459 Y59.888 E.08765
G1 X118.364 Y61.468 E.09407
G1 X161.189 Y104.3 E2.30202
G1 X162.768 Y106.204 E.094
G1 X164.192 Y108.672 E.10829
G1 X164.593 Y109.64 E.03982
G1 X165.331 Y112.392 E.10829
G1 X165.468 Y113.431 E.03982
G1 X165.468 Y116.28 E.10829
G1 X165.331 Y117.319 E.03982
G1 X165.111 Y118.491 E.04534
G1 X159.173 Y142.728 E.9484
G1 X158.255 Y145.276 E.10293
G1 X156.83 Y147.743 E.10829
G1 X156.192 Y148.575 E.03982
G1 X154.178 Y150.589 E.10829
G1 X153.346 Y151.227 E.03982
G1 X150.879 Y152.652 E.10829
G1 X149.911 Y153.053 E.03982
G1 X147.159 Y153.79 E.10829
G1 X146.12 Y153.927 E.03982
G1 X143.271 Y153.927 E.10829
G1 X142.232 Y153.79 E.03982
G1 X139.48 Y153.053 E.10829
G1 X138.512 Y152.652 E.03982
G1 X78.73 Y126.04 E2.48703
G1 X76.534 Y124.733 E.09714
G1 X75.703 Y124.095 E.03982
G1 X73.688 Y122.08 E.10829
G1 X73.05 Y121.249 E.03982
G1 X71.626 Y118.781 E.10829
G1 X71.225 Y117.813 E.03982
G1 X70.487 Y115.061 E.10829
G1 X70.351 Y114.022 E.03982
G1 X70.351 Y111.173 E.10829
G1 X70.487 Y110.134 E.03982
G1 X71.225 Y107.382 E.10829
G1 X90.662 Y63.806 E1.81347
G1 X91.947 Y61.649 E.09543
G1 X92.33 Y61.893 F9000
G1 F900
G1 X92.968 Y61.061 E.03982
G1 X94.898 Y59.131 E.10375
G1 X95.729 Y58.493 E.03982
G1 X98.094 Y57.128 E.10375
G1 X99.062 Y56.727 E.03982
G1 X101.698 Y56.021 E.10375
G1 X102.737 Y55.884 E.03982
G1 X105.467 Y55.884 E.10375
G1 X106.506 Y56.021 E.03982
G1 X109.143 Y56.727 E.10375
G1 X114.295 Y59.098 E.21556
G1 X116.181 Y60.25 E.08398
G1 X118.041 Y61.791 E.0918
G1 X160.866 Y104.624 E2.30202
M73 P1 R89
G1 X162.405 Y106.483 E.09173
G1 X163.77 Y108.847 E.10375
G1 X164.171 Y109.815 E.03982
G1 X164.878 Y112.452 E.10375
G1 X165.014 Y113.49 E.03982
G1 X165.014 Y116.22 E.10375
G1 X164.878 Y117.259 E.03982
G1 X164.667 Y118.382 E.04344
G1 X158.729 Y142.619 E.9484
M73 P2 R89
G1 X157.833 Y145.101 E.10028
G1 X156.468 Y147.465 E.10375
G1 X155.83 Y148.296 E.03982
G1 X153.899 Y150.227 E.10375
G1 X153.068 Y150.864 E.03982
G1 X150.704 Y152.229 E.10375
G1 X149.736 Y152.63 E.03982
G1 X147.099 Y153.337 E.10375
G1 X146.06 Y153.474 E.03982
G1 X143.331 Y153.474 E.10375
G1 X142.292 Y153.337 E.03982
G1 X139.655 Y152.63 E.10375
G1 X138.687 Y152.229 E.03982
G1 X78.916 Y125.623 E2.48656
G1 X76.813 Y124.37 E.09307
G1 X75.981 Y123.732 E.03982
G1 X74.051 Y121.802 E.10375
G1 X73.413 Y120.971 E.03982
G1 X72.048 Y118.606 E.10375
G1 X71.647 Y117.638 E.03982
G1 X70.941 Y115.002 E.10375
G1 X70.804 Y113.963 E.03982
G1 X70.804 Y111.233 E.10375
G1 X70.941 Y110.194 E.03982
G1 X71.647 Y107.557 E.10375
G1 X91.079 Y63.992 E1.81299
G1 X92.31 Y61.927 E.09137
; printing object c270ender3cammount.stl id:0 copy 0
G1 E-3.5 F3600
;WIPE_START
G1 F900
G1 X92.915 Y61.131 E-1.5
;WIPE_END
EXCLUDE_OBJECT_START NAME=c270ender3cammount.stl_id_0_copy_0
G1 Z.6 F9000
G1 X100.826 Y68.374 Z.6
G1 Z.2
G1 E5 F2400
;TYPE:Brim
G1 F900
G1 X101.427 Y67.59 E.03754
G1 X102.211 Y66.989 E.03754
G1 X103.123 Y66.611 E.03754
G1 X104.102 Y66.482 E.03754
G1 X105.081 Y66.611 E.03754
G1 X105.994 Y66.989 E.03754
G1 X106.777 Y67.59 E.03754
G1 X107.244 Y68.198 E.02913
G1 X107.368 Y68.28 E.00567
G1 X107.455 Y68.286 E.0033
G1 X107.808 Y68.239 E.01352
G1 X108.787 Y68.368 E.03754
G1 X109.699 Y68.746 E.03754
G1 X110.483 Y69.347 E.03754
G1 X111.084 Y70.131 E.03754
G1 X111.462 Y71.043 E.03754
G1 X111.591 Y72.022 E.03754
G1 X111.462 Y73.002 E.03754
G1 X111.084 Y73.914 E.03754
G1 X110.483 Y74.698 E.03754
G1 X109.699 Y75.299 E.03754
G1 X108.787 Y75.677 E.03754
G1 X107.808 Y75.806 E.03754
G1 X106.829 Y75.677 E.03754
G1 X106.495 Y75.538 E.01375
G1 X108.017 Y72.115 E.14238
G1 X108.042 Y71.999 E.00451
G1 X107.998 Y71.83 E.00665
G1 X107.939 Y71.753 E.00368
G1 X107.85 Y71.682 E.00434
G1 X104.195 Y70.056 E.15203
G1 X104.079 Y70.031 E.00451
G1 X103.91 Y70.075 E.00665
G1 X103.832 Y70.134 E.00368
G1 X103.761 Y70.223 E.00434
G1 X102.274 Y73.568 E.13912
G1 X102.211 Y73.542 E.00261
G1 X101.427 Y72.94 E.03754
G1 X100.826 Y72.157 E.03754
G1 X100.448 Y71.244 E.03754
G1 X100.319 Y70.265 E.03754
G1 X100.448 Y69.286 E.03754
G1 X100.81 Y68.411 E.03602
G1 X101.236 Y68.59 F9000
G1 F900
G1 X101.767 Y67.905 E.03294
G1 X102.458 Y67.381 E.03294
G1 X103.26 Y67.054 E.03294
G1 X104.084 Y66.945 E.03159
G1 X104.944 Y67.054 E.03294
G1 X105.778 Y67.399 E.03429
G1 X106.437 Y67.905 E.03159
G1 X106.874 Y68.467 E.02708
G1 X107.101 Y68.652 E.01111
G1 X107.355 Y68.737 E.01017
G1 X107.524 Y68.738 E.00642
G1 X107.826 Y68.703 E.01154
G1 X108.65 Y68.811 E.03159
G1 X109.483 Y69.156 E.03429
G1 X110.168 Y69.688 E.03294
G1 X110.692 Y70.378 E.03294
G1 X111.019 Y71.181 E.03294
G1 X111.128 Y72.005 E.03159
G1 X111.01 Y72.899 E.03429
G1 X110.674 Y73.698 E.03294
G1 X110.168 Y74.357 E.03159
G1 X109.452 Y74.906 E.03429
G1 X108.65 Y75.234 E.03294
G1 X107.79 Y75.342 E.03294
G1 X107.303 Y75.278 E.01866
G1 X107.206 Y75.217 E.00435
G1 X107.195 Y75.087 E.00497
G1 X108.466 Y72.199 E.11993
G1 X108.485 Y72.112 E.00338
G1 X108.48 Y71.869 E.00924
G1 X108.444 Y71.728 E.00552
G1 X108.357 Y71.548 E.00758
G1 X108.217 Y71.391 E.00799
G1 X108.024 Y71.259 E.00889
G1 X104.39 Y69.643 E.15115
G1 X104.188 Y69.588 E.00797
G1 X103.948 Y69.593 E.00911
G1 X103.808 Y69.629 E.00552
G1 X103.567 Y69.761 E.01044
G1 X103.406 Y69.936 E.00902
G1 X103.34 Y70.045 E.00484
G1 X102.155 Y72.71 E.11083
G1 X102.069 Y72.785 E.00435
G1 X101.947 Y72.763 E.00475
G1 X101.742 Y72.6 E.00994
G1 X101.218 Y71.91 E.03294
G1 X100.891 Y71.107 E.03294
G1 X100.782 Y70.247 E.03294
G1 X100.9 Y69.389 E.03294
G1 X101.221 Y68.627 E.03142
G1 X101.645 Y68.808 F9000
G1 F900
G1 X101.645 Y68.808 E.00001
G1 X102.106 Y68.222 E.02834
G1 X102.703 Y67.775 E.02834
G1 X103.396 Y67.497 E.02838
G1 X104.103 Y67.408 E.02709
G1 X104.808 Y67.497 E.02699
G1 X105.561 Y67.809 E.031
G1 X106.098 Y68.221 E.02572
G1 X106.592 Y68.827 E.02971
G1 X106.803 Y68.999 E.01034
G1 X106.968 Y69.089 E.00715
G1 X107.2 Y69.167 E.00929
G1 X107.358 Y69.193 E.0061
G1 X107.839 Y69.165 E.01829
G1 X108.513 Y69.254 E.02582
G1 X109.235 Y69.548 E.02963
G1 X109.826 Y70.001 E.02831
G1 X110.28 Y70.592 E.02834
G1 X110.576 Y71.316 E.02972
G1 X110.664 Y72.022 E.02705
G1 X110.567 Y72.76 E.02828
G1 X110.265 Y73.48 E.02969
G1 X109.828 Y74.042 E.02705
G1 X109.237 Y74.495 E.02828
G1 X108.55 Y74.781 E.02831
G1 X108.025 Y74.852 E.02011
G1 X107.916 Y74.818 E.00435
G1 X107.882 Y74.661 E.00608
G1 X108.914 Y72.287 E.0984
G1 X108.941 Y72.094 E.00739
G1 X108.919 Y71.744 E.01334
G1 X108.852 Y71.524 E.00876
G1 X108.691 Y71.238 E.01245
G1 X108.466 Y71.007 E.01226
G1 X108.2 Y70.837 E.01198
G1 X104.584 Y69.229 E.15042
G1 X104.316 Y69.149 E.01065
G1 X104.172 Y69.132 E.00551
G1 X103.825 Y69.154 E.0132
G1 X103.577 Y69.235 E.00991
G1 X103.357 Y69.355 E.00953
G1 X103.224 Y69.459 E.00641
G1 X103.01 Y69.708 E.01247
G1 X102.92 Y69.866 E.00693
G1 X102.024 Y71.88 E.08375
G1 X101.938 Y71.955 E.00435
G1 X101.79 Y71.907 E.00594
G1 X101.63 Y71.696 E.01007
G1 X101.344 Y71.007 E.02834
G1 X101.246 Y70.268 E.02834
G1 X101.352 Y69.494 E.02969
G1 X101.629 Y68.845 E.02682
G1 E-3.5 F3600
;WIPE_START
G1 F900
G1 X101.645 Y68.808 E-.06023
G1 X102.106 Y68.222 E-1.11857
G1 X102.277 Y68.094 E-.3212
;WIPE_END
G1 Z.6 F9000
G1 X107.171 Y69.707 Z.6
G1 Z.2
G1 E5 F2400
G1 F900
G1 X107.282 Y69.644 E.00484
G1 X107.835 Y69.626 E.02102
G1 X108.411 Y69.706 E.0221
G1 X108.988 Y69.941 E.0237
G1 X109.486 Y70.316 E.02368
G1 X109.887 Y70.839 E.02505
G1 X110.132 Y71.451 E.02505
G1 X110.201 Y72.038 E.02248
G1 X110.124 Y72.621 E.02235
G1 X109.874 Y73.231 E.02504
G1 X109.489 Y73.726 E.02384
G1 X109.021 Y74.085 E.02242
G1 X108.856 Y74.159 E.00686
G1 X108.742 Y74.155 E.00435
G1 X108.67 Y74.065 E.00435
G1 X108.678 Y73.977 E.00334
G1 X109.329 Y72.477 E.06216
G1 X109.367 Y72.345 E.00523
G1 X109.397 Y72.054 E.01111
G1 X109.376 Y71.728 E.01241
G1 X109.291 Y71.399 E.01294
G1 X109.093 Y71.02 E.01623
G1 X109.013 Y70.914 E.00507
G1 X108.702 Y70.616 E.01634
G1 X108.378 Y70.416 E.01451
G1 X107.231 Y69.906 E.04768
G1 X107.156 Y69.82 E.00435
G1 X107.166 Y69.746 E.00283
G1 X106.39 Y69.351 F9000
G1 F900
G1 X106.348 Y69.433 E.0035
G1 X106.207 Y69.45 E.00539
G1 X104.777 Y68.815 E.05948
G1 X104.456 Y68.714 E.01279
G1 X104.13 Y68.676 E.01246
G1 X103.676 Y68.722 E.01734
G1 X103.349 Y68.838 E.0132
G1 X103.07 Y69 E.01227
G1 X102.871 Y69.169 E.00994
G1 X102.671 Y69.401 E.01162
G1 X102.499 Y69.688 E.01273
G1 X102.027 Y70.749 E.04413
G1 X101.941 Y70.825 E.00435
G1 X101.828 Y70.809 E.00435
G1 X101.765 Y70.711 E.00439
G1 X101.709 Y70.25 E.01765
G1 X101.803 Y69.6 E.02498
G1 X102.053 Y69.029 E.02367
G1 X102.443 Y68.541 E.02375
G1 X102.945 Y68.17 E.02375
G1 X103.529 Y67.941 E.02382
G1 X104.12 Y67.871 E.02263
G1 X104.707 Y67.95 E.0225
G1 X105.345 Y68.22 E.02635
G1 X105.788 Y68.564 E.02131
