; HEADER_BLOCK_START
; generated by OrcaSlicer 1.7.0 on 2023-11-18 at 16:51:00
; total layer number: 350
; HEADER_BLOCK_END

; THUMBNAIL_BLOCK_START
; THUMBNAIL_BLOCK_END

; external perimeters extrusion width = 0.40mm
; perimeters extrusion width = 0.45mm
; infill extrusion width = 0.45mm
; solid infill extrusion width = 0.40mm
; top infill extrusion width = 0.40mm
; first layer extrusion width = 0.50mm

; external perimeters extrusion width = 0.40mm
; perimeters extrusion width = 0.45mm
; infill extrusion width = 0.45mm
; solid infill extrusion width = 0.40mm
; top infill extrusion width = 0.40mm
; first layer extrusion width = 0.50mm

; external perimeters extrusion width = 0.40mm
; perimeters extrusion width = 0.45mm
; infill extrusion width = 0.45mm
; solid infill extrusion width = 0.40mm
; top infill extrusion width = 0.40mm
; first layer extrusion width = 0.50mm

; external perimeters extrusion width = 0.40mm
; perimeters extrusion width = 0.45mm
; infill extrusion width = 0.45mm
; solid infill extrusion width = 0.40mm
; top infill extrusion width = 0.40mm
; first layer extrusion width = 0.50mm

; external perimeters extrusion width = 0.40mm
; perimeters extrusion width = 0.45mm
; infill extrusion width = 0.45mm
; solid infill extrusion width = 0.40mm
; top infill extrusion width = 0.40mm
; first layer extrusion width = 0.50mm

; external perimeters extrusion width = 0.40mm
; perimeters extrusion width = 0.45mm
; infill extrusion width = 0.45mm
; solid infill extrusion width = 0.40mm
; top infill extrusion width = 0.40mm
; first layer extrusion width = 0.50mm

; external perimeters extrusion width = 0.40mm
; perimeters extrusion width = 0.45mm
; infill extrusion width = 0.45mm
; solid infill extrusion width = 0.40mm
; top infill extrusion width = 0.40mm
; first layer extrusion width = 0.50mm

; external perimeters extrusion width = 0.40mm
; perimeters extrusion width = 0.45mm
; infill extrusion width = 0.45mm
; solid infill extrusion width = 0.40mm
; top infill extrusion width = 0.40mm
; first layer extrusion width = 0.50mm

; external perimeters extrusion width = 0.40mm
; perimeters extrusion width = 0.45mm
; infill extrusion width = 0.45mm
; solid infill extrusion width = 0.40mm
; top infill extrusion width = 0.40mm
; first layer extrusion width = 0.50mm

; external perimeters extrusion width = 0.40mm
; perimeters extrusion width = 0.45mm
; infill extrusion width = 0.45mm
; solid infill extrusion width = 0.40mm
; top infill extrusion width = 0.40mm
; first layer extrusion width = 0.50mm

; EXECUTABLE_BLOCK_START
EXCLUDE_OBJECT_DEFINE NAME=cableChain_linkCover_v2.stl_id_0_copy_0 CENTER=38.999,30.7986 POLYGON=[[26.999,27.8986],[50.999,27.8986],[50.999,33.6985],[26.999,33.6985],[26.999,27.8986]]
EXCLUDE_OBJECT_DEFINE NAME=cableChain_linkCover_v2.stl_id_1_copy_0 CENTER=38.999,83.5995 POLYGON=[[26.999,80.6995],[50.999,80.6995],[50.999,86.4995],[26.999,86.4995],[26.999,80.6995]]
EXCLUDE_OBJECT_DEFINE NAME=cableChain_linkCover_v2.stl_id_2_copy_0 CENTER=110,30.7986 POLYGON=[[98,27.8986],[122,27.8986],[122,33.6985],[98,33.6985],[98,27.8986]]
EXCLUDE_OBJECT_DEFINE NAME=cableChain_linkCover_v2.stl_id_3_copy_0 CENTER=38.999,136.4 POLYGON=[[26.999,133.501],[50.999,133.501],[50.999,139.3],[26.999,139.3],[26.999,133.501]]
EXCLUDE_OBJECT_DEFINE NAME=cableChain_linkCover_v2.stl_id_4_copy_0 CENTER=110,83.5995 POLYGON=[[98,80.6995],[122,80.6995],[122,86.4995],[98,86.4995],[98,80.6995]]
EXCLUDE_OBJECT_DEFINE NAME=cableChain_linkCover_v2.stl_id_5_copy_0 CENTER=181.001,30.7986 POLYGON=[[169.001,27.8986],[193.001,27.8986],[193.001,33.6985],[169.001,33.6985],[169.001,27.8986]]
EXCLUDE_OBJECT_DEFINE NAME=cableChain_linkCover_v2.stl_id_6_copy_0 CENTER=38.999,189.201 POLYGON=[[26.999,186.301],[50.999,186.301],[50.999,192.101],[26.999,192.101],[26.999,186.301]]
EXCLUDE_OBJECT_DEFINE NAME=cableChain_linkCover_v2.stl_id_7_copy_0 CENTER=110,136.4 POLYGON=[[98,133.5],[122,133.5],[122,139.3],[98,139.3],[98,133.5]]
EXCLUDE_OBJECT_DEFINE NAME=cableChain_linkCover_v2.stl_id_8_copy_0 CENTER=181.001,83.5995 POLYGON=[[169.001,80.6995],[193.001,80.6995],[193.001,86.4995],[169.001,86.4995],[169.001,80.6995]]
EXCLUDE_OBJECT_DEFINE NAME=cableChain_linkCover_v2.stl_id_9_copy_0 CENTER=110,189.201 POLYGON=[[98,186.301],[122,186.301],[122,192.101],[98,192.101],[98,186.301]]
M73 P0 R45
;TYPE:Custom
START_PRINT EXTRUDER_TEMP=255  BED_TEMP=80
G90
G21
M83 ; use relative distances for extrusion
; filament start gcode
M106 S0
;LAYER_CHANGE
;Z:0.2
;HEIGHT:0.2
;BEFORE_LAYER_CHANGE
;0.2
G92 E0

G1 E-4 F1800
;_SET_FAN_SPEED_CHANGING_LAYER
SET_VELOCITY_LIMIT SQUARE_CORNER_VELOCITY=8
G1 X15.826 Y15.826 F12000
G1 Z.4
G1 Z.2
G1 E4 F1800
;TYPE:Skirt
;WIDTH:0.5
G1 F900
G1 X16.773 Y14.879 E.04835
G1 X17.604 Y14.241 E.03783
G1 X20.485 Y12.578 E.12011
G1 X21.453 Y12.177 E.03783
G1 X24.666 Y11.316 E.1201
G1 X27.353 Y11.07 E.09742
G1 X193.001 Y11.042 E5.98088
M73 P0 R44
G1 X194.664 Y11.151 E.06018
G1 X195.703 Y11.288 E.03783
G1 X198.916 Y12.149 E.1201
G1 X199.884 Y12.55 E.03783
G1 X202.765 Y14.213 E.12011
G1 X203.596 Y14.851 E.03783
G1 X205.948 Y17.203 E.1201
G1 X206.586 Y18.035 E.03783
G1 X208.249 Y20.915 E.12011
G1 X208.65 Y21.883 E.03783
G1 X209.511 Y25.097 E.1201
G1 X209.755 Y27.583 E.09019
G1 X209.857 Y33.699 E.22085
G1 X209.857 Y86.499 E1.90643
G1 X209.611 Y89.202 E.09796
G1 X208.75 Y92.415 E.1201
G1 X208.349 Y93.383 E.03783
G1 X207.152 Y95.616 E.09151
G1 X136.151 Y201.218 E4.59454
M73 P1 R44
G1 X135.047 Y202.697 E.06661
G1 X132.695 Y205.049 E.1201
G1 X131.864 Y205.687 E.03783
G1 X128.983 Y207.35 E.12011
G1 X128.015 Y207.751 E.03783
G1 X124.802 Y208.612 E.1201
G1 X122.153 Y208.857 E.09606
G1 X98 Y208.958 E.87207
G1 X26.999 Y208.958 E2.56356
G1 X24.297 Y208.712 E.09796
G1 X21.084 Y207.851 E.1201
G1 X20.116 Y207.45 E.03783
G1 X17.235 Y205.787 E.12011
G1 X16.404 Y205.149 E.03783
G1 X14.052 Y202.797 E.1201
G1 X13.414 Y201.965 E.03783
G1 X11.751 Y199.085 E.12011
G1 X11.35 Y198.117 E.03783
G1 X10.489 Y194.903 E.1201
G1 X10.243 Y192.201 E.09796
G1 X10.243 Y33.799 E5.7193
G1 X10.636 Y27.04 E.24443
G1 X10.858 Y25.124 E.06963
G1 X11.719 Y21.911 E.1201
G1 X12.12 Y20.943 E.03783
G1 X13.783 Y18.062 E.12011
G1 X14.421 Y17.231 E.03783
G1 X15.798 Y15.854 E.07031
G1 X16.118 Y16.175 F12000
G1 F900
G1 X17.051 Y15.242 E.04764
G1 X17.882 Y14.604 E.03783
G1 X20.66 Y13 E.1158
G1 X21.628 Y12.599 E.03783
G1 X24.726 Y11.769 E.1158
G1 X27.354 Y11.527 E.09529
G1 X193.001 Y11.499 E5.98086
M73 P2 R44
G1 X194.605 Y11.605 E.05802
G1 X195.643 Y11.741 E.03783
G1 X198.741 Y12.571 E.1158
G1 X199.709 Y12.972 E.03783
G1 X202.487 Y14.576 E.1158
G1 X203.318 Y15.214 E.03783
G1 X205.586 Y17.482 E.1158
G1 X206.224 Y18.313 E.03783
G1 X207.827 Y21.09 E.1158
G1 X208.228 Y22.058 E.03783
G1 X209.058 Y25.156 E.1158
G1 X209.298 Y27.59 E.08832
G1 X209.4 Y33.699 E.22057
G1 X209.4 Y86.499 E1.90643
G1 X209.158 Y89.142 E.09581
G1 X208.328 Y92.24 E.1158
G1 X207.927 Y93.208 E.03783
G1 X206.772 Y95.361 E.08823
G1 X135.771 Y200.963 E4.59454
M73 P2 R43
G1 X134.685 Y202.418 E.06558
G1 X132.417 Y204.686 E.1158
G1 X131.586 Y205.324 E.03783
G1 X128.808 Y206.928 E.1158
G1 X127.84 Y207.329 E.03783
G1 X124.742 Y208.159 E.1158
G1 X122.151 Y208.4 E.09397
G1 X98 Y208.501 E.872
G1 X26.999 Y208.501 E2.56356
M73 P3 R43
G1 X24.357 Y208.259 E.09581
G1 X21.259 Y207.429 E.1158
G1 X20.291 Y207.028 E.03783
G1 X17.513 Y205.424 E.1158
G1 X16.682 Y204.786 E.03783
G1 X14.414 Y202.518 E.1158
G1 X13.776 Y201.687 E.03783
G1 X12.173 Y198.91 E.1158
G1 X11.772 Y197.942 E.03783
G1 X10.942 Y194.844 E.1158
G1 X10.7 Y192.201 E.09581
G1 X10.7 Y33.799 E5.7193
G1 X11.093 Y27.068 E.24341
G1 X11.311 Y25.184 E.06849
G1 X12.141 Y22.086 E.1158
G1 X12.542 Y21.118 E.03783
G1 X14.146 Y18.341 E.1158
G1 X14.783 Y17.509 E.03783
G1 X16.09 Y16.203 E.06671
G1 X16.41 Y16.523 F12000
G1 F900
G1 X17.329 Y15.604 E.04693
G1 X18.161 Y14.966 E.03783
G1 X20.835 Y13.422 E.11149
G1 X21.803 Y13.022 E.03783
G1 X24.785 Y12.222 E.11149
G1 X27.354 Y11.984 E.09315
G1 X193.001 Y11.957 E5.98084
G1 X194.545 Y12.058 E.05586
G1 X195.584 Y12.195 E.03783
G1 X198.566 Y12.994 E.11149
G1 X199.534 Y13.395 E.03783
M73 P4 R43
G1 X202.208 Y14.939 E.11149
G1 X203.04 Y15.576 E.03783
G1 X205.223 Y17.76 E.11149
G1 X205.861 Y18.591 E.03783
G1 X207.405 Y21.265 E.11149
G1 X207.806 Y22.233 E.03783
G1 X208.605 Y25.216 E.11149
G1 X208.841 Y27.598 E.08644
G1 X208.943 Y33.699 E.22029
G1 X208.943 Y86.499 E1.90643
G1 X208.705 Y89.082 E.09365
G1 X207.906 Y92.065 E.11149
G1 X207.505 Y93.033 E.03783
G1 X206.393 Y95.106 E.08494
G1 X135.392 Y200.708 E4.59454
G1 X134.322 Y202.14 E.06454
G1 X132.139 Y204.324 E.11149
G1 X131.307 Y204.961 E.03783
G1 X128.633 Y206.505 E.11149
G1 X127.665 Y206.906 E.03783
G1 X124.683 Y207.705 E.11149
G1 X122.149 Y207.943 E.09188
G1 X98 Y208.043 E.87193
G1 X26.999 Y208.043 E2.56356
G1 X24.416 Y207.805 E.09365
G1 X21.434 Y207.006 E.11149
G1 X20.466 Y206.605 E.03783
G1 X17.792 Y205.061 E.11149
G1 X16.96 Y204.424 E.03783
G1 X14.777 Y202.24 E.11149
G1 X14.139 Y201.409 E.03783
G1 X12.595 Y198.735 E.11149
G1 X12.194 Y197.767 E.03783
G1 X11.395 Y194.784 E.11149
G1 X11.157 Y192.201 E.09365
G1 X11.157 Y33.799 E5.7193
M73 P5 R42
G1 X11.549 Y27.097 E.2424
G1 X11.764 Y25.244 E.06735
G1 X12.563 Y22.261 E.11149
G1 X12.964 Y21.293 E.03783
G1 X14.508 Y18.619 E.11149
G1 X15.146 Y17.788 E.03783
G1 X16.382 Y16.552 E.06311
G1 X16.702 Y16.872 F12000
G1 F900
G1 X17.608 Y15.967 E.04622
G1 X18.439 Y15.329 E.03783
G1 X21.01 Y13.845 E.10718
G1 X21.978 Y13.444 E.03783
G1 X24.845 Y12.676 E.10718
G1 X27.355 Y12.441 E.09101
G1 X193.001 Y12.414 E5.98082
G1 X194.485 Y12.511 E.05371
G1 X195.524 Y12.648 E.03783
G1 X198.391 Y13.416 E.10718
G1 X199.359 Y13.817 E.03783
G1 X201.93 Y15.301 E.10718
G1 X202.762 Y15.939 E.03783
G1 X204.861 Y18.038 E.10718
G1 X205.498 Y18.869 E.03783
G1 X206.983 Y21.44 E.10718
G1 X207.384 Y22.408 E.03783
G1 X208.152 Y25.276 E.10718
G1 X208.384 Y27.606 E.08456
G1 X208.486 Y33.699 E.22001
G1 X208.486 Y86.499 E1.90643
G1 X208.252 Y89.023 E.09149
G1 X207.484 Y91.89 E.10718
G1 X207.083 Y92.858 E.03783
G1 X206.014 Y94.851 E.08166
G1 X135.013 Y200.453 E4.59454
M73 P6 R42
G1 X133.96 Y201.862 E.06351
G1 X131.86 Y203.961 E.10718
G1 X131.029 Y204.599 E.03783
G1 X128.458 Y206.083 E.10718
G1 X127.49 Y206.484 E.03783
G1 X124.623 Y207.252 E.10718
G1 X122.147 Y207.486 E.08979
G1 X98 Y207.586 E.87187
G1 X26.999 Y207.586 E2.56356
G1 X24.476 Y207.352 E.09149
G1 X21.609 Y206.584 E.10718
G1 X20.641 Y206.183 E.03783
G1 X18.07 Y204.699 E.10718
G1 X17.238 Y204.061 E.03783
G1 X15.139 Y201.962 E.10718
G1 X14.502 Y201.131 E.03783
G1 X13.017 Y198.56 E.10718
G1 X12.616 Y197.592 E.03783
G1 X11.848 Y194.724 E.10718
G1 X11.614 Y192.201 E.09149
G1 X11.614 Y33.799 E5.7193
G1 X12.005 Y27.125 E.24138
M73 P7 R42
G1 X12.217 Y25.303 E.06621
G1 X12.986 Y22.436 E.10718
G1 X13.387 Y21.468 E.03783
G1 X14.871 Y18.897 E.10718
G1 X15.509 Y18.066 E.03783
G1 X16.674 Y16.9 E.05951
G1 X16.995 Y17.221 F12000
G1 F900
G1 X17.886 Y16.33 E.04551
G1 X18.717 Y15.692 E.03783
G1 X21.185 Y14.267 E.10287
G1 X22.153 Y13.866 E.03783
G1 X24.905 Y13.129 E.10287
G1 X27.355 Y12.899 E.08887
G1 X193.001 Y12.871 E5.9808
M73 P7 R41
G1 X194.426 Y12.964 E.05155
G1 X195.464 Y13.101 E.03783
G1 X198.216 Y13.838 E.10287
G1 X199.185 Y14.239 E.03783
G1 X201.652 Y15.664 E.10287
G1 X202.483 Y16.302 E.03783
G1 X204.498 Y18.316 E.10287
G1 X205.136 Y19.148 E.03783
G1 X206.56 Y21.615 E.10287
G1 X206.961 Y22.583 E.03783
G1 X207.699 Y25.335 E.10287
G1 X207.927 Y27.614 E.08268
G1 X208.029 Y33.699 E.21973
G1 X208.029 Y86.499 E1.90643
G1 X207.799 Y88.963 E.08933
G1 X207.061 Y91.715 E.10287
G1 X206.66 Y92.683 E.03783
G1 X205.634 Y94.596 E.07838
G1 X134.633 Y200.198 E4.59454
M73 P8 R41
G1 X133.597 Y201.584 E.06248
G1 X131.582 Y203.598 E.10287
G1 X130.751 Y204.236 E.03783
G1 X128.284 Y205.661 E.10287
G1 X127.315 Y206.062 E.03783
G1 X124.563 Y206.799 E.10287
G1 X122.145 Y207.029 E.0877
G1 X98 Y207.129 E.8718
G1 X26.999 Y207.129 E2.56356
G1 X24.536 Y206.899 E.08933
G1 X21.784 Y206.162 E.10287
G1 X20.815 Y205.761 E.03783
G1 X18.348 Y204.336 E.10287
G1 X17.517 Y203.698 E.03783
G1 X15.502 Y201.684 E.10287
G1 X14.864 Y200.852 E.03783
G1 X13.44 Y198.385 E.10287
G1 X13.039 Y197.417 E.03783
G1 X12.301 Y194.665 E.10287
G1 X12.071 Y192.201 E.08933
G1 X12.071 Y33.799 E5.7193
G1 X12.461 Y27.153 E.24036
G1 X12.67 Y25.363 E.06507
G1 X13.408 Y22.611 E.10287
G1 X13.809 Y21.643 E.03783
G1 X15.233 Y19.175 E.10287
G1 X15.871 Y18.344 E.03783
G1 X16.966 Y17.249 E.05591
G1 X17.287 Y17.57 F12000
G1 F900
G1 X18.164 Y16.692 E.0448
G1 X18.995 Y16.054 E.03783
G1 X21.36 Y14.689 E.09856
G1 X22.328 Y14.288 E.03783
G1 X24.964 Y13.582 E.09856
G1 X27.356 Y13.356 E.08673
G1 X193.001 Y13.328 E5.98078
M73 P9 R41
G1 X194.366 Y13.417 E.04939
G1 X195.405 Y13.554 E.03783
G1 X198.042 Y14.261 E.09856
G1 X199.01 Y14.662 E.03783
G1 X201.374 Y16.026 E.09856
G1 X202.205 Y16.664 E.03783
G1 X204.135 Y18.595 E.09856
G1 X204.773 Y19.426 E.03783
G1 X206.138 Y21.79 E.09856
G1 X206.539 Y22.758 E.03783
G1 X207.246 Y25.395 E.09856
G1 X207.47 Y27.621 E.0808
G1 X207.572 Y33.699 E.21945
G1 X207.572 Y86.499 E1.90643
M73 P9 R40
G1 X207.346 Y88.903 E.08717
G1 X206.639 Y91.54 E.09856
G1 X206.238 Y92.508 E.03783
G1 X205.255 Y94.341 E.0751
G1 X134.254 Y199.943 E4.59454
G1 X133.234 Y201.305 E.06145
G1 X131.304 Y203.236 E.09856
G1 X130.473 Y203.874 E.03783
G1 X128.109 Y205.238 E.09856
G1 X127.141 Y205.639 E.03783
G1 X124.504 Y206.346 E.09856
G1 X122.143 Y206.572 E.08561
G1 X98 Y206.672 E.87173
G1 X26.999 Y206.672 E2.56356
M73 P10 R40
G1 X24.595 Y206.446 E.08717
G1 X21.958 Y205.739 E.09856
G1 X20.99 Y205.338 E.03783
G1 X18.626 Y203.974 E.09856
G1 X17.795 Y203.336 E.03783
G1 X15.865 Y201.405 E.09856
G1 X15.227 Y200.574 E.03783
G1 X13.862 Y198.21 E.09856
G1 X13.461 Y197.242 E.03783
G1 X12.754 Y194.605 E.09856
G1 X12.528 Y192.201 E.08717
G1 X12.528 Y33.799 E5.7193
G1 X12.917 Y27.181 E.23934
G1 X13.124 Y25.423 E.06393
G1 X13.83 Y22.786 E.09856
G1 X14.231 Y21.818 E.03783
G1 X15.596 Y19.454 E.09856
G1 X16.234 Y18.622 E.03783
G1 X17.258 Y17.598 E.05231
; printing object cableChain_linkCover_v2.stl id:0 copy 0
G1 E-2.8 F1800
;WIPE_START
G1 F900
G1 X17.966 Y16.891 E-1.2
;WIPE_END
EXCLUDE_OBJECT_START NAME=cableChain_linkCover_v2.stl_id_0_copy_0
G17
G3 Z.6 I-.944 J.768 P1  F12000
G1 X24.693 Y25.151 Z.6
G1 Z.2
G1 E4 F1800
;TYPE:Brim
G1 F900
G1 X25.477 Y24.55 E.03566
G1 X26.389 Y24.172 E.03566
G1 X27.368 Y24.043 E.03566
G1 X28.347 Y24.172 E.03566
G1 X29.26 Y24.55 E.03566
G1 X30.043 Y25.151 E.03566
G1 X30.645 Y25.935 E.03566
G1 X30.761 Y26.215 E.01095
G1 X30.884 Y26.339 E.00632
G1 X31.231 Y26.482 E.01353
G1 X32.014 Y27.083 E.03566
G1 X32.615 Y27.867 E.03566
G1 X32.993 Y28.779 E.03566
G1 X33.122 Y29.759 E.03566
G1 X32.993 Y30.738 E.03566
G1 X32.615 Y31.65 E.03566
G1 X32.247 Y32.13 E.02184
G1 X28.568 Y32.13 E.13286
G1 X28.568 Y30.918 E.04376
G1 X29.401 Y30.444 E.03463
G1 X29.486 Y30.36 E.0043
G1 X29.537 Y30.273 E.00363
G1 X29.568 Y30.159 E.0043
G1 X29.568 Y29.759 E.01444
G1 X29.549 Y29.669 E.0033
G1 X29.466 Y29.521 E.00611
G1 X27.526 Y27.661 E.09704
G1 X27.384 Y27.587 E.0058
G1 X27.299 Y27.57 E.00313
G1 X26.999 Y27.57 E.01083
G1 X26.883 Y27.594 E.00429
G1 X26.746 Y27.703 E.00632
G1 X26.699 Y27.788 E.0035
G1 X26.67 Y27.899 E.00413
G1 X26.67 Y33.699 E.20941
G1 X26.695 Y33.815 E.00429
G1 X26.804 Y33.952 E.00632
G1 X26.888 Y33.999 E.0035
G1 X26.999 Y34.027 E.00413
G1 X30.752 Y34.027 E.13551
G1 X30.653 Y34.778 E.02734
G1 X30.275 Y35.69 E.03566
G1 X29.674 Y36.474 E.03566
G1 X28.891 Y37.075 E.03566
G1 X27.978 Y37.453 E.03566
G1 X26.999 Y37.582 E.03566
G1 X26.02 Y37.453 E.03566
G1 X25.107 Y37.075 E.03566
G1 X24.324 Y36.474 E.03566
G1 X23.723 Y35.69 E.03566
G1 X23.345 Y34.778 E.03566
G1 X23.216 Y33.799 E.03566
G1 X23.345 Y32.819 E.03566
G1 X23.723 Y31.907 E.03566
G1 X24.324 Y31.123 E.03566
G1 X24.677 Y30.852 E.01609
G1 X24.76 Y30.728 E.00538
G1 X24.719 Y30.531 E.00724
G1 X24.092 Y29.718 E.0371
G1 X23.714 Y28.806 E.03565
G1 X23.585 Y27.826 E.03566
G1 X23.714 Y26.847 E.03566
G1 X24.092 Y25.935 E.03566
G1 X24.669 Y25.183 E.03421
G1 X25.008 Y25.492 F12000
G1 F900
