; HEADER_BLOCK_START
; generated by OrcaSlicer 1.7.0 on 2023-11-14 at 10:01:48
; total layer number: 35
; HEADER_BLOCK_END

; THUMBNAIL_BLOCK_START
; THUMBNAIL_BLOCK_END

; external perimeters extrusion width = 0.40mm
; perimeters extrusion width = 0.45mm
; infill extrusion width = 0.45mm
; solid infill extrusion width = 0.40mm
; top infill extrusion width = 0.40mm
; first layer extrusion width = 0.50mm

; external perimeters extrusion width = 0.40mm
; perimeters extrusion width = 0.45mm
; infill extrusion width = 0.45mm
; solid infill extrusion width = 0.40mm
; top infill extrusion width = 0.40mm
; first layer extrusion width = 0.50mm

; external perimeters extrusion width = 0.40mm
; perimeters extrusion width = 0.45mm
; infill extrusion width = 0.45mm
; solid infill extrusion width = 0.40mm
; top infill extrusion width = 0.40mm
; first layer extrusion width = 0.50mm

; external perimeters extrusion width = 0.40mm
; perimeters extrusion width = 0.45mm
; infill extrusion width = 0.45mm
; solid infill extrusion width = 0.40mm
; top infill extrusion width = 0.40mm
; first layer extrusion width = 0.50mm

; external perimeters extrusion width = 0.40mm
; perimeters extrusion width = 0.45mm
; infill extrusion width = 0.45mm
; solid infill extrusion width = 0.40mm
; top infill extrusion width = 0.40mm
; first layer extrusion width = 0.50mm

; external perimeters extrusion width = 0.40mm
; perimeters extrusion width = 0.45mm
; infill extrusion width = 0.45mm
; solid infill extrusion width = 0.40mm
; top infill extrusion width = 0.40mm
; first layer extrusion width = 0.50mm

; external perimeters extrusion width = 0.40mm
; perimeters extrusion width = 0.45mm
; infill extrusion width = 0.45mm
; solid infill extrusion width = 0.40mm
; top infill extrusion width = 0.40mm
; first layer extrusion width = 0.50mm

; external perimeters extrusion width = 0.40mm
; perimeters extrusion width = 0.45mm
; infill extrusion width = 0.45mm
; solid infill extrusion width = 0.40mm
; top infill extrusion width = 0.40mm
; first layer extrusion width = 0.50mm

; external perimeters extrusion width = 0.40mm
; perimeters extrusion width = 0.45mm
; infill extrusion width = 0.45mm
; solid infill extrusion width = 0.40mm
; top infill extrusion width = 0.40mm
; first layer extrusion width = 0.50mm

; external perimeters extrusion width = 0.40mm
; perimeters extrusion width = 0.45mm
; infill extrusion width = 0.45mm
; solid infill extrusion width = 0.40mm
; top infill extrusion width = 0.40mm
; first layer extrusion width = 0.50mm

; EXECUTABLE_BLOCK_START
EXCLUDE_OBJECT_DEFINE NAME=cableChain_linkCover_v2.stl_id_0_copy_0 CENTER=124.5,131.6 POLYGON=[[112.5,128.7],[136.5,128.7],[136.5,134.5],[112.5,134.5],[112.5,128.7]]
EXCLUDE_OBJECT_DEFINE NAME=cableChain_linkCover_v2.stl_id_1_copy_0 CENTER=124.5,120.8 POLYGON=[[112.5,117.9],[136.5,117.9],[136.5,123.7],[112.5,123.7],[112.5,117.9]]
EXCLUDE_OBJECT_DEFINE NAME=cableChain_linkCover_v2.stl_id_2_copy_0 CENTER=124.5,110 POLYGON=[[112.5,107.1],[136.5,107.1],[136.5,112.9],[112.5,112.9],[112.5,107.1]]
EXCLUDE_OBJECT_DEFINE NAME=cableChain_linkCover_v2.stl_id_3_copy_0 CENTER=124.5,99.2 POLYGON=[[112.5,96.3001],[136.5,96.3001],[136.5,102.1],[112.5,102.1],[112.5,96.3001]]
EXCLUDE_OBJECT_DEFINE NAME=cableChain_linkCover_v2.stl_id_4_copy_0 CENTER=124.5,88.4001 POLYGON=[[112.5,85.5001],[136.5,85.5001],[136.5,91.3001],[112.5,91.3001],[112.5,85.5001]]
EXCLUDE_OBJECT_DEFINE NAME=cableChain_linkCover_v2.stl_id_5_copy_0 CENTER=95.5,110 POLYGON=[[83.5,107.1],[107.5,107.1],[107.5,112.9],[83.5,112.9],[83.5,107.1]]
EXCLUDE_OBJECT_DEFINE NAME=cableChain_linkCover_v2.stl_id_6_copy_0 CENTER=95.5,99.2 POLYGON=[[83.5,96.3001],[107.5,96.3001],[107.5,102.1],[83.5,102.1],[83.5,96.3001]]
EXCLUDE_OBJECT_DEFINE NAME=cableChain_linkCover_v2.stl_id_7_copy_0 CENTER=95.5,120.8 POLYGON=[[83.5,117.9],[107.5,117.9],[107.5,123.7],[83.5,123.7],[83.5,117.9]]
EXCLUDE_OBJECT_DEFINE NAME=cableChain_linkCover_v2.stl_id_8_copy_0 CENTER=95.5,88.4001 POLYGON=[[83.5,85.5001],[107.5,85.5001],[107.5,91.3001],[83.5,91.3001],[83.5,85.5001]]
EXCLUDE_OBJECT_DEFINE NAME=cableChain_linkCover_v2.stl_id_9_copy_0 CENTER=95.5,131.6 POLYGON=[[83.5,128.7],[107.5,128.7],[107.5,134.5],[83.5,134.5],[83.5,128.7]]
M73 P0 R32
;TYPE:Custom
START_PRINT EXTRUDER_TEMP=235  BED_TEMP=80
G90
G21
M83 ; use relative distances for extrusion
; filament start gcode
M106 S0
;LAYER_CHANGE
;Z:0.2
;HEIGHT:0.2
;BEFORE_LAYER_CHANGE
;0.2
G92 E0

G1 E-4 F1800
;_SET_FAN_SPEED_CHANGING_LAYER
SET_VELOCITY_LIMIT SQUARE_CORNER_VELOCITY=8
G1 Z.4 F12000
G1 X74.195 Y76.794
G1 Z.4
G1 Z.2
G1 E4 F1800
;TYPE:Skirt
;WIDTH:0.5
G1 F900
G1 X76.646 Y74.758 E.12111
G1 X79.526 Y73.393 E.12111
G1 X83.5 Y72.758 E.15295
G1 X136.5 Y72.758 E2.01434
G1 X139.662 Y73.156 E.12111
G1 X142.625 Y74.326 E.12111
G1 X145.206 Y76.196 E.12111
G1 X147.242 Y78.647 E.12111
G1 X148.607 Y81.526 E.12111
G1 X149.242 Y85.5 E.15295
M73 P0 R31
G1 X149.242 Y134.5 E1.8623
G1 X148.844 Y137.661 E.12111
G1 X147.674 Y140.625 E.12111
G1 X145.805 Y143.206 E.12111
G1 X143.354 Y145.242 E.12111
G1 X140.474 Y146.607 E.12111
G1 X136.5 Y147.242 E.15295
G1 X83.5 Y147.242 E2.01434
G1 X80.338 Y146.844 E.12111
G1 X77.375 Y145.674 E.12111
G1 X74.794 Y143.804 E.12111
G1 X72.758 Y141.353 E.12111
G1 X71.393 Y138.474 E.12111
G1 X70.758 Y134.5 E.15295
G1 X70.758 Y85.5 E1.8623
M73 P1 R31
G1 X71.156 Y82.339 E.12111
G1 X72.326 Y79.375 E.12111
G1 X74.172 Y76.826 E.11959
G1 X74.553 Y77.109 F12000
G1 F900
G1 X74.647 Y76.983 E.00598
G1 X77.085 Y75.022 E.11891
G1 X79.94 Y73.742 E.11891
G1 X83.5 Y73.215 E.13679
G1 X136.5 Y73.215 E2.01434
G1 X139.603 Y73.613 E.11891
G1 X142.505 Y74.782 E.11891
G1 X145.018 Y76.647 E.11891
G1 X146.978 Y79.085 E.11891
G1 X148.258 Y81.94 E.11891
G1 X148.785 Y85.5 E.13679
G1 X148.785 Y134.5 E1.8623
G1 X148.387 Y137.603 E.11891
G1 X147.218 Y140.505 E.11891
G1 X145.353 Y143.017 E.11891
G1 X142.915 Y144.978 E.11891
G1 X140.06 Y146.258 E.11891
G1 X136.5 Y146.785 E.13679
G1 X83.5 Y146.785 E2.01434
G1 X80.397 Y146.387 E.11891
G1 X77.495 Y145.218 E.11891
G1 X74.982 Y143.353 E.11891
G1 X73.022 Y140.915 E.11891
G1 X71.742 Y138.06 E.11891
G1 X71.215 Y134.5 E.13679
G1 X71.215 Y85.5 E1.8623
G1 X71.613 Y82.397 E.11891
M73 P2 R31
G1 X72.782 Y79.495 E.11891
G1 X74.529 Y77.141 E.1114
G1 X74.905 Y77.428 F12000
G1 F900
G1 X75.097 Y77.175 E.01205
G1 X77.522 Y75.293 E.11667
G1 X80.35 Y74.099 E.11667
G1 X83.5 Y73.672 E.12081
G1 X136.5 Y73.672 E2.01434
G1 X139.544 Y74.07 E.11667
G1 X142.382 Y75.238 E.11667
G1 X144.825 Y77.097 E.11667
G1 X146.707 Y79.523 E.11667
G1 X147.901 Y82.35 E.11667
G1 X148.328 Y85.5 E.12081
G1 X148.328 Y134.5 E1.8623
G1 X147.93 Y137.544 E.11667
G1 X146.762 Y140.382 E.11667
G1 X144.903 Y142.825 E.11667
G1 X142.478 Y144.707 E.11667
G1 X139.65 Y145.901 E.11667
G1 X136.5 Y146.328 E.12081
G1 X83.5 Y146.328 E2.01434
G1 X80.456 Y145.93 E.11667
G1 X77.618 Y144.762 E.11667
G1 X75.175 Y142.903 E.11667
G1 X73.293 Y140.477 E.11667
G1 X72.099 Y137.65 E.11667
G1 X71.672 Y134.5 E.12081
G1 X71.672 Y85.5 E1.8623
G1 X72.07 Y82.456 E.11667
G1 X73.238 Y79.618 E.11667
G1 X74.881 Y77.459 E.10309
G1 X75.252 Y77.75 F12000
G1 F900
G1 X75.548 Y77.372 E.01821
G1 X77.958 Y75.571 E.11438
M73 P3 R31
G1 X80.757 Y74.465 E.11438
G1 X83.5 Y74.129 E.10503
G1 X136.5 Y74.129 E2.01434
G1 X139.483 Y74.527 E.11438
G1 X142.257 Y75.694 E.11438
G1 X144.628 Y77.548 E.11438
G1 X146.429 Y79.958 E.11438
G1 X147.535 Y82.757 E.11438
G1 X147.871 Y85.5 E.10503
G1 X147.871 Y134.5 E1.8623
G1 X147.473 Y137.483 E.11438
G1 X146.306 Y140.257 E.11438
G1 X144.452 Y142.628 E.11438
M73 P3 R30
G1 X142.042 Y144.429 E.11438
G1 X139.243 Y145.535 E.11438
G1 X136.5 Y145.871 E.10503
G1 X83.5 Y145.871 E2.01434
G1 X80.517 Y145.473 E.11438
G1 X77.743 Y144.306 E.11438
G1 X75.372 Y142.452 E.11438
G1 X73.571 Y140.042 E.11438
G1 X72.465 Y137.243 E.11438
G1 X72.129 Y134.5 E.10503
G1 X72.129 Y85.5 E1.8623
G1 X72.527 Y82.517 E.11438
G1 X73.694 Y79.743 E.11438
G1 X75.228 Y77.781 E.09465
G1 X75.594 Y78.076 F12000
G1 F900
G1 X75.997 Y77.574 E.02447
G1 X78.392 Y75.855 E.11205
G1 X81.16 Y74.84 E.11205
G1 X83.5 Y74.586 E.08945
G1 X136.5 Y74.586 E2.01434
M73 P4 R30
G1 X139.421 Y74.984 E.11205
G1 X142.129 Y76.15 E.11205
G1 X144.426 Y77.997 E.11205
G1 X146.145 Y80.392 E.11205
G1 X147.16 Y83.16 E.11205
G1 X147.414 Y85.5 E.08945
G1 X147.414 Y134.5 E1.8623
G1 X147.016 Y137.421 E.11205
G1 X145.851 Y140.129 E.11205
G1 X144.003 Y142.426 E.11205
G1 X141.608 Y144.145 E.11205
G1 X138.84 Y145.16 E.11205
G1 X136.5 Y145.414 E.08945
G1 X83.5 Y145.414 E2.01434
G1 X80.579 Y145.016 E.11205
G1 X77.871 Y143.85 E.11205
G1 X75.574 Y142.003 E.11205
G1 X73.855 Y139.608 E.11205
G1 X72.84 Y136.84 E.11205
G1 X72.586 Y134.5 E.08945
G1 X72.586 Y85.5 E1.8623
G1 X72.984 Y82.579 E.11205
G1 X74.149 Y79.871 E.11205
G1 X75.569 Y78.107 E.08606
G1 X75.929 Y78.405 F12000
G1 F900
G1 X76.446 Y77.78 E.03083
G1 X78.824 Y76.147 E.10966
G1 X81.559 Y75.225 E.10966
G1 X83.5 Y75.043 E.07411
G1 X136.5 Y75.043 E2.01434
M73 P5 R30
G1 X139.358 Y75.441 E.10966
G1 X141.998 Y76.605 E.10966
G1 X144.22 Y78.446 E.10966
G1 X145.854 Y80.825 E.10966
G1 X146.775 Y83.559 E.10966
G1 X146.957 Y85.5 E.07411
G1 X146.957 Y134.5 E1.8623
G1 X146.559 Y137.358 E.10966
G1 X145.395 Y139.998 E.10966
G1 X143.554 Y142.22 E.10966
G1 X141.176 Y143.853 E.10966
G1 X138.441 Y144.775 E.10966
G1 X136.5 Y144.957 E.07411
G1 X83.5 Y144.957 E2.01434
G1 X80.642 Y144.559 E.10966
G1 X78.002 Y143.395 E.10966
G1 X75.78 Y141.554 E.10966
G1 X74.146 Y139.175 E.10966
G1 X73.225 Y136.441 E.10966
G1 X73.043 Y134.5 E.07411
G1 X73.043 Y85.5 E1.8623
G1 X73.441 Y82.642 E.10966
G1 X74.605 Y80.002 E.10966
G1 X75.903 Y78.436 E.07731
; printing object cableChain_linkCover_v2.stl id:9 copy 0
G1 E-2.8 F1800
;WIPE_START
G1 F900
G1 X76.446 Y77.78 E-1.02145
G1 X76.569 Y77.696 E-.17855
;WIPE_END
EXCLUDE_OBJECT_START NAME=cableChain_linkCover_v2.stl_id_9_copy_0
G1 Z.6 F12000
G1 X106.176 Y130.665 Z.6
G1 Z.2
G1 E4 F1800
;TYPE:Inner wall
;WIDTH:0.504838
G1 F900
G1 X106.791 Y130.075 E.03269
G1 X106.791 Y131.208 E.04351
G1 X106.621 Y130.918 E.01291
G1 X106.211 Y130.684 E.01814
G1 E-2.8 F1800
;WIPE_START
G1 F900
G1 X106.791 Y130.075 E-1.00878
G1 X106.791 Y130.235 E-.19122
;WIPE_END
G1 Z.6 F12000
G1 X106.26 Y133.26 Z.6
G1 X84.74 Y133.26
G1 X84.209 Y131.208
G1 Z.2
G1 E4 F1800
;WIDTH:0.504839
G1 F900
G1 X84.209 Y130.075 E.04351
G1 X84.824 Y130.665 E.03269
G1 X84.379 Y130.918 E.01968
G1 X84.23 Y131.174 E.01137
G1 E-4 F1800
G1 Z.6 F12000
G1 X84.57 Y133.55 Z.6
G1 Z.2
G1 E4 F1800
;TYPE:Outer wall
;WIDTH:0.709922
M73 P6 R30
G1 F900
G1 X84.636 Y133.564 E.00376
;WIDTH:0.675691
G1 X84.719 Y133.581 E.00444
;WIDTH:0.64146
G1 X106.281 Y133.581 E1.07316
;WIDTH:0.675691
G1 X106.364 Y133.564 E.00444
;WIDTH:0.709922
G1 X106.447 Y133.546 E.00468
;WIDTH:0.744153
G1 X106.529 Y133.529 E.00492
G1 X106.546 Y133.447 E.00492
;WIDTH:0.709922
G1 X106.564 Y133.364 E.00468
;WIDTH:0.675691
G1 X106.581 Y133.281 E.00444
;WIDTH:0.641459
G1 X106.581 Y131.516 E.08787
G1 X106.519 Y131.45 E.00452
;WIDTH:0.594306
G1 X106.457 Y131.383 E.00416
;WIDTH:0.547153
G1 X106.394 Y131.317 E.00381
;WIDTH:0.499999
G1 X105.51 Y130.814 E.03866
G1 X105.51 Y130.667 E.00562
G1 X107.25 Y128.998 E.09161
G1 X107.25 Y130.819 E.06921
;WIDTH:0.547153
G1 X107.226 Y131.052 E.00978
;WIDTH:0.594306
G1 X107.203 Y131.284 E.0107
;WIDTH:0.641459
G1 X107.179 Y131.516 E.01161
G1 X107.179 Y133.281 E.08787
;WIDTH:0.669075
G1 X107.165 Y133.538 E.01341
;WIDTH:0.706614
G1 X107.147 Y133.833 E.01629
;WIDTH:0.744153
G1 X107.128 Y134.128 E.01722
G1 X106.846 Y134.145 E.01648
;WIDTH:0.709922
G1 X106.564 Y134.162 E.01568
;WIDTH:0.675691
G1 X106.281 Y134.179 E.01487
;WIDTH:0.64146
G1 X84.719 Y134.179 E1.07316
;WIDTH:0.675691
G1 X84.436 Y134.162 E.01487
;WIDTH:0.709922
G1 X84.154 Y134.145 E.01568
;WIDTH:0.744152
G1 X83.872 Y134.128 E.01648
G1 X83.855 Y133.846 E.01648
;WIDTH:0.709922
G1 X83.838 Y133.564 E.01568
;WIDTH:0.675691
G1 X83.821 Y133.281 E.01487
;WIDTH:0.64146
G1 X83.821 Y131.516 E.08787
G1 X83.797 Y131.284 E.01161
;WIDTH:0.594307
G1 X83.774 Y131.052 E.0107
;WIDTH:0.547153
G1 X83.75 Y130.819 E.00978
;WIDTH:0.499999
G1 X83.75 Y128.998 E.06921
G1 X85.49 Y130.667 E.09161
G1 X85.49 Y130.814 E.00562
G1 X84.606 Y131.317 E.03866
;WIDTH:0.547153
G1 X84.543 Y131.383 E.00381
;WIDTH:0.594307
G1 X84.481 Y131.45 E.00416
;WIDTH:0.64146
G1 X84.419 Y131.516 E.00452
G1 X84.419 Y133.281 E.08787
;WIDTH:0.675691
G1 X84.436 Y133.364 E.00444
;WIDTH:0.709922
G1 X84.454 Y133.447 E.00468
;WIDTH:0.744152
G1 X84.471 Y133.529 E.00492
G1 X84.53 Y133.542 E.00356
; stop printing object cableChain_linkCover_v2.stl id:9 copy 0
; printing object cableChain_linkCover_v2.stl id:7 copy 0
G1 E-2.8 F1800
;WIPE_START
G1 F900
G1 X84.636 Y133.564 E-.12931
G1 X84.719 Y133.581 E-.10127
G1 X85.526 Y133.581 E-.96942
;WIPE_END
EXCLUDE_OBJECT_END NAME=cableChain_linkCover_v2.stl_id_9_copy_0
EXCLUDE_OBJECT_START NAME=cableChain_linkCover_v2.stl_id_7_copy_0
G1 Z.6 F12000
G1 X106.176 Y119.865 Z.6
G1 Z.2
G1 E4 F1800
;TYPE:Inner wall
;WIDTH:0.504838
G1 F900
G1 X106.791 Y119.275 E.03269
G1 X106.791 Y120.408 E.04351
G1 X106.621 Y120.118 E.01291
G1 X106.211 Y119.884 E.01814
G1 E-2.8 F1800
;WIPE_START
G1 F900
G1 X106.791 Y119.275 E-1.00878
G1 X106.791 Y119.435 E-.19122
;WIPE_END
G1 Z.6 F12000
G1 X106.26 Y122.46 Z.6
G1 X84.74 Y122.46
G1 X84.209 Y120.408
G1 Z.2
G1 E4 F1800
;WIDTH:0.504839
G1 F900
G1 X84.209 Y119.275 E.04351
G1 X84.824 Y119.865 E.03269
G1 X84.379 Y120.118 E.01968
G1 X84.23 Y120.374 E.01137
G1 E-4 F1800
G1 Z.6 F12000
G1 X84.57 Y122.75 Z.6
G1 Z.2
G1 E4 F1800
;TYPE:Outer wall
;WIDTH:0.709922
G1 F900
G1 X84.636 Y122.764 E.00376
;WIDTH:0.675691
G1 X84.719 Y122.781 E.00444
;WIDTH:0.64146
G1 X106.281 Y122.781 E1.07316
;WIDTH:0.675691
G1 X106.364 Y122.764 E.00444
;WIDTH:0.709922
G1 X106.447 Y122.746 E.00468
;WIDTH:0.744153
G1 X106.529 Y122.729 E.00492
G1 X106.546 Y122.647 E.00492
;WIDTH:0.709922
G1 X106.564 Y122.564 E.00468
;WIDTH:0.675691
G1 X106.581 Y122.481 E.00444
;WIDTH:0.641459
G1 X106.581 Y120.716 E.08787
G1 X106.519 Y120.65 E.00452
;WIDTH:0.594306
G1 X106.457 Y120.583 E.00416
;WIDTH:0.547153
G1 X106.394 Y120.517 E.00381
;WIDTH:0.499999
G1 X105.51 Y120.014 E.03866
G1 X105.51 Y119.867 E.00562
G1 X107.25 Y118.198 E.09161
G1 X107.25 Y120.019 E.06921
;WIDTH:0.547153
G1 X107.226 Y120.252 E.00978
;WIDTH:0.594306
G1 X107.203 Y120.484 E.0107
;WIDTH:0.641459
G1 X107.179 Y120.716 E.01161
G1 X107.179 Y122.481 E.08787
;WIDTH:0.669075
G1 X107.165 Y122.739 E.01341
;WIDTH:0.706614
G1 X107.147 Y123.033 E.01629
;WIDTH:0.744153
G1 X107.128 Y123.328 E.01722
G1 X106.846 Y123.345 E.01648
;WIDTH:0.709922
G1 X106.564 Y123.362 E.01568
;WIDTH:0.675691
G1 X106.281 Y123.379 E.01487
;WIDTH:0.64146
G1 X84.719 Y123.379 E1.07316
;WIDTH:0.675691
M73 P6 R29
G1 X84.436 Y123.362 E.01487
;WIDTH:0.709922
G1 X84.154 Y123.345 E.01568
;WIDTH:0.744152
G1 X83.872 Y123.328 E.01648
G1 X83.855 Y123.046 E.01648
;WIDTH:0.709922
G1 X83.838 Y122.764 E.01568
;WIDTH:0.675691
G1 X83.821 Y122.481 E.01487
;WIDTH:0.64146
G1 X83.821 Y120.716 E.08787
G1 X83.797 Y120.484 E.01161
;WIDTH:0.594307
G1 X83.774 Y120.252 E.0107
;WIDTH:0.547153
G1 X83.75 Y120.019 E.00978
;WIDTH:0.499999
G1 X83.75 Y118.198 E.06921
G1 X85.49 Y119.867 E.09161
G1 X85.49 Y120.014 E.00562
G1 X84.606 Y120.517 E.03866
;WIDTH:0.547153
G1 X84.543 Y120.583 E.00381
;WIDTH:0.594307
G1 X84.481 Y120.65 E.00416
;WIDTH:0.64146
G1 X84.419 Y120.716 E.00452
G1 X84.419 Y122.481 E.08787
;WIDTH:0.675691
G1 X84.436 Y122.564 E.00444
;WIDTH:0.709922
G1 X84.454 Y122.647 E.00468
;WIDTH:0.744152
G1 X84.471 Y122.729 E.00492
G1 X84.53 Y122.742 E.00356
; stop printing object cableChain_linkCover_v2.stl id:7 copy 0
; printing object cableChain_linkCover_v2.stl id:5 copy 0
G1 E-2.8 F1800
;WIPE_START
G1 F900
G1 X84.636 Y122.764 E-.12931
G1 X84.719 Y122.781 E-.10127
G1 X85.526 Y122.781 E-.96942
;WIPE_END
EXCLUDE_OBJECT_END NAME=cableChain_linkCover_v2.stl_id_7_copy_0
EXCLUDE_OBJECT_START NAME=cableChain_linkCover_v2.stl_id_5_copy_0
G1 Z.6 F12000
G1 X106.176 Y109.065 Z.6
G1 Z.2
G1 E4 F1800
;TYPE:Inner wall
;WIDTH:0.504838
G1 F900
