; HEADER_BLOCK_START
; generated by OrcaSlicer 1.7.0 on 2023-11-19 at 20:13:38
; total layer number: 60
; HEADER_BLOCK_END

; THUMBNAIL_BLOCK_START
; THUMBNAIL_BLOCK_END

; external perimeters extrusion width = 0.40mm
; perimeters extrusion width = 0.45mm
; infill extrusion width = 0.45mm
; solid infill extrusion width = 0.40mm
; top infill extrusion width = 0.40mm
; first layer extrusion width = 0.50mm

; EXECUTABLE_BLOCK_START
M73 P0 R17


; Pre-Processed for Cancel-Object support by preprocess_cancellation v0.2.0
; 1 known objects
EXCLUDE_OBJECT_DEFINE NAME=cableChain_link_v3_stl_id_18380610128633561578_copy_0 CENTER=110.122,108.968 POLYGON=[[98.134,96.21],[98.134,123.79],[121.866,123.79],[121.866,96.21]]
M201 X500 Y500 Z100 E5000
M203 X500 Y500 Z10 E60
M204 P500 R1000 T500
M205 X8.00 Y8.00 Z0.40 E5.00 ; sets the jerk limits, mm/sec
M190 S60 ; set bed temperature and wait for it to be reached
M104 S220 ; set nozzle temperature
;TYPE:Custom
START_PRINT EXTRUDER_TEMP=220  BED_TEMP=60
G90
G21
M83 ; use relative distances for extrusion
; filament start gcode
M106 S0
;LAYER_CHANGE
;Z:0.2
;HEIGHT:0.2
;BEFORE_LAYER_CHANGE
;0.2
G92 E0

G1 E-5 F3600
;_SET_FAN_SPEED_CHANGING_LAYER
M204 S500
G1 X98.536 Y98.902 F9000
G1 Z.4
G1 Z.2
G1 E5 F2400
;TYPE:Skirt
;WIDTH:0.5
G1 F900
G1 X99.84 Y98.528 E.05053
G1 X120.16 Y98.528 E.75684
G1 X121.491 Y98.919 E.05169
G1 X122.384 Y99.941 E.05053
G1 X124.026 Y103.438 E.14389
G1 X124.259 Y104.482 E.03984
G1 X124.259 Y117.995 E.50332
G1 X124.147 Y119.255 E.04711
G1 X123.627 Y120.542 E.05169
G1 X122.493 Y121.341 E.05169
G1 X121.701 Y121.472 E.02988
G1 X98.299 Y121.472 E.87167
G1 X96.967 Y121.081 E.05169
G1 X96.061 Y120.03 E.05169
G1 X95.853 Y119.255 E.02988
G1 X95.753 Y118.235 E.03818
G1 X95.741 Y104.482 E.51225
G1 X95.974 Y103.438 E.03984
G1 X97.616 Y99.941 E.14389
G1 X98.51 Y98.932 E.0502
; printing object cableChain_link_v3.stl id:18380610128633561578 copy 0
EXCLUDE_OBJECT_START NAME=cableChain_link_v3_stl_id_18380610128633561578_copy_0
G1 E-3.5 F3600
;WIPE_START
G1 F900
G1 X99.466 Y98.641 E-1.5
;WIPE_END
G17
G3 Z.6 I-.392 J1.152 P1  F9000
G1 X119.964 Y105.612 Z.6
G1 Z.2
G1 E5 F2400
;TYPE:Inner wall
;WIDTH:0.499999
G1 F900
G1 X120.139 Y105.646 E.00662
G1 X120.637 Y105.646 E.01858
G1 X120.637 Y106.145 E.01858
G1 X120.637 Y113.272 E.26548
G1 X120.381 Y113.187 E.01005
G1 X99.619 Y113.187 E.77334
M73 P1 R17
G1 X99.363 Y113.272 E.01005
G1 X99.363 Y105.646 E.28406
G1 X99.861 Y105.646 E.01858
G1 X100.292 Y105.562 E.01635
G1 X100.537 Y105.425 E.01045
G1 X100.773 Y105.192 E.01236
G1 X100.958 Y104.825 E.01528
G1 X101.004 Y104.503 E.01212
G1 X101.004 Y103.057 E.05386
G1 X101.459 Y103.209 E.01784
G1 X118.541 Y103.209 E.63627
G1 X118.996 Y103.057 E.01784
G1 X118.996 Y104.503 E.05386
G1 X119.042 Y104.825 E.01212
G1 X119.132 Y105.044 E.0088
G1 X119.32 Y105.3 E.01185
G1 X119.708 Y105.562 E.01741
G1 X119.925 Y105.604 E.00824
G1 X120.051 Y105.172 F9000
G1 F900
G1 X120.139 Y105.189 E.00331
G1 X121.094 Y105.189 E.0356
G1 X121.094 Y106.145 E.0356
G1 X121.094 Y113.63 E.27882
;WIDTH:0.527314
G1 X121.081 Y114.33 E.02761
G1 X120.793 Y113.781 E.02445
;WIDTH:0.499999
G1 X120.381 Y113.644 E.01615
G1 X99.619 Y113.644 E.77334
G1 X99.207 Y113.781 E.01615
;WIDTH:0.527314
G1 X98.919 Y114.33 E.02445
G1 X98.906 Y113.63 E.02761
;WIDTH:0.499999
G1 X98.906 Y105.189 E.31442
G1 X99.861 Y105.189 E.0356
G1 X100.12 Y105.138 E.00981
G1 X100.267 Y105.056 E.00627
G1 X100.466 Y104.828 E.01128
G1 X100.547 Y104.503 E.01246
G1 X100.547 Y102.864 E.06104
G1 X100.529 Y102.645 E.00822
;WIDTH:0.463477
G1 X100.511 Y102.425 E.00756
;WIDTH:0.426954
G1 X100.492 Y102.205 E.0069
;WIDTH:0.390431
G1 X100.489 Y101.634 E.01617
;WIDTH:0.38438
G1 X100.831 Y101.634 E.0095
;WIDTH:0.390431
G1 X100.837 Y102.175 E.01532
;WIDTH:0.426954
G1 X100.907 Y102.321 E.00508
;WIDTH:0.463477
G1 X100.977 Y102.468 E.00556
;WIDTH:0.499999
G1 X101.047 Y102.614 E.00605
G1 X101.459 Y102.752 E.01615
G1 X118.541 Y102.752 E.63627
G1 X118.953 Y102.614 E.01615
G1 X119.023 Y102.468 E.00605
;WIDTH:0.463476
G1 X119.093 Y102.321 E.00556
;WIDTH:0.426953
G1 X119.163 Y102.175 E.00508
;WIDTH:0.390429
G1 X119.169 Y101.634 E.01532
;WIDTH:0.384379
G1 X119.511 Y101.634 E.0095
;WIDTH:0.390429
G1 X119.508 Y102.205 E.01617
;WIDTH:0.426953
G1 X119.489 Y102.425 E.0069
;WIDTH:0.463476
G1 X119.471 Y102.645 E.00756
;WIDTH:0.499999
G1 X119.453 Y102.864 E.00822
G1 X119.453 Y103.663 E.02974
G1 X119.481 Y104.696 E.03851
G1 X119.647 Y104.982 E.0123
G1 X119.88 Y105.138 E.01045
G1 X120.012 Y105.164 E.00501
G1 X120.139 Y104.732 F9000
;TYPE:Outer wall
G1 F900
G1 X121.551 Y104.732 E.05263
G1 X121.551 Y106.145 E.05263
G1 X121.551 Y117.983 E.44093
G1 X121.475 Y118.765 E.02928
G1 X120.61 Y118.765 E.03221
G1 X120.61 Y114.33 E.16521
G1 X120.519 Y114.147 E.00761
G1 X120.381 Y114.101 E.00538
G1 X99.619 Y114.101 E.77334
G1 X99.481 Y114.147 E.00538
G1 X99.39 Y114.33 E.00761
G1 X99.39 Y118.765 E.16521
M73 P2 R17
G1 X98.525 Y118.765 E.03221
G1 X98.449 Y117.983 E.02928
G1 X98.449 Y104.732 E.49355
G1 X99.861 Y104.732 E.05263
G1 X100.025 Y104.663 E.00662
G1 X100.09 Y104.503 E.00641
G1 X100.09 Y101.235 E.12174
G1 X101.23 Y101.235 E.04246
G1 X101.23 Y102.066 E.03096
G1 X101.321 Y102.249 E.00761
G1 X101.459 Y102.294 E.00538
G1 X118.541 Y102.294 E.63627
G1 X118.679 Y102.249 E.00538
G1 X118.77 Y102.066 E.00761
G1 X118.77 Y101.235 E.03096
G1 X119.91 Y101.235 E.04246
G1 X119.91 Y104.503 E.12174
G1 X119.975 Y104.663 E.00641
G1 X120.102 Y104.716 E.00513
G1 E-3.5 F3600
;WIPE_START
G1 F900
G1 X121.102 Y104.727 E-1.5
;WIPE_END
G17
G3 Z.6 I-1.217 J-.003 P1  F9000
G1 X121.064 Y118.312 Z.6
G1 Z.2
G1 E5 F2400
;TYPE:Inner wall
;WIDTH:0.527314
G1 F900
G1 X121.081 Y117.96 E.01391
G1 X121.081 Y114.33 E.14329
G1 E-3.5 F3600
;WIPE_START
G1 F900
G1 X121.081 Y115.33 E-1.5
;WIPE_END
G17
G3 Z.6 I-.162 J-1.206 P1  F9000
G1 X98.936 Y118.312 Z.6
G1 Z.2
G1 E5 F2400
G1 F900
G1 X98.919 Y117.96 E.01391
G1 X98.919 Y114.33 E.14329
G1 E-3.5 F3600
;WIPE_START
G1 F900
G1 X98.919 Y115.33 E-1.5
;WIPE_END
G17
G3 Z.6 I.595 J1.062 P1  F9000
G1 X118.85 Y104.168 Z.6
G1 Z.2
G1 E5 F2400
;TYPE:Bottom surface
;WIDTH:0.502431
G1 F1200
G1 X118.242 Y103.561 E.03217
G1 X117.592 Y103.561 E.02433
G1 X118.661 Y104.629 E.05658
G1 X118.703 Y104.922 E.0111
G1 X118.82 Y105.209 E.0116
G1 X118.945 Y105.403 E.00864
G1 X119.068 Y105.547 E.0071
G1 X119.256 Y105.71 E.00932
G1 X119.579 Y105.891 E.01382
G1 X120.006 Y105.974 E.01631
G1 X120.285 Y106.254 E.01479
G1 X120.285 Y106.903 E.02433
G1 X116.942 Y103.561 E.17702
G1 X116.293 Y103.561 E.02433
G1 X120.285 Y107.553 E.21143
G1 X120.285 Y108.203 E.02433
G1 X115.643 Y103.561 E.24585
G1 X114.993 Y103.561 E.02433
G1 X120.285 Y108.853 E.28026
G1 X120.285 Y109.503 E.02433
G1 X114.343 Y103.561 E.31467
G1 X113.693 Y103.561 E.02433
G1 X120.285 Y110.153 E.34908
G1 X120.285 Y110.803 E.02433
G1 X113.043 Y103.561 E.38349
M73 P3 R17
G1 X112.394 Y103.561 E.02433
G1 X120.285 Y111.452 E.41791
G1 X120.285 Y112.102 E.02433
G1 X111.744 Y103.561 E.45232
G1 X111.094 Y103.561 E.02433
G1 X120.285 Y112.752 E.48673
G1 X120.285 Y112.844 E.00345
G1 X119.728 Y112.844 E.02088
G1 X110.444 Y103.561 E.49161
G1 X109.794 Y103.561 E.02433
G1 X119.078 Y112.844 E.49161
G1 X118.428 Y112.844 E.02433
G1 X109.144 Y103.561 E.49161
G1 X108.494 Y103.561 E.02433
G1 X117.778 Y112.844 E.49161
G1 X117.128 Y112.844 E.02433
G1 X107.845 Y103.561 E.49161
G1 X107.195 Y103.561 E.02433
G1 X116.478 Y112.844 E.49161
G1 X115.829 Y112.844 E.02433
G1 X106.545 Y103.561 E.49161
G1 X105.895 Y103.561 E.02433
G1 X115.179 Y112.844 E.49161
G1 X114.529 Y112.844 E.02433
G1 X105.245 Y103.561 E.49161
G1 X104.595 Y103.561 E.02433
G1 X113.879 Y112.844 E.49161
G1 X113.229 Y112.844 E.02433
G1 X103.946 Y103.561 E.49161
M73 P3 R16
G1 X103.296 Y103.561 E.02433
G1 X112.579 Y112.844 E.49161
G1 X111.93 Y112.844 E.02433
M73 P4 R16
G1 X102.646 Y103.561 E.49161
G1 X101.996 Y103.561 E.02433
G1 X111.28 Y112.844 E.49161
G1 X110.63 Y112.844 E.02433
G1 X101.356 Y103.57 E.49108
G1 X101.356 Y104.22 E.02433
G1 X109.98 Y112.844 E.45667
G1 X109.33 Y112.844 E.02433
G1 X101.311 Y104.825 E.42464
G1 X101.297 Y104.922 E.00368
G1 X101.18 Y105.209 E.0116
G1 X101.127 Y105.291 E.00364
G1 X108.68 Y112.844 E.39998
G1 X108.03 Y112.844 E.02433
G1 X100.826 Y105.639 E.38153
G1 X100.744 Y105.71 E.00406
G1 X100.425 Y105.889 E.01367
G1 X107.381 Y112.844 E.36833
G1 X106.731 Y112.844 E.02433
G1 X99.883 Y105.996 E.36264
G1 X99.715 Y105.998 E.00629
G1 X99.715 Y106.478 E.01798
G1 X106.081 Y112.844 E.33712
G1 X105.431 Y112.844 E.02433
G1 X99.715 Y107.128 E.30271
G1 X99.715 Y107.778 E.02433
G1 X104.781 Y112.844 E.2683
G1 X104.131 Y112.844 E.02433
G1 X99.715 Y108.427 E.23388
G1 X99.715 Y109.077 E.02433
G1 X103.481 Y112.844 E.19947
G1 X102.832 Y112.844 E.02433
G1 X99.715 Y109.727 E.16506
G1 X99.715 Y110.377 E.02433
G1 X102.182 Y112.844 E.13065
G1 X101.532 Y112.844 E.02433
G1 X99.715 Y111.027 E.09624
G1 X99.715 Y111.677 E.02433
G1 X100.882 Y112.844 E.06182
G1 X100.232 Y112.844 E.02433
G1 X99.509 Y112.121 E.0383
; stop printing object cableChain_link_v3.stl id:18380610128633561578 copy 0
EXCLUDE_OBJECT_END NAME=cableChain_link_v3_stl_id_18380610128633561578_copy_0
M106 S255
;LAYER_CHANGE
;Z:0.4
;HEIGHT:0.2
;BEFORE_LAYER_CHANGE
;0.4
G92 E0

G1 E-3.5 F3600
;WIPE_START
G1 F1200
G1 X100.216 Y112.828 E-1.5
;WIPE_END
;_SET_FAN_SPEED_CHANGING_LAYER
; printing object cableChain_link_v3.stl id:18380610128633561578 copy 0
EXCLUDE_OBJECT_START NAME=cableChain_link_v3_stl_id_18380610128633561578_copy_0
M204 S700
G17
G3 Z.6 I.465 J1.125 P1  F9000
G1 X119.184 Y104.987 Z.6
G1 Z.4
G1 E5 F2400
M204 S500
;TYPE:Inner wall
;WIDTH:0.449999
G1 X119.199 Y105.11 E.00412
G1 X119.325 Y105.401 E.01053
G1 X119.501 Y105.605 E.00893
G1 X119.824 Y105.792 E.01237
G1 X120.139 Y105.845 E.01059
G1 X121.011 Y105.845 E.02894
G1 X121.011 Y106.717 E.02894
G1 X121.011 Y113.653 E.23007
G1 X120.962 Y113.556 E.00362
G1 X120.381 Y113.362 E.0203
G1 X99.619 Y113.362 E.68874
M73 P5 R16
G1 X99.038 Y113.556 E.0203
G1 X98.989 Y113.653 E.00362
G1 X98.989 Y105.845 E.25901
G1 X99.861 Y105.845 E.02894
G1 X100.176 Y105.792 E.01059
G1 X100.374 Y105.698 E.00726
G1 X100.597 Y105.506 E.00976
G1 X100.742 Y105.279 E.00893
G1 X100.829 Y104.877 E.01364
G1 X100.829 Y102.761 E.07022
G1 X100.878 Y102.84 E.00309
G1 X101.459 Y103.034 E.0203
G1 X118.541 Y103.034 E.56667
G1 X119.122 Y102.84 E.0203
G1 X119.171 Y102.761 E.00309
G1 X119.171 Y104.877 E.07022
G1 X119.179 Y104.947 E.00233
M204 S700
G1 X119.584 Y104.93 F9000
M204 S500
G1 F2400
G1 X119.594 Y105.012 E.00273
G1 X119.667 Y105.181 E.0061
G1 X119.842 Y105.353 E.00812
G1 X120.139 Y105.438 E.01025
G1 X121.418 Y105.438 E.04244
G1 X121.418 Y106.717 E.04244
G1 X121.418 Y113.531 E.22603
;WIDTH:0.48438
G1 X121.401 Y114.33 E.02873
G1 X121.401 Y117.96 E.1306
G1 X121.362 Y118.494 E.01926
;WIDTH:0.459262
G1 F1222.28
G1 X121.324 Y119.007 E.01745
;WIDTH:0.434143
G1 F1200
G1 X121.322 Y119.015 E.00026
G1 X121.27 Y119.205 E.00628
G1 F1500
G1 X120.934 Y119.205 E.01071
G1 F1200
G1 X120.934 Y119.015 E.00606
G1 X120.934 Y118.988 E.00086
;WIDTH:0.459262
G1 F1272.137
M106 S255
G1 X120.947 Y118.474 E.01744
;WIDTH:0.48438
G1 F2400
G1 X120.959 Y114.33 E.14908
G1 X120.718 Y113.881 E.01832
;WIDTH:0.449999
G1 X120.381 Y113.769 E.01176
G1 X99.619 Y113.769 E.68874
G1 X99.282 Y113.881 E.01176
;WIDTH:0.48438
G1 X99.041 Y114.33 E.01832
G1 X99.053 Y118.474 E.14908
;WIDTH:0.459262
G1 F1272.137
G1 X99.066 Y118.988 E.01744
;WIDTH:0.434144
G1 F1200
G1 X99.066 Y119.015 E.00086
G1 X99.066 Y119.205 E.00606
G1 F1500
G1 X98.73 Y119.205 E.01071
G1 F1200
G1 X98.678 Y119.015 E.00628
G1 X98.676 Y119.007 E.00026
;WIDTH:0.459262
G1 F1222.28
M106 S255
G1 X98.638 Y118.494 E.01745
;WIDTH:0.48438
G1 F2400
G1 X98.599 Y117.971 E.01887
G1 X98.599 Y114.33 E.13099
G1 X98.582 Y113.531 E.02873
;WIDTH:0.449999
G1 X98.582 Y105.438 E.26847
G1 X99.861 Y105.438 E.04244
G1 X100.044 Y105.407 E.00614
G1 X100.231 Y105.299 E.00717
G1 X100.371 Y105.11 E.00781
G1 X100.422 Y104.877 E.0079
G1 X100.422 Y102.864 E.06677
;WIDTH:0.48438
G1 F1200
G1 X100.438 Y100.985 E.0676
G1 F674.098
G1 X100.439 Y100.82 E.00594
G1 X100.881 Y100.82 E.0159
G1 X100.881 Y100.985 E.00594
G1 F1200
G1 X100.881 Y102.066 E.03889
;WIDTH:0.490431
G1 F2400
M106 S255
G1 X100.886 Y102.166 E.00367
G1 X101.122 Y102.514 E.01533
;WIDTH:0.449999
G1 X101.459 Y102.627 E.01176
G1 X118.541 Y102.627 E.56667
G1 X118.878 Y102.514 E.01176
;WIDTH:0.490429
G1 X119.114 Y102.166 E.01533
G1 X119.119 Y102.066 E.00367
;WIDTH:0.484379
G1 F1200
G1 X119.119 Y100.985 E.03889
G1 F674.097
G1 X119.119 Y100.82 E.00594
G1 X119.561 Y100.82 E.0159
G1 X119.561 Y100.985 E.00594
G1 F1200
G1 X119.561 Y102.066 E.03889
;WIDTH:0.490429
G1 F2400
M106 S255
G1 X119.578 Y102.864 E.02913
;WIDTH:0.449999
G1 X119.578 Y104.877 E.06677
G1 X119.58 Y104.891 E.00044
M204 S700
G1 X119.96 Y104.877 F9000
M204 S500
;TYPE:Outer wall
;WIDTH:0.399999
G1 F1500
G1 X120.003 Y104.993 E.0036
G1 X120.139 Y105.056 E.00436
G1 F1204.419
G1 X121.8 Y105.056 E.04833
G1 X121.8 Y106.717 E.04833
G1 X121.8 Y107.316 E.01743
G1 X121.8 Y117.392 E.29319
G1 X121.8 Y117.991 E.01743
G1 F1200
G1 X121.7 Y119.015 E.02994
G1 F958.437
G1 X121.692 Y119.096 E.00237
G1 X121.657 Y119.215 E.00361
M204 S250
;TYPE:Overhang wall
G1 F1500
G1 X121.551 Y119.579 E.01103
G1 X120.56 Y119.579 E.02884
G1 X120.56 Y119.215 E.0106
M204 S500
;TYPE:Outer wall
G1 F1200
G1 X120.56 Y119.015 E.00582
G1 X120.56 Y118.415 E.01746
M106 S255
G1 F1500
G1 X120.56 Y114.729 E.10725
G1 X120.56 Y114.33 E.01161
G1 X120.489 Y114.187 E.00465
G1 X120.381 Y114.151 E.00331
G1 X99.619 Y114.151 E.60412
G1 X99.511 Y114.187 E.00331
G1 X99.44 Y114.33 E.00465
G1 X99.44 Y114.729 E.01161
G1 X99.44 Y118.415 E.10725
G1 F1200
G1 X99.44 Y119.015 E.01746
G1 X99.44 Y119.215 E.00582
M204 S250
;TYPE:Overhang wall
G1 F1500
G1 X99.44 Y119.579 E.0106
G1 X98.449 Y119.579 E.02884
G1 X98.343 Y119.215 E.01103
M204 S500
;TYPE:Outer wall
G1 F958.437
G1 X98.308 Y119.096 E.00361
G1 X98.3 Y119.015 E.00237
G1 F1200
G1 X98.2 Y117.991 E.02994
M106 S255
G1 F1204.419
G1 X98.2 Y117.392 E.01743
G1 X98.2 Y105.654 E.34155
G1 X98.2 Y105.056 E.0174
G1 X99.861 Y105.056 E.04833
G1 F1500
G1 X99.979 Y105.012 E.00366
G1 X100.04 Y104.877 E.00431
G1 F1200
G1 X100.04 Y100.985 E.11325
G1 X100.04 Y100.785 E.00582
M204 S250
;TYPE:Overhang wall
G1 F1500
G1 X100.04 Y100.421 E.0106
G1 X101.28 Y100.421 E.03608
G1 X101.28 Y100.785 E.0106
M204 S500
;TYPE:Outer wall
G1 F1200
G1 X101.28 Y100.985 E.00582
G1 X101.28 Y102.066 E.03145
M106 S255
G1 F1500
G1 X101.351 Y102.209 E.00465
G1 X101.459 Y102.244 E.0033
G1 X118.541 Y102.244 E.49704
G1 X118.649 Y102.209 E.0033
G1 X118.72 Y102.066 E.00465
G1 F1200
G1 X118.72 Y100.985 E.03145
G1 X118.72 Y100.785 E.00582
M204 S250
;TYPE:Overhang wall
G1 F1500
G1 X118.72 Y100.421 E.0106
G1 X119.96 Y100.421 E.03608
G1 X119.96 Y100.785 E.0106
M204 S500
;TYPE:Outer wall
G1 F1200
G1 X119.96 Y100.985 E.00582
G1 X119.96 Y104.837 E.11208
M204 S700
G1 E-3.5 F3600
;WIPE_START
G1 F1200
G1 X120.003 Y104.993 E-.24269
G1 X120.139 Y105.056 E-.22412
G1 X120.827 Y105.056 E-1.03319
;WIPE_END
G17
G3 Z.8 I-1.217 J.009 P1  F9000
G1 X120.883 Y112.663 Z.8
G1 Z.4
G1 E5 F2400
M204 S500
;TYPE:Internal solid infill
;WIDTH:0.400904
M106 S255
G1 X120.453 Y113.093 E.01773
G1 X120.395 Y113.074 E.00179
G1 X119.966 Y113.074 E.01251
G1 X120.722 Y112.318 E.03118
M73 P6 R16
G1 X120.722 Y111.811 E.01477
G1 X119.46 Y113.074 E.05207
G1 X118.954 Y113.074 E.01477
G1 X120.722 Y111.305 E.07296
G1 X120.722 Y110.799 E.01477
G1 X118.448 Y113.074 E.09384
G1 X117.941 Y113.074 E.01477
G1 X120.722 Y110.293 E.11473
G1 X120.722 Y109.786 E.01477
G1 X117.435 Y113.074 E.13561
G1 X116.929 Y113.074 E.01477
G1 X120.722 Y109.28 E.1565
G1 X120.722 Y108.774 E.01477
G1 X116.423 Y113.074 E.17738
G1 X115.916 Y113.074 E.01477
G1 X120.722 Y108.268 E.19827
G1 X120.722 Y107.761 E.01477
G1 X115.41 Y113.074 E.21915
G1 X114.904 Y113.074 E.01477
G1 X120.722 Y107.255 E.24004
G1 X120.722 Y106.749 E.01477
G1 X114.398 Y113.074 E.26093
G1 X113.891 Y113.074 E.01477
G1 X120.722 Y106.243 E.28181
G1 X120.722 Y106.134 E.00318
G1 X120.325 Y106.134 E.01159
G1 X113.385 Y113.074 E.28631
