; HEADER_BLOCK_START
; generated by OrcaSlicer 1.7.0 on 2023-11-19 at 13:01:36
; total layer number: 60
; HEADER_BLOCK_END

; THUMBNAIL_BLOCK_START
; THUMBNAIL_BLOCK_END

; external perimeters extrusion width = 0.40mm
; perimeters extrusion width = 0.45mm
; infill extrusion width = 0.45mm
; solid infill extrusion width = 0.40mm
; top infill extrusion width = 0.40mm
; first layer extrusion width = 0.50mm

; external perimeters extrusion width = 0.40mm
; perimeters extrusion width = 0.45mm
; infill extrusion width = 0.45mm
; solid infill extrusion width = 0.40mm
; top infill extrusion width = 0.40mm
; first layer extrusion width = 0.50mm

; EXECUTABLE_BLOCK_START
EXCLUDE_OBJECT_DEFINE NAME=cableChain_link_v3.stl_id_0_copy_0 CENTER=124.5,110 POLYGON=[[112.5,101.003],[114.34,96],[134.66,96],[136.5,101.003],[136.5,123.7],[136.201,124],[112.799,124],[112.5,123.7],[112.5,101.003]]
EXCLUDE_OBJECT_DEFINE NAME=cableChain_link_v3.stl_id_1_copy_0 CENTER=95.5,110 POLYGON=[[83.5,101.003],[85.34,96],[105.66,96],[107.5,101.003],[107.5,123.7],[107.201,124],[83.7985,124],[83.5,123.7],[83.5,101.003]]
M73 P0 R41
;TYPE:Custom
START_PRINT EXTRUDER_TEMP=255  BED_TEMP=80
G90
G21
M83 ; use relative distances for extrusion
; filament start gcode
M106 S0
;LAYER_CHANGE
;Z:0.2
;HEIGHT:0.2
;BEFORE_LAYER_CHANGE
;0.2
G92 E0

G1 E-6 F3600
;_SET_FAN_SPEED_CHANGING_LAYER
SET_VELOCITY_LIMIT SQUARE_CORNER_VELOCITY=8
G1 X77.828 Y90.692 F12000
G1 Z.4
G1 Z.2
G1 E6 F3600
;TYPE:Skirt
;WIDTH:0.5
G1 F900
G1 X80.616 Y89.15 E.12111
G1 X83.7 Y88.348 E.12111
G1 X85.34 Y88.242 E.06244
G1 X134.66 Y88.242 E1.87447
G1 X137.822 Y88.641 E.12111
G1 X140.785 Y89.811 E.12111
G1 X143.366 Y91.68 E.12111
G1 X145.402 Y94.131 E.12111
G1 X146.195 Y95.57 E.06244
G1 X147.836 Y99.067 E.14682
G1 X148.819 Y102.099 E.12111
G1 X149.044 Y104.482 E.09098
G1 X149.044 Y117.995 E.51359
G1 X148.883 Y120.258 E.08623
G1 X148.178 Y123.366 E.12111
G1 X146.724 Y126.201 E.12111
G1 X144.612 Y128.588 E.12111
G1 X141.974 Y130.375 E.12111
G1 X138.975 Y131.452 E.12111
G1 X136.201 Y131.758 E.10607
G1 X83.799 Y131.758 E1.99164
M73 P0 R40
G1 X80.637 Y131.359 E.12111
G1 X77.673 Y130.189 E.12111
G1 X75.092 Y128.32 E.12111
G1 X73.056 Y125.869 E.12111
G1 X71.692 Y122.989 E.12111
G1 X71.117 Y120.258 E.10607
G1 X71.017 Y119.238 E.03896
G1 X70.956 Y117.995 E.0473
G1 X70.956 Y104.482 E.51359
G1 X71.354 Y101.32 E.12111
G1 X72.164 Y99.067 E.09098
G1 X73.805 Y95.57 E.14682
G1 X75.509 Y92.878 E.12111
G1 X77.799 Y90.719 E.11959
G1 X78.117 Y91.062 F12000
G1 F900
G1 X78.189 Y90.995 E.00376
G1 X80.945 Y89.512 E.11891
G1 X85.34 Y88.699 E.16988
G1 X134.66 Y88.699 E1.87447
G1 X137.763 Y89.098 E.11891
G1 X140.665 Y90.267 E.11891
G1 X143.178 Y92.131 E.11891
G1 X145.781 Y95.765 E.16988
G1 X147.423 Y99.262 E.14682
G1 X148.381 Y102.24 E.11891
G1 X148.587 Y104.482 E.08556
G1 X148.587 Y117.995 E.51359
G1 X148.428 Y120.214 E.08454
G1 X147.729 Y123.263 E.11891
G1 X146.282 Y126.037 E.11891
G1 X144.182 Y128.356 E.11891
G1 X141.564 Y130.069 E.11891
G1 X138.598 Y131.065 E.11891
G1 X136.201 Y131.301 E.09152
G1 X83.799 Y131.301 E1.99164
M73 P1 R40
G1 X80.695 Y130.902 E.11891
G1 X77.793 Y129.733 E.11891
G1 X75.281 Y127.869 E.11891
G1 X73.321 Y125.43 E.11891
G1 X72.04 Y122.576 E.11891
G1 X71.572 Y120.214 E.09152
G1 X71.472 Y119.194 E.03896
G1 X71.413 Y117.995 E.0456
G1 X71.413 Y104.482 E.51359
G1 X71.811 Y101.379 E.11891
G1 X72.577 Y99.262 E.08556
G1 X74.219 Y95.765 E.14682
G1 X75.898 Y93.125 E.11891
G1 X78.088 Y91.089 E.11363
G1 X78.403 Y91.434 F12000
G1 F900
G1 X78.55 Y91.299 E.00756
G1 X81.271 Y89.878 E.11667
G1 X85.34 Y89.156 E.15707
G1 X134.66 Y89.156 E1.87447
G1 X137.704 Y89.555 E.11667
G1 X140.542 Y90.723 E.11667
G1 X142.985 Y92.582 E.11667
G1 X145.367 Y95.959 E.15707
G1 X147.009 Y99.456 E.14682
G1 X147.942 Y102.38 E.11667
G1 X148.13 Y104.482 E.08019
G1 X148.13 Y117.995 E.51359
G1 X147.973 Y120.169 E.08284
G1 X147.28 Y123.159 E.11667
G1 X145.841 Y125.871 E.11667
G1 X143.752 Y128.12 E.11667
G1 X141.155 Y129.757 E.11667
G1 X138.224 Y130.669 E.11667
G1 X136.201 Y130.844 E.07716
G1 X83.799 Y130.844 E1.99164
G1 X80.755 Y130.445 E.11667
G1 X77.916 Y129.277 E.11667
G1 X75.474 Y127.418 E.11667
G1 X73.592 Y124.993 E.11667
G1 X72.397 Y122.165 E.11667
G1 X72.027 Y120.169 E.07716
G1 X71.927 Y119.149 E.03896
G1 X71.87 Y117.995 E.04391
G1 X71.87 Y104.482 E.51359
G1 X72.269 Y101.438 E.11667
G1 X72.991 Y99.456 E.08019
G1 X74.633 Y95.959 E.14682
G1 X76.286 Y93.373 E.11667
G1 X78.374 Y91.461 E.10759
G1 X78.686 Y91.807 F12000
G1 F900
G1 X78.909 Y91.606 E.0114
G1 X81.595 Y90.248 E.11438
G1 X85.34 Y89.613 E.14437
G1 X134.66 Y89.613 E1.87447
G1 X137.643 Y90.012 E.11438
G1 X140.417 Y91.179 E.11438
G1 X142.788 Y93.032 E.11438
G1 X144.954 Y96.153 E.14437
G1 X146.595 Y99.65 E.14682
M73 P2 R40
G1 X147.502 Y102.52 E.11438
G1 X147.673 Y104.482 E.07486
G1 X147.673 Y117.995 E.51359
G1 X147.518 Y120.125 E.08115
G1 X146.831 Y123.055 E.11438
G1 X145.399 Y125.702 E.11438
G1 X143.323 Y127.88 E.11438
G1 X140.748 Y129.438 E.11438
G1 X137.855 Y130.266 E.11438
G1 X136.201 Y130.387 E.063
G1 X83.799 Y130.387 E1.99164
G1 X80.816 Y129.988 E.11438
G1 X78.041 Y128.821 E.11438
G1 X75.671 Y126.968 E.11438
G1 X73.869 Y124.557 E.11438
G1 X72.763 Y121.758 E.11438
G1 X72.382 Y119.104 E.1019
G1 X72.327 Y117.995 E.04221
G1 X72.327 Y104.482 E.51359
G1 X72.726 Y101.499 E.11438
G1 X73.405 Y99.65 E.07486
G1 X75.046 Y96.153 E.14682
G1 X76.674 Y93.622 E.11438
G1 X78.657 Y91.834 E.10146
G1 X78.966 Y92.183 F12000
G1 F900
G1 X79.267 Y91.916 E.0153
G1 X81.916 Y90.621 E.11205
G1 X85.34 Y90.071 E.1318
G1 X134.66 Y90.071 E1.87447
G1 X137.581 Y90.469 E.11205
G1 X140.289 Y91.634 E.11205
G1 X142.586 Y93.482 E.11205
G1 X144.54 Y96.347 E.1318
G1 X146.181 Y99.844 E.14682
G1 X147.062 Y102.658 E.11205
G1 X147.216 Y104.482 E.06957
G1 X147.216 Y117.995 E.51359
G1 X147.064 Y120.08 E.07945
G1 X146.382 Y122.948 E.11205
G1 X144.958 Y125.53 E.11205
G1 X142.895 Y127.636 E.11205
G1 X140.344 Y129.113 E.11205
G1 X136.201 Y129.929 E.16047
G1 X83.799 Y129.929 E1.99164
G1 X80.877 Y129.531 E.11205
G1 X78.169 Y128.366 E.11205
G1 X75.872 Y126.518 E.11205
G1 X74.153 Y124.123 E.11205
G1 X72.936 Y120.08 E.16047
G1 X72.784 Y117.995 E.07945
G1 X72.784 Y104.482 E.51359
G1 X73.183 Y101.561 E.11205
M73 P2 R39
G1 X73.819 Y99.844 E.06957
G1 X75.46 Y96.347 E.14682
G1 X77.062 Y93.872 E.11205
G1 X78.936 Y92.21 E.09523
G1 X79.242 Y92.561 F12000
G1 F900
G1 X79.624 Y92.228 E.01925
G1 X82.235 Y90.999 E.10966
G1 X85.34 Y90.528 E.11937
G1 X134.66 Y90.528 E1.87447
M73 P3 R39
G1 X137.518 Y90.926 E.10966
G1 X140.158 Y92.09 E.10966
G1 X142.38 Y93.931 E.10966
G1 X144.126 Y96.541 E.11937
G1 X145.768 Y100.038 E.14682
G1 X146.622 Y102.795 E.10966
G1 X146.759 Y104.482 E.06433
G1 X146.759 Y117.995 E.51359
G1 X146.609 Y120.035 E.07775
G1 X145.934 Y122.841 E.10966
G1 X144.518 Y125.355 E.10966
G1 X142.469 Y127.386 E.10966
G1 X139.942 Y128.78 E.10966
G1 X136.201 Y129.472 E.14459
G1 X83.799 Y129.472 E1.99164
G1 X80.941 Y129.074 E.10966
G1 X78.3 Y127.91 E.10966
G1 X76.079 Y126.069 E.10966
G1 X74.445 Y123.691 E.10966
G1 X73.391 Y120.035 E.14459
G1 X73.241 Y117.995 E.07775
G1 X73.241 Y104.482 E.51359
G1 X73.64 Y101.624 E.10966
G1 X74.232 Y100.038 E.06433
G1 X75.874 Y96.541 E.14682
G1 X77.449 Y94.124 E.10966
G1 X79.212 Y92.587 E.0889
; printing object cableChain_link_v3.stl id:0 copy 0
G1 E-4.2 F3600
;WIPE_START
G1 F900
G1 X79.624 Y92.228 E-.98355
G1 X80.034 Y92.035 E-.81645
;WIPE_END
EXCLUDE_OBJECT_START NAME=cableChain_link_v3.stl_id_0_copy_0
G17
G3 Z.6 I-.436 J1.136 P1  F12000
G1 X115.504 Y105.646 Z.6
G1 Z.2
G1 E6 F3600
;TYPE:Inner wall
G1 F900
G1 X115.504 Y103.209 E.09263
G1 X133.496 Y103.209 E.6838
G1 X133.496 Y105.646 E.09263
G1 X135.137 Y105.646 E.06239
G1 X135.137 Y113.187 E.28661
G1 X113.863 Y113.187 E.80857
G1 X113.863 Y105.646 E.28661
G1 X115.464 Y105.646 E.06087
G1 X115.047 Y105.189 F12000
G1 F900
G1 X115.047 Y102.752 E.09263
G1 X133.953 Y102.752 E.71854
G1 X133.953 Y105.189 E.09263
G1 X135.594 Y105.189 E.06239
G1 X135.594 Y113.644 E.32136
G1 X113.406 Y113.644 E.84331
G1 X113.406 Y105.189 E.32136
G1 X115.007 Y105.189 E.06087
G1 X114.59 Y104.732 F12000
;TYPE:Outer wall
G1 F900
G1 X114.59 Y101.235 E.13291
G1 X115.73 Y101.235 E.04333
G1 X115.73 Y102.294 E.04028
G1 X133.27 Y102.294 E.66663
G1 X133.27 Y101.235 E.04028
G1 X134.41 Y101.235 E.04333
G1 X134.41 Y104.732 E.13291
G1 X136.051 Y104.732 E.06239
G1 X136.051 Y117.983 E.50363
M73 P4 R39
G1 X135.975 Y118.765 E.02988
G1 X135.11 Y118.765 E.03287
G1 X135.11 Y114.101 E.17727
G1 X113.89 Y114.101 E.80649
G1 X113.89 Y118.765 E.17727
G1 X113.025 Y118.765 E.03287
G1 X112.949 Y117.983 E.02988
G1 X112.949 Y104.732 E.50363
G1 X114.55 Y104.732 E.06087
G1 X114.661 Y104.695
G1 E-6 F3600
G17
G3 Z.6 I-1.206 J-.163 P1  F12000
G1 X113.419 Y113.873 Z.6
G1 Z.2
G1 E6 F3600
;TYPE:Gap infill
;WIDTH:0.523053
G1 F900
G1 X113.419 Y117.96 E.16317
G1 X113.447 Y118.537 E.02306
G1 E-6 F3600
G17
G3 Z.6 I0 J1.217 P1  F12000
G1 X135.553 Y118.537 Z.6
G1 Z.2
G1 E6 F3600
;WIDTH:0.527314
G1 F900
G1 X135.581 Y117.96 E.02327
G1 X135.581 Y113.873 E.16462
G1 E-6 F3600
G17
G3 Z.6 I1.201 J-.194 P1  F12000
G1 X134.295 Y105.897 Z.6
G1 Z.2
G1 E6 F3600
;TYPE:Bottom surface
;WIDTH:0.5
G1 F1200
G1 X134.886 Y106.488 E.03176
G1 X134.886 Y107.135
G1 X133.649 Y105.897 E.06651
G1 X133.244 Y104.2 F12000
G1 F1200
G1 X132.504 Y103.46 E.03979
G1 X131.858 Y103.46
G1 X133.244 Y104.847 E.07454
G1 X133.244 Y105.493
G1 X131.211 Y103.46 E.10928
G1 X130.565 Y103.46
G1 X134.886 Y107.781 E.23225
G1 X134.886 Y108.427
G1 X129.918 Y103.46 E.267
G1 X129.272 Y103.46
G1 X134.886 Y109.074 E.30174
G1 X134.886 Y109.72
G1 X128.626 Y103.46 E.33648
G1 X127.979 Y103.46
G1 X134.886 Y110.367 E.37123
G1 X134.886 Y111.013
G1 X127.333 Y103.46 E.40597
G1 X126.686 Y103.46
G1 X134.886 Y111.659 E.44072
G1 X134.886 Y112.306
G1 X126.04 Y103.46 E.47546
G1 X125.394 Y103.46
G1 X134.869 Y112.936 E.50931
G1 X134.223 Y112.936
G1 X124.747 Y103.46 E.50931
G1 X124.101 Y103.46
G1 X133.576 Y112.936 E.50931
G1 X132.93 Y112.936
G1 X123.454 Y103.46 E.50931
G1 X122.808 Y103.46
G1 X132.284 Y112.936 E.50931
G1 X131.637 Y112.936
G1 X122.162 Y103.46 E.50931
G1 X121.515 Y103.46
G1 X130.991 Y112.936 E.50931
G1 X130.344 Y112.936
G1 X120.869 Y103.46 E.50931
G1 X120.222 Y103.46
G1 X129.698 Y112.936 E.50931
G1 X129.052 Y112.936
G1 X119.576 Y103.46 E.50931
G1 X118.93 Y103.46
G1 X128.405 Y112.936 E.50931
G1 X127.759 Y112.936
G1 X118.283 Y103.46 E.50931
G1 X117.637 Y103.46
G1 X127.112 Y112.936 E.50931
G1 X126.466 Y112.936
G1 X116.99 Y103.46 E.50931
G1 X116.344 Y103.46
G1 X125.82 Y112.936 E.50931
G1 X125.173 Y112.936
G1 X115.756 Y103.518 E.50619
G1 X115.756 Y104.164
G1 X124.527 Y112.936 E.47144
G1 X123.88 Y112.936
G1 X115.756 Y104.811 E.4367
M73 P5 R39
G1 X115.756 Y105.457
G1 X123.234 Y112.936 E.40196
G1 X122.588 Y112.936
G1 X115.549 Y105.897 E.37831
G1 X114.903 Y105.897
G1 X121.941 Y112.936 E.37831
G1 X121.295 Y112.936
G1 X114.256 Y105.897 E.37831
G1 X114.114 Y106.401
G1 X120.648 Y112.936 E.35121
G1 X120.002 Y112.936
G1 X114.114 Y107.048 E.31647
G1 X114.114 Y107.694
G1 X119.355 Y112.936 E.28172
G1 X118.709 Y112.936
G1 X114.114 Y108.341 E.24698
G1 X114.114 Y108.987
G1 X118.063 Y112.936 E.21223
G1 X117.416 Y112.936
G1 X114.114 Y109.633 E.17749
G1 X114.114 Y110.28
G1 X116.77 Y112.936 E.14275
G1 X116.123 Y112.936
G1 X114.114 Y110.926 E.108
G1 X114.114 Y111.573
G1 X115.477 Y112.936 E.07326
G1 X114.831 Y112.936
G1 X114.114 Y112.219 E.03851
; stop printing object cableChain_link_v3.stl id:0 copy 0
; printing object cableChain_link_v3.stl id:1 copy 0
G1 E-4.2 F3600
;WIPE_START
G1 F1200
G1 X114.821 Y112.926 E-1.8
;WIPE_END
EXCLUDE_OBJECT_END NAME=cableChain_link_v3.stl_id_0_copy_0
EXCLUDE_OBJECT_START NAME=cableChain_link_v3.stl_id_1_copy_0
G17
G3 Z.6 I.303 J-1.179 P1  F12000
G1 X86.504 Y105.646 Z.6
G1 Z.2
G1 E6 F3600
;TYPE:Inner wall
G1 F900
G1 X86.504 Y103.209 E.09263
G1 X104.496 Y103.209 E.6838
M73 P5 R38
G1 X104.496 Y105.646 E.09263
G1 X106.137 Y105.646 E.06239
G1 X106.137 Y113.187 E.28661
G1 X84.863 Y113.187 E.80857
G1 X84.863 Y105.646 E.28661
G1 X86.464 Y105.646 E.06087
G1 X86.047 Y105.189 F12000
G1 F900
G1 X86.047 Y102.752 E.09263
G1 X104.953 Y102.752 E.71854
G1 X104.953 Y105.189 E.09263
G1 X106.594 Y105.189 E.06239
G1 X106.594 Y113.644 E.32136
G1 X84.406 Y113.644 E.84331
G1 X84.406 Y105.189 E.32136
G1 X86.007 Y105.189 E.06087
G1 X85.59 Y104.732 F12000
;TYPE:Outer wall
G1 F900
G1 X85.59 Y101.235 E.13291
G1 X86.73 Y101.235 E.04333
G1 X86.73 Y102.294 E.04028
G1 X104.27 Y102.294 E.66663
G1 X104.27 Y101.235 E.04028
G1 X105.41 Y101.235 E.04333
G1 X105.41 Y104.732 E.13291
G1 X107.051 Y104.732 E.06239
G1 X107.051 Y117.983 E.50363
G1 X106.975 Y118.765 E.02988
G1 X106.11 Y118.765 E.03287
G1 X106.11 Y114.101 E.17727
G1 X84.89 Y114.101 E.80649
G1 X84.89 Y118.765 E.17727
G1 X84.025 Y118.765 E.03287
G1 X83.949 Y117.983 E.02988
G1 X83.949 Y104.732 E.50363
G1 X85.55 Y104.732 E.06087
G1 X85.661 Y104.695
G1 E-6 F3600
G17
G3 Z.6 I-1.206 J-.163 P1  F12000
G1 X84.419 Y113.873 Z.6
G1 Z.2
G1 E6 F3600
;TYPE:Gap infill
;WIDTH:0.523053
G1 F900
G1 X84.419 Y117.96 E.16317
G1 X84.447 Y118.537 E.02306
G1 E-6 F3600
G17
G3 Z.6 I0 J1.217 P1  F12000
G1 X106.553 Y118.537 Z.6
G1 Z.2
G1 E6 F3600
;WIDTH:0.527314
G1 F900
G1 X106.581 Y117.96 E.02327
G1 X106.581 Y113.873 E.16462
M73 P6 R38
G1 E-6 F3600
G17
G3 Z.6 I1.201 J-.194 P1  F12000
G1 X105.295 Y105.897 Z.6
G1 Z.2
G1 E6 F3600
;TYPE:Bottom surface
;WIDTH:0.5
G1 F1200
G1 X105.886 Y106.488 E.03176
G1 X105.886 Y107.135
G1 X104.649 Y105.897 E.06651
G1 X104.244 Y104.2 F12000
G1 F1200
G1 X103.504 Y103.46 E.03979
G1 X102.858 Y103.46
G1 X104.244 Y104.847 E.07454
G1 X104.244 Y105.493
G1 X102.211 Y103.46 E.10928
G1 X101.565 Y103.46
G1 X105.886 Y107.781 E.23225
G1 X105.886 Y108.427
G1 X100.918 Y103.46 E.267
G1 X100.272 Y103.46
G1 X105.886 Y109.074 E.30174
G1 X105.886 Y109.72
G1 X99.626 Y103.46 E.33648
G1 X98.979 Y103.46
G1 X105.886 Y110.367 E.37123
G1 X105.886 Y111.013
G1 X98.333 Y103.46 E.40597
G1 X97.686 Y103.46
G1 X105.886 Y111.659 E.44072
G1 X105.886 Y112.306
G1 X97.04 Y103.46 E.47546
G1 X96.394 Y103.46
G1 X105.869 Y112.936 E.50931
G1 X105.223 Y112.936
G1 X95.747 Y103.46 E.50931
G1 X95.101 Y103.46
G1 X104.576 Y112.936 E.50931
G1 X103.93 Y112.936
G1 X94.454 Y103.46 E.50931
G1 X93.808 Y103.46
G1 X103.284 Y112.936 E.50931
G1 X102.637 Y112.936
G1 X93.162 Y103.46 E.50931
G1 X92.515 Y103.46
G1 X101.991 Y112.936 E.50931
G1 X101.344 Y112.936
G1 X91.869 Y103.46 E.50931
G1 X91.222 Y103.46
G1 X100.698 Y112.936 E.50931
G1 X100.052 Y112.936
G1 X90.576 Y103.46 E.50931
G1 X89.93 Y103.46
G1 X99.405 Y112.936 E.50931
G1 X98.759 Y112.936
G1 X89.283 Y103.46 E.50931
G1 X88.637 Y103.46
G1 X98.112 Y112.936 E.50931
G1 X97.466 Y112.936
G1 X87.99 Y103.46 E.50931
G1 X87.344 Y103.46
G1 X96.82 Y112.936 E.50931
G1 X96.173 Y112.936
G1 X86.756 Y103.518 E.50619
G1 X86.756 Y104.164
G1 X95.527 Y112.936 E.47144
G1 X94.88 Y112.936
G1 X86.756 Y104.811 E.4367
G1 X86.756 Y105.457
G1 X94.234 Y112.936 E.40196
G1 X93.588 Y112.936
G1 X86.549 Y105.897 E.37831
G1 X85.903 Y105.897
G1 X92.941 Y112.936 E.37831
G1 X92.295 Y112.936
G1 X85.256 Y105.897 E.37831
G1 X85.114 Y106.401
G1 X91.648 Y112.936 E.35121
G1 X91.002 Y112.936
G1 X85.114 Y107.048 E.31647
G1 X85.114 Y107.694
G1 X90.355 Y112.936 E.28172
G1 X89.709 Y112.936
G1 X85.114 Y108.341 E.24698
G1 X85.114 Y108.987
G1 X89.063 Y112.936 E.21223
G1 X88.416 Y112.936
G1 X85.114 Y109.633 E.17749
G1 X85.114 Y110.28
G1 X87.77 Y112.936 E.14275
G1 X87.123 Y112.936
G1 X85.114 Y110.926 E.108
G1 X85.114 Y111.573
G1 X86.477 Y112.936 E.07326
G1 X85.831 Y112.936
G1 X85.114 Y112.219 E.03851
; stop printing object cableChain_link_v3.stl id:1 copy 0
;LAYER_CHANGE
;Z:0.4
;HEIGHT:0.2
;BEFORE_LAYER_CHANGE
;0.4
G92 E0

G1 E-4.2 F3600
;WIPE_START
G1 F1200
G1 X85.821 Y112.926 E-1.8
;WIPE_END
EXCLUDE_OBJECT_END NAME=cableChain_link_v3.stl_id_1_copy_0
;_SET_FAN_SPEED_CHANGING_LAYER
SET_VELOCITY_LIMIT SQUARE_CORNER_VELOCITY=1
M104 S240 ; set nozzle temperature
; printing object cableChain_link_v3.stl id:0 copy 0
SET_VELOCITY_LIMIT SQUARE_CORNER_VELOCITY=8
