; HEADER_BLOCK_START
; generated by OrcaSlicer 1.7.0 on 2023-11-20 at 22:37:39
; total layer number: 37
; HEADER_BLOCK_END

; THUMBNAIL_BLOCK_START
; THUMBNAIL_BLOCK_END

; external perimeters extrusion width = 0.40mm
; perimeters extrusion width = 0.45mm
; infill extrusion width = 0.45mm
; solid infill extrusion width = 0.40mm
; top infill extrusion width = 0.40mm
; support material extrusion width = 0.40mm
; first layer extrusion width = 0.50mm

; external perimeters extrusion width = 0.40mm
; perimeters extrusion width = 0.45mm
; infill extrusion width = 0.45mm
; solid infill extrusion width = 0.40mm
; top infill extrusion width = 0.40mm
; support material extrusion width = 0.40mm
; first layer extrusion width = 0.50mm

; external perimeters extrusion width = 0.40mm
; perimeters extrusion width = 0.45mm
; infill extrusion width = 0.45mm
; solid infill extrusion width = 0.40mm
; top infill extrusion width = 0.40mm
; support material extrusion width = 0.40mm
; first layer extrusion width = 0.50mm

; external perimeters extrusion width = 0.40mm
; perimeters extrusion width = 0.45mm
; infill extrusion width = 0.45mm
; solid infill extrusion width = 0.40mm
; top infill extrusion width = 0.40mm
; support material extrusion width = 0.40mm
; first layer extrusion width = 0.50mm

; external perimeters extrusion width = 0.40mm
; perimeters extrusion width = 0.45mm
; infill extrusion width = 0.45mm
; solid infill extrusion width = 0.40mm
; top infill extrusion width = 0.40mm
; support material extrusion width = 0.40mm
; first layer extrusion width = 0.50mm

; external perimeters extrusion width = 0.40mm
; perimeters extrusion width = 0.45mm
; infill extrusion width = 0.45mm
; solid infill extrusion width = 0.40mm
; top infill extrusion width = 0.40mm
; support material extrusion width = 0.40mm
; first layer extrusion width = 0.50mm

; EXECUTABLE_BLOCK_START
EXCLUDE_OBJECT_DEFINE NAME=cableChain_linkCover_v2.stl_id_0_copy_0 CENTER=124.5,131.6 POLYGON=[[112.5,128.7],[136.5,128.7],[136.5,134.5],[112.5,134.5],[112.5,128.7]]
EXCLUDE_OBJECT_DEFINE NAME=cableChain_linkCover_v2.stl_id_1_copy_0 CENTER=124.5,120.8 POLYGON=[[112.5,117.9],[136.5,117.9],[136.5,123.7],[112.5,123.7],[112.5,117.9]]
EXCLUDE_OBJECT_DEFINE NAME=cableChain_linkCover_v2.stl_id_2_copy_0 CENTER=124.5,110 POLYGON=[[112.5,107.1],[136.5,107.1],[136.5,112.9],[112.5,112.9],[112.5,107.1]]
EXCLUDE_OBJECT_DEFINE NAME=cableChain_linkCover_v2.stl_id_3_copy_0 CENTER=124.5,99.2 POLYGON=[[112.5,96.3001],[136.5,96.3001],[136.5,102.1],[112.5,102.1],[112.5,96.3001]]
EXCLUDE_OBJECT_DEFINE NAME=cableChain_linkCover_v2.stl_id_4_copy_0 CENTER=124.5,88.4001 POLYGON=[[112.5,85.5001],[136.5,85.5001],[136.5,91.3001],[112.5,91.3001],[112.5,85.5001]]
EXCLUDE_OBJECT_DEFINE NAME=cableChain_linkCover_v2.stl_id_5_copy_0 CENTER=95.5,110 POLYGON=[[83.5,107.1],[107.5,107.1],[107.5,112.9],[83.5,112.9],[83.5,107.1]]
M73 P0 R30
;TYPE:Custom
START_PRINT EXTRUDER_TEMP=255  BED_TEMP=80
G90
G21
M83 ; use relative distances for extrusion
; filament start gcode
M106 S0
;LAYER_CHANGE
;Z:0.2
;HEIGHT:0.2
;BEFORE_LAYER_CHANGE
;0.2
G92 E0

G1 E-2 F3600
;_SET_FAN_SPEED_CHANGING_LAYER
SET_VELOCITY_LIMIT ACCEL=500 ACCEL_TO_DECEL=250
G1 X78.843 Y100.387 F9000
G1 Z.4
G1 Z.2
G1 E2 F3600
;TYPE:Skirt
;WIDTH:0.5
G1 F900
G1 X107.843 Y78.787 E1.37431
G1 X109.311 Y78.3 E.05877
G1 X139.689 Y78.3 E1.15454
M73 P0 R29
G1 X141.426 Y79.02 E.07147
G1 X142.451 Y80.045 E.0551
G1 X143.171 Y81.783 E.07147
G1 X143.171 Y138.217 E2.14489
G1 X142.451 Y139.955 E.07147
G1 X141.426 Y140.98 E.0551
G1 X139.689 Y141.7 E.07147
G1 X109.311 Y141.7 E1.15454
G1 X107.843 Y141.213 E.05877
G1 X78.843 Y119.613 E1.37431
G1 X77.549 Y118.355 E.06862
G1 X76.829 Y116.618 E.07147
G1 X76.829 Y103.382 E.50302
G1 X77.549 Y101.645 E.07147
G1 X78.815 Y100.415 E.0671
; printing object cableChain_linkCover_v2.stl id:5 copy 0
G1 E-1.4 F3600
;WIPE_START
G1 F900
G1 X79.617 Y99.817 E-.6
;WIPE_END
EXCLUDE_OBJECT_START NAME=cableChain_linkCover_v2.stl_id_5_copy_0
G17
G3 Z.6 I-.438 J1.135 P1  F9000
G1 X88.857 Y103.382 Z.6
G1 Z.2
G1 E2 F3600
;TYPE:Support
G1 F900
G1 X88.857 Y105.214 E.06963
G1 X90.689 Y105.214 E.06963
G1 X91.714 Y106.24 E.0551
G1 X91.714 Y108.071 E.06963
G1 X99.286 Y108.071 E.28775
M73 P1 R29
G1 X99.286 Y106.24 E.06963
G1 X100.311 Y105.214 E.0551
G1 X102.143 Y105.214 E.06963
G1 X102.143 Y103.382 E.06963
G1 X103.168 Y102.357 E.0551
G1 X110.689 Y102.357 E.28585
G1 X111.714 Y103.382 E.0551
G1 X111.714 Y116.618 E.50302
G1 X110.689 Y117.643 E.0551
G1 X80.311 Y117.643 E1.15454
G1 X79.286 Y116.618 E.0551
G1 X79.286 Y103.382 E.50302
G1 X80.311 Y102.357 E.0551
G1 X87.832 Y102.357 E.28585
G1 X88.809 Y103.334 E.05249
G1 E-1.4 F3600
;WIPE_START
G1 F900
G1 X88.102 Y102.627 E-.6
;WIPE_END
G17
G3 Z.6 I-.021 J1.217 P1  F9000
G1 X103.217 Y102.89 Z.6
G1 Z.2
G1 E2 F3600
G1 F900
G1 X110.64 Y102.89 E.28211
G1 X111.148 Y103.398 E.0273
G1 X102.709 Y103.398 E.32071
G1 X102.554 Y103.553 E.00834
G1 X102.554 Y103.906 E.01341
G1 X111.303 Y103.906 E.3325
G1 X111.303 Y104.413 E.0193
G1 X102.554 Y104.413 E.3325
G1 X102.554 Y104.921 E.0193
G1 X111.303 Y104.921 E.3325
G1 X111.303 Y105.429 E.0193
G1 X102.554 Y105.429 E.3325
G1 E-1.4 F3600
;WIPE_START
G1 F900
G1 X103.554 Y105.429 E-.6
;WIPE_END
G17
G3 Z.6 I-.273 J-1.186 P1  F9000
G1 X91.303 Y108.248 Z.6
G1 Z.2
G1 E2 F3600
G1 F900
G1 X91.303 Y107.969 E.01062
G1 X79.697 Y107.969 E.44109
G1 X79.697 Y107.461 E.0193
G1 X91.303 Y107.461 E.44109
G1 X91.303 Y106.953 E.0193
G1 X79.697 Y106.953 E.44109
G1 X79.697 Y106.445 E.0193
G1 X91.303 Y106.445 E.44109
G1 X91.303 Y106.41 E.00133
G1 X90.83 Y105.937 E.02541
G1 X79.697 Y105.937 E.42312
G1 X79.697 Y105.429 E.0193
G1 X88.446 Y105.429 E.3325
G1 X88.446 Y104.921 E.0193
G1 X79.697 Y104.921 E.3325
G1 X79.697 Y104.413 E.0193
G1 X88.446 Y104.413 E.3325
G1 X88.446 Y103.906 E.0193
G1 X79.697 Y103.906 E.3325
M73 P2 R29
G1 X79.697 Y103.553 E.01341
G1 X79.853 Y103.398 E.00834
G1 X88.291 Y103.398 E.32071
G1 X87.783 Y102.89 E.0273
G1 X80.36 Y102.89 E.28211
G1 E-1.4 F3600
;WIPE_START
G1 F900
G1 X81.36 Y102.89 E-.6
;WIPE_END
G17
G3 Z.6 I-.532 J1.095 P1  F9000
G1 X110.64 Y117.11 Z.6
G1 Z.2
G1 E2 F3600
G1 F900
G1 X80.36 Y117.11 E1.1508
G1 X79.853 Y116.602 E.0273
G1 X111.148 Y116.602 E1.18941
G1 X111.303 Y116.447 E.00834
G1 X111.303 Y116.094 E.01341
G1 X79.697 Y116.094 E1.2012
G1 X79.697 Y115.587 E.0193
G1 X111.303 Y115.587 E1.2012
G1 X111.303 Y115.079 E.0193
G1 X79.697 Y115.079 E1.2012
G1 X79.697 Y114.571 E.0193
G1 X111.303 Y114.571 E1.2012
G1 X111.303 Y114.063 E.0193
G1 X79.697 Y114.063 E1.2012
G1 X79.697 Y113.555 E.0193
G1 X111.303 Y113.555 E1.2012
M73 P3 R29
G1 X111.303 Y113.047 E.0193
G1 X79.697 Y113.047 E1.2012
G1 X79.697 Y112.539 E.0193
G1 X111.303 Y112.539 E1.2012
G1 X111.303 Y112.031 E.0193
G1 X79.697 Y112.031 E1.2012
G1 X79.697 Y111.524 E.0193
G1 X111.303 Y111.524 E1.2012
M73 P3 R28
G1 X111.303 Y111.016 E.0193
G1 X79.697 Y111.016 E1.2012
G1 X79.697 Y110.508 E.0193
G1 X111.303 Y110.508 E1.2012
G1 X111.303 Y110 E.0193
G1 X79.697 Y110 E1.2012
G1 X79.697 Y109.492 E.0193
G1 X111.303 Y109.492 E1.2012
M73 P4 R28
G1 X111.303 Y108.984 E.0193
G1 X79.697 Y108.984 E1.2012
G1 X79.697 Y108.476 E.0193
G1 X111.303 Y108.476 E1.2012
G1 X111.303 Y107.969 E.0193
G1 X99.697 Y107.969 E.44109
G1 X99.697 Y107.461 E.0193
G1 X111.303 Y107.461 E.44109
G1 X111.303 Y106.953 E.0193
G1 X99.697 Y106.953 E.44109
G1 X99.697 Y106.445 E.0193
G1 X111.303 Y106.445 E.44109
G1 X111.303 Y105.937 E.0193
G1 X100.17 Y105.937 E.42312
G1 X100.481 Y105.626 E.01673
G1 X100.755 Y105.626 E.01041
; stop printing object cableChain_linkCover_v2.stl id:5 copy 0
; printing object cableChain_linkCover_v2.stl id:0 copy 0
G1 E-1.4 F3600
;WIPE_START
G1 F900
G1 X100.481 Y105.626 E-.16435
G1 X100.17 Y105.937 E-.26417
G1 X100.456 Y105.937 E-.17149
;WIPE_END
EXCLUDE_OBJECT_END NAME=cableChain_linkCover_v2.stl_id_5_copy_0
EXCLUDE_OBJECT_START NAME=cableChain_linkCover_v2.stl_id_0_copy_0
G17
G3 Z.6 I-.898 J.821 P1  F9000
G1 X117.857 Y124.982 Z.6
G1 Z.2
G1 E2 F3600
G1 F900
G1 X117.857 Y126.814 E.06963
G1 X119.689 Y126.814 E.06963
G1 X120.714 Y127.839 E.0551
G1 X120.714 Y129.671 E.06963
G1 X128.286 Y129.671 E.28775
G1 X128.286 Y127.839 E.06963
G1 X129.311 Y126.814 E.0551
G1 X131.143 Y126.814 E.06963
G1 X131.143 Y124.982 E.06963
G1 X132.168 Y123.957 E.0551
G1 X139.689 Y123.957 E.28585
G1 X140.714 Y124.982 E.0551
G1 X140.714 Y138.217 E.50302
G1 X139.689 Y139.243 E.0551
G1 X109.311 Y139.243 E1.15454
G1 X108.286 Y138.217 E.0551
G1 X108.286 Y124.982 E.50302
G1 X109.311 Y123.957 E.0551
G1 X116.832 Y123.957 E.28585
G1 X117.809 Y124.934 E.05249
G1 E-1.4 F3600
;WIPE_START
G1 F900
G1 X117.102 Y124.227 E-.6
;WIPE_END
G17
G3 Z.6 I-.021 J1.217 P1  F9000
G1 X132.217 Y124.49 Z.6
M73 P5 R28
G1 Z.2
G1 E2 F3600
G1 F900
G1 X139.64 Y124.49 E.28211
G1 X140.148 Y124.998 E.0273
G1 X131.709 Y124.998 E.32071
G1 X131.554 Y125.153 E.00834
G1 X131.554 Y125.506 E.01341
G1 X140.303 Y125.506 E.3325
G1 X140.303 Y126.013 E.0193
G1 X131.554 Y126.013 E.3325
G1 X131.554 Y126.521 E.0193
G1 X140.303 Y126.521 E.3325
G1 X140.303 Y127.029 E.0193
G1 X131.554 Y127.029 E.3325
G1 E-1.4 F3600
;WIPE_START
G1 F900
G1 X132.554 Y127.029 E-.6
;WIPE_END
G17
G3 Z.6 I-.273 J-1.186 P1  F9000
G1 X120.303 Y129.848 Z.6
G1 Z.2
G1 E2 F3600
G1 F900
G1 X120.303 Y129.568 E.01062
G1 X108.697 Y129.568 E.44109
G1 X108.697 Y129.061 E.0193
G1 X120.303 Y129.061 E.44109
G1 X120.303 Y128.553 E.0193
G1 X108.697 Y128.553 E.44109
G1 X108.697 Y128.045 E.0193
G1 X120.303 Y128.045 E.44109
G1 X120.303 Y128.01 E.00133
G1 X119.83 Y127.537 E.02541
G1 X108.697 Y127.537 E.42312
G1 X108.697 Y127.029 E.0193
G1 X117.446 Y127.029 E.3325
G1 X117.446 Y126.521 E.0193
G1 X108.697 Y126.521 E.3325
G1 X108.697 Y126.013 E.0193
G1 X117.446 Y126.013 E.3325
G1 X117.446 Y125.506 E.0193
G1 X108.697 Y125.506 E.3325
G1 X108.697 Y125.153 E.01341
G1 X108.853 Y124.998 E.00834
G1 X117.291 Y124.998 E.32071
G1 X116.783 Y124.49 E.0273
G1 X109.36 Y124.49 E.28211
G1 E-1.4 F3600
;WIPE_START
G1 F900
G1 X110.36 Y124.49 E-.6
;WIPE_END
G17
G3 Z.6 I-.532 J1.095 P1  F9000
G1 X139.64 Y138.71 Z.6
G1 Z.2
G1 E2 F3600
G1 F900
G1 X109.36 Y138.71 E1.1508
G1 X108.853 Y138.202 E.0273
G1 X140.148 Y138.202 E1.18941
G1 X140.303 Y138.047 E.00834
G1 X140.303 Y137.694 E.01341
G1 X108.697 Y137.694 E1.2012
M73 P6 R28
G1 X108.697 Y137.186 E.0193
G1 X140.303 Y137.186 E1.2012
G1 X140.303 Y136.679 E.0193
G1 X108.697 Y136.679 E1.2012
G1 X108.697 Y136.171 E.0193
G1 X140.303 Y136.171 E1.2012
G1 X140.303 Y135.663 E.0193
G1 X108.697 Y135.663 E1.2012
G1 X108.697 Y135.155 E.0193
G1 X140.303 Y135.155 E1.2012
G1 X140.303 Y134.647 E.0193
G1 X108.697 Y134.647 E1.2012
G1 X108.697 Y134.139 E.0193
G1 X140.303 Y134.139 E1.2012
M73 P6 R27
G1 X140.303 Y133.631 E.0193
G1 X108.697 Y133.631 E1.2012
M73 P7 R27
G1 X108.697 Y133.124 E.0193
G1 X140.303 Y133.124 E1.2012
G1 X140.303 Y132.616 E.0193
G1 X108.697 Y132.616 E1.2012
G1 X108.697 Y132.108 E.0193
G1 X140.303 Y132.108 E1.2012
G1 X140.303 Y131.6 E.0193
G1 X108.697 Y131.6 E1.2012
G1 X108.697 Y131.092 E.0193
G1 X140.303 Y131.092 E1.2012
G1 X140.303 Y130.584 E.0193
G1 X108.697 Y130.584 E1.2012
G1 X108.697 Y130.076 E.0193
G1 X140.303 Y130.076 E1.2012
G1 X140.303 Y129.568 E.0193
G1 X128.697 Y129.568 E.44109
G1 X128.697 Y129.061 E.0193
G1 X140.303 Y129.061 E.44109
G1 X140.303 Y128.553 E.0193
M73 P8 R27
G1 X128.697 Y128.553 E.44109
G1 X128.697 Y128.045 E.0193
G1 X140.303 Y128.045 E.44109
G1 X140.303 Y127.537 E.0193
G1 X129.17 Y127.537 E.42312
G1 X129.481 Y127.226 E.01673
G1 X129.755 Y127.226 E.01041
; stop printing object cableChain_linkCover_v2.stl id:0 copy 0
; printing object cableChain_linkCover_v2.stl id:1 copy 0
G1 E-1.4 F3600
;WIPE_START
G1 F900
G1 X129.481 Y127.226 E-.16435
G1 X129.17 Y127.537 E-.26417
G1 X129.456 Y127.537 E-.17149
;WIPE_END
EXCLUDE_OBJECT_END NAME=cableChain_linkCover_v2.stl_id_0_copy_0
EXCLUDE_OBJECT_START NAME=cableChain_linkCover_v2.stl_id_1_copy_0
G17
G3 Z.6 I.919 J-.798 P1  F9000
G1 X117.857 Y114.182 Z.6
G1 Z.2
G1 E2 F3600
G1 F900
G1 X117.857 Y116.014 E.06963
G1 X119.689 Y116.014 E.06963
G1 X120.714 Y117.039 E.0551
G1 X120.714 Y118.871 E.06963
G1 X128.286 Y118.871 E.28775
G1 X128.286 Y117.039 E.06963
G1 X129.311 Y116.014 E.0551
G1 X131.143 Y116.014 E.06963
G1 X131.143 Y114.182 E.06963
G1 X132.168 Y113.157 E.0551
G1 X139.689 Y113.157 E.28585
G1 X140.714 Y114.182 E.0551
G1 X140.714 Y127.418 E.50302
G1 X139.689 Y128.443 E.0551
G1 X109.311 Y128.443 E1.15454
G1 X108.286 Y127.418 E.0551
G1 X108.286 Y114.182 E.50302
G1 X109.311 Y113.157 E.0551
G1 X116.832 Y113.157 E.28585
G1 X117.809 Y114.134 E.05249
G1 E-1.4 F3600
;WIPE_START
G1 F900
G1 X117.102 Y113.427 E-.6
;WIPE_END
G17
G3 Z.6 I-.021 J1.217 P1  F9000
G1 X132.217 Y113.69 Z.6
G1 Z.2
G1 E2 F3600
G1 F900
G1 X139.64 Y113.69 E.28211
G1 X140.148 Y114.198 E.0273
G1 X131.709 Y114.198 E.32071
G1 X131.554 Y114.353 E.00834
G1 X131.554 Y114.706 E.01341
G1 X140.303 Y114.706 E.3325
G1 X140.303 Y115.213 E.0193
G1 X131.554 Y115.213 E.3325
G1 X131.554 Y115.721 E.0193
G1 X140.303 Y115.721 E.3325
G1 X140.303 Y116.229 E.0193
G1 X131.554 Y116.229 E.3325
G1 E-1.4 F3600
;WIPE_START
G1 F900
G1 X132.554 Y116.229 E-.6
;WIPE_END
G17
G3 Z.6 I-.273 J-1.186 P1  F9000
G1 X120.303 Y119.048 Z.6
G1 Z.2
G1 E2 F3600
G1 F900
G1 X120.303 Y118.768 E.01062
G1 X108.697 Y118.768 E.44109
G1 X108.697 Y118.261 E.0193
G1 X120.303 Y118.261 E.44109
G1 X120.303 Y117.753 E.0193
G1 X108.697 Y117.753 E.44109
M73 P9 R27
G1 X108.697 Y117.245 E.0193
G1 X120.303 Y117.245 E.44109
G1 X120.303 Y117.21 E.00133
G1 X119.83 Y116.737 E.02541
G1 X108.697 Y116.737 E.42312
G1 X108.697 Y116.229 E.0193
G1 X117.446 Y116.229 E.3325
G1 X117.446 Y115.721 E.0193
G1 X108.697 Y115.721 E.3325
G1 X108.697 Y115.213 E.0193
G1 X117.446 Y115.213 E.3325
G1 X117.446 Y114.706 E.0193
G1 X108.697 Y114.706 E.3325
G1 X108.697 Y114.353 E.01341
G1 X108.853 Y114.198 E.00834
G1 X117.291 Y114.198 E.32071
G1 X116.783 Y113.69 E.0273
G1 X109.36 Y113.69 E.28211
G1 E-1.4 F3600
;WIPE_START
G1 F900
G1 X110.36 Y113.69 E-.6
;WIPE_END
G17
G3 Z.6 I-.532 J1.095 P1  F9000
G1 X139.64 Y127.91 Z.6
G1 Z.2
G1 E2 F3600
G1 F900
G1 X109.36 Y127.91 E1.1508
G1 X108.853 Y127.402 E.0273
G1 X140.148 Y127.402 E1.18941
G1 X140.303 Y127.247 E.00834
G1 X140.303 Y126.894 E.01341
G1 X108.697 Y126.894 E1.2012
G1 X108.697 Y126.386 E.0193
G1 X140.303 Y126.386 E1.2012
G1 X140.303 Y125.879 E.0193
G1 X108.697 Y125.879 E1.2012
G1 X108.697 Y125.371 E.0193
G1 X140.303 Y125.371 E1.2012
M73 P10 R27
G1 X140.303 Y124.863 E.0193
G1 X108.697 Y124.863 E1.2012
G1 X108.697 Y124.355 E.0193
M73 P10 R26
G1 X140.303 Y124.355 E1.2012
G1 X140.303 Y123.847 E.0193
G1 X108.697 Y123.847 E1.2012
G1 X108.697 Y123.339 E.0193
G1 X140.303 Y123.339 E1.2012
G1 X140.303 Y122.831 E.0193
G1 X108.697 Y122.831 E1.2012
G1 X108.697 Y122.324 E.0193
G1 X140.303 Y122.324 E1.2012
G1 X140.303 Y121.816 E.0193
G1 X108.697 Y121.816 E1.2012
G1 X108.697 Y121.308 E.0193
G1 X140.303 Y121.308 E1.2012
M73 P11 R26
G1 X140.303 Y120.8 E.0193
G1 X108.697 Y120.8 E1.2012
G1 X108.697 Y120.292 E.0193
G1 X140.303 Y120.292 E1.2012
G1 X140.303 Y119.784 E.0193
G1 X108.697 Y119.784 E1.2012
G1 X108.697 Y119.276 E.0193
G1 X140.303 Y119.276 E1.2012
G1 X140.303 Y118.768 E.0193
G1 X128.697 Y118.768 E.44109
G1 X128.697 Y118.261 E.0193
G1 X140.303 Y118.261 E.44109
G1 X140.303 Y117.753 E.0193
G1 X128.697 Y117.753 E.44109
G1 X128.697 Y117.245 E.0193
G1 X140.303 Y117.245 E.44109
G1 X140.303 Y116.737 E.0193
G1 X129.17 Y116.737 E.42312
G1 X129.481 Y116.426 E.01673
G1 X129.755 Y116.426 E.01041
; stop printing object cableChain_linkCover_v2.stl id:1 copy 0
; printing object cableChain_linkCover_v2.stl id:2 copy 0
G1 E-1.4 F3600
;WIPE_START
G1 F900
G1 X129.481 Y116.426 E-.16435
G1 X129.17 Y116.737 E-.26417
G1 X129.456 Y116.737 E-.17149
;WIPE_END
EXCLUDE_OBJECT_END NAME=cableChain_linkCover_v2.stl_id_1_copy_0
EXCLUDE_OBJECT_START NAME=cableChain_linkCover_v2.stl_id_2_copy_0
G17
G3 Z.6 I.919 J-.798 P1  F9000
G1 X117.857 Y103.382 Z.6
G1 Z.2
G1 E2 F3600
G1 F900
G1 X117.857 Y105.214 E.06963
G1 X119.689 Y105.214 E.06963
G1 X120.714 Y106.24 E.0551
G1 X120.714 Y108.071 E.06963
