; HEADER_BLOCK_START
; generated by OrcaSlicer 1.7.0 on 2023-11-18 at 17:49:22
; total layer number: 140
; HEADER_BLOCK_END

; THUMBNAIL_BLOCK_START
; THUMBNAIL_BLOCK_END

; external perimeters extrusion width = 0.40mm
; perimeters extrusion width = 0.45mm
; infill extrusion width = 0.45mm
; solid infill extrusion width = 0.40mm
; top infill extrusion width = 0.40mm
; first layer extrusion width = 0.50mm

; external perimeters extrusion width = 0.40mm
; perimeters extrusion width = 0.45mm
; infill extrusion width = 0.45mm
; solid infill extrusion width = 0.40mm
; top infill extrusion width = 0.40mm
; first layer extrusion width = 0.50mm

; external perimeters extrusion width = 0.40mm
; perimeters extrusion width = 0.45mm
; infill extrusion width = 0.45mm
; solid infill extrusion width = 0.40mm
; top infill extrusion width = 0.40mm
; first layer extrusion width = 0.50mm

; external perimeters extrusion width = 0.40mm
; perimeters extrusion width = 0.45mm
; infill extrusion width = 0.45mm
; solid infill extrusion width = 0.40mm
; top infill extrusion width = 0.40mm
; first layer extrusion width = 0.50mm

; EXECUTABLE_BLOCK_START
EXCLUDE_OBJECT_DEFINE NAME=cableChain_linkCover_v2.stl_id_0_copy_0 CENTER=38.999,83.5995 POLYGON=[[26.999,80.6995],[50.999,80.6995],[50.999,86.4995],[26.999,86.4995],[26.999,80.6995]]
EXCLUDE_OBJECT_DEFINE NAME=cableChain_linkCover_v2.stl_id_1_copy_0 CENTER=38.999,136.4 POLYGON=[[26.999,133.501],[50.999,133.501],[50.999,139.3],[26.999,139.3],[26.999,133.501]]
EXCLUDE_OBJECT_DEFINE NAME=cableChain_linkCover_v2.stl_id_2_copy_0 CENTER=110,83.5995 POLYGON=[[98,80.6995],[122,80.6995],[122,86.4995],[98,86.4995],[98,80.6995]]
EXCLUDE_OBJECT_DEFINE NAME=cableChain_linkCover_v2.stl_id_3_copy_0 CENTER=110,136.4 POLYGON=[[98,133.5],[122,133.5],[122,139.3],[98,139.3],[98,133.5]]
M73 P0 R16
;TYPE:Custom
START_PRINT EXTRUDER_TEMP=255  BED_TEMP=80
G90
G21
M83 ; use relative distances for extrusion
; filament start gcode
M106 S0
;LAYER_CHANGE
;Z:0.2
;HEIGHT:0.2
;BEFORE_LAYER_CHANGE
;0.2
G92 E0

G1 E-4 F1800
;_SET_FAN_SPEED_CHANGING_LAYER
SET_VELOCITY_LIMIT SQUARE_CORNER_VELOCITY=8
G1 X23.025 Y68.593 F12000
G1 Z.4
G1 Z.2
G1 E4 F1800
;TYPE:Skirt
;WIDTH:0.5
G1 F900
G1 X26.999 Y67.957 E.14531
G1 X122 Y67.957 E3.43011
G1 X125.162 Y68.355 E.11505
G1 X128.125 Y69.526 E.11505
G1 X130.706 Y71.395 E.11505
G1 X132.742 Y73.846 E.11505
G1 X134.107 Y76.726 E.11505
G1 X134.742 Y80.7 E.14531
G1 X134.742 Y139.3 E2.11585
M73 P1 R16
G1 X134.344 Y142.462 E.11505
G1 X133.174 Y145.426 E.11505
G1 X131.305 Y148.007 E.11505
G1 X128.854 Y150.043 E.11505
G1 X125.974 Y151.407 E.11505
G1 X122 Y152.043 E.14531
G1 X26.999 Y152.043 E3.43011
M73 P2 R16
G1 X23.837 Y151.645 E.11505
G1 X20.874 Y150.474 E.11505
G1 X18.293 Y148.605 E.11505
G1 X16.257 Y146.154 E.11505
G1 X14.892 Y143.274 E.11505
G1 X14.257 Y139.3 E.14531
G1 X14.257 Y80.7 E2.11585
G1 X14.655 Y77.538 E.11505
G1 X15.825 Y74.574 E.11505
G1 X17.694 Y71.993 E.11505
G1 X20.145 Y69.957 E.11505
G1 X22.989 Y68.61 E.11361
G1 X23.188 Y69.054 F12000
G1 F900
G1 X23.439 Y68.941 E.00992
G1 X26.999 Y68.414 E.12995
G1 X122 Y68.414 E3.43011
M73 P3 R16
G1 X125.103 Y68.813 E.11296
G1 X128.005 Y69.982 E.11296
G1 X130.518 Y71.846 E.11296
G1 X132.478 Y74.285 E.11296
G1 X133.758 Y77.139 E.11296
G1 X134.285 Y80.7 E.12995
G1 X134.285 Y139.3 E2.11585
M73 P3 R15
G1 X133.887 Y142.404 E.11296
G1 X132.718 Y145.306 E.11296
G1 X130.853 Y147.818 E.11296
G1 X128.415 Y149.778 E.11296
G1 X125.56 Y151.059 E.11296
M73 P4 R15
G1 X122 Y151.586 E.12995
G1 X26.999 Y151.586 E3.43011
G1 X23.896 Y151.187 E.11296
G1 X20.994 Y150.018 E.11296
G1 X18.481 Y148.154 E.11296
G1 X16.521 Y145.715 E.11296
G1 X15.241 Y142.861 E.11296
G1 X14.714 Y139.3 E.12995
G1 X14.714 Y80.7 E2.11585
M73 P5 R15
G1 X15.112 Y77.596 E.11296
G1 X16.281 Y74.694 E.11296
G1 X18.146 Y72.182 E.11296
G1 X20.584 Y70.222 E.11296
G1 X23.152 Y69.07 E.1016
G1 X23.339 Y69.514 F12000
G1 F900
G1 X23.849 Y69.298 E.02
G1 X26.999 Y68.871 E.11477
G1 X122 Y68.871 E3.43011
G1 X125.044 Y69.27 E.11083
G1 X127.882 Y70.438 E.11083
G1 X130.325 Y72.297 E.11083
M73 P6 R15
G1 X132.207 Y74.722 E.11083
G1 X133.401 Y77.55 E.11083
G1 X133.828 Y80.7 E.11477
G1 X133.828 Y139.3 E2.11585
G1 X133.43 Y142.344 E.11083
G1 X132.262 Y145.183 E.11083
G1 X130.403 Y147.625 E.11083
G1 X127.978 Y149.507 E.11083
G1 X125.15 Y150.702 E.11083
G1 X122 Y151.129 E.11477
G1 X26.999 Y151.129 E3.43011
M73 P7 R15
G1 X23.955 Y150.73 E.11083
G1 X21.117 Y149.562 E.11083
G1 X18.674 Y147.703 E.11083
G1 X16.792 Y145.278 E.11083
G1 X15.598 Y142.45 E.11083
G1 X15.171 Y139.3 E.11477
G1 X15.171 Y80.7 E2.11585
G1 X15.569 Y77.656 E.11083
G1 X16.737 Y74.817 E.11083
G1 X18.596 Y72.375 E.11083
G1 X21.021 Y70.493 E.11083
G1 X23.302 Y69.529 E.08939
G1 X23.477 Y69.972 F12000
G1 F900
G1 X24.256 Y69.664 E.03025
G1 X26.999 Y69.328 E.09977
G1 X122 Y69.328 E3.43011
M73 P8 R15
G1 X124.983 Y69.727 E.10866
G1 X127.757 Y70.893 E.10866
G1 X130.128 Y72.747 E.10866
G1 X131.929 Y75.158 E.10866
G1 X133.035 Y77.957 E.10866
G1 X133.371 Y80.7 E.09977
G1 X133.371 Y139.3 E2.11585
M73 P9 R15
G1 X132.973 Y142.283 E.10866
G1 X131.806 Y145.058 E.10866
G1 X129.952 Y147.428 E.10866
G1 X127.542 Y149.23 E.10866
G1 X124.743 Y150.336 E.10866
G1 X122 Y150.672 E.09977
G1 X26.999 Y150.672 E3.43011
M73 P9 R14
G1 X24.016 Y150.273 E.10866
G1 X21.242 Y149.107 E.10866
G1 X18.871 Y147.253 E.10866
G1 X17.07 Y144.842 E.10866
G1 X15.964 Y142.043 E.10866
G1 X15.628 Y139.3 E.09977
G1 X15.628 Y80.7 E2.11585
M73 P10 R14
G1 X16.026 Y77.717 E.10866
G1 X17.193 Y74.942 E.10866
G1 X19.047 Y72.572 E.10866
G1 X21.457 Y70.77 E.10866
G1 X23.44 Y69.987 E.07697
G1 X23.601 Y70.427 F12000
G1 F900
G1 X24.659 Y70.039 E.04068
G1 X26.999 Y69.785 E.08498
G1 X122 Y69.785 E3.43011
M73 P11 R14
G1 X124.921 Y70.184 E.10644
G1 X127.629 Y71.349 E.10644
G1 X129.926 Y73.197 E.10644
G1 X131.645 Y75.592 E.10644
G1 X132.66 Y78.36 E.10644
G1 X132.914 Y80.7 E.08498
G1 X132.914 Y139.3 E2.11585
G1 X132.516 Y142.222 E.10644
G1 X131.351 Y144.93 E.10644
G1 X129.503 Y147.227 E.10644
G1 X127.108 Y148.946 E.10644
G1 X124.34 Y149.961 E.10644
G1 X122 Y150.215 E.08498
G1 X26.999 Y150.215 E3.43011
M73 P12 R14
G1 X24.078 Y149.816 E.10644
G1 X21.37 Y148.651 E.10644
G1 X19.073 Y146.803 E.10644
G1 X17.354 Y144.408 E.10644
G1 X16.339 Y141.64 E.10644
G1 X16.085 Y139.3 E.08498
G1 X16.085 Y80.7 E2.11585
G1 X16.483 Y77.778 E.10644
G1 X17.648 Y75.07 E.10644
G1 X19.496 Y72.773 E.10644
G1 X21.891 Y71.054 E.10644
G1 X23.564 Y70.441 E.06432
G1 X23.711 Y70.878 F12000
G1 F900
G1 X25.058 Y70.424 E.0513
G1 X26.999 Y70.242 E.0704
G1 X122 Y70.242 E3.43011
M73 P13 R14
G1 X124.858 Y70.641 E.10418
G1 X127.498 Y71.804 E.10418
G1 X129.72 Y73.646 E.10418
G1 X131.354 Y76.024 E.10418
G1 X132.275 Y78.758 E.10418
G1 X132.457 Y80.7 E.0704
G1 X132.457 Y139.3 E2.11585
M73 P14 R14
G1 X132.059 Y142.158 E.10418
G1 X130.895 Y144.799 E.10418
G1 X129.054 Y147.02 E.10418
G1 X126.676 Y148.654 E.10418
G1 X123.941 Y149.576 E.10418
G1 X122 Y149.758 E.0704
G1 X26.999 Y149.758 E3.43011
G1 X24.141 Y149.359 E.10418
G1 X21.501 Y148.196 E.10418
G1 X19.279 Y146.354 E.10418
G1 X17.645 Y143.976 E.10418
G1 X16.724 Y141.242 E.10418
G1 X16.542 Y139.3 E.0704
G1 X16.542 Y80.7 E2.11585
M73 P15 R14
G1 X16.94 Y77.842 E.10418
G1 X18.104 Y75.201 E.10418
G1 X19.945 Y72.98 E.10418
G1 X22.323 Y71.346 E.10418
G1 X23.673 Y70.891 E.05144
; printing object cableChain_linkCover_v2.stl id:0 copy 0
G1 E-2.8 F1800
;WIPE_START
G1 F900
G1 X24.621 Y70.571 E-1.2
;WIPE_END
EXCLUDE_OBJECT_START NAME=cableChain_linkCover_v2.stl_id_0_copy_0
G17
G3 Z.6 I-.529 J1.096 P1  F12000
G1 X49.675 Y82.664 Z.6
G1 Z.2
G1 E4 F1800
;TYPE:Inner wall
;WIDTH:0.504838
G1 F900
G1 X50.289 Y82.075 E.03106
G1 X50.289 Y83.208 E.04133
G1 X50.12 Y82.917 E.01226
G1 X49.71 Y82.684 E.01723
G1 E-2.8 F1800
;WIPE_START
G1 F900
G1 X50.289 Y82.075 E-1.00878
G1 X50.289 Y82.234 E-.19122
;WIPE_END
G17
G3 Z.6 I-1.199 J-.21 P1  F12000
G1 X49.759 Y85.26 Z.6
G1 X28.239 Y85.26
G1 X27.708 Y83.208
G1 Z.2
G1 E4 F1800
;WIDTH:0.504839
G1 F900
G1 X27.708 Y82.075 E.04133
G1 X28.323 Y82.664 E.03106
G1 X27.878 Y82.917 E.01869
G1 X27.729 Y83.173 E.0108
G1 E-4 F1800
G17
G3 Z.6 I-1.205 J.172 P1  F12000
M73 P15 R13
G1 X28.069 Y85.549 Z.6
G1 Z.2
G1 E4 F1800
;TYPE:Outer wall
;WIDTH:0.709922
G1 F900
G1 X28.135 Y85.563 E.00357
;WIDTH:0.675691
G1 X28.218 Y85.58 E.00422
;WIDTH:0.64146
G1 X49.78 Y85.58 E1.0195
;WIDTH:0.675691
G1 X49.863 Y85.563 E.00422
;WIDTH:0.709922
G1 X49.946 Y85.546 E.00445
;WIDTH:0.744153
G1 X50.028 Y85.529 E.00467
G1 X50.045 Y85.446 E.00467
;WIDTH:0.709922
G1 X50.063 Y85.364 E.00445
;WIDTH:0.675691
G1 X50.08 Y85.281 E.00422
;WIDTH:0.641459
G1 X50.08 Y83.515 E.08347
G1 X50.018 Y83.449 E.00429
;WIDTH:0.594306
G1 X49.956 Y83.383 E.00395
;WIDTH:0.547153
G1 X49.893 Y83.317 E.00362
;WIDTH:0.499999
G1 X49.009 Y82.814 E.03673
G1 X49.009 Y82.666 E.00534
G1 X50.749 Y80.998 E.08703
G1 X50.749 Y82.819 E.06575
;WIDTH:0.547153
G1 X50.725 Y83.051 E.00929
;WIDTH:0.594306
G1 X50.702 Y83.283 E.01016
;WIDTH:0.641459
G1 X50.678 Y83.515 E.01103
G1 X50.678 Y85.281 E.08347
;WIDTH:0.669075
M73 P16 R13
G1 X50.664 Y85.538 E.01274
;WIDTH:0.706614
G1 X50.646 Y85.833 E.01548
;WIDTH:0.744153
G1 X50.627 Y86.127 E.01636
G1 X50.345 Y86.145 E.01566
;WIDTH:0.709922
G1 X50.063 Y86.162 E.01489
;WIDTH:0.675691
G1 X49.78 Y86.179 E.01413
;WIDTH:0.64146
G1 X28.218 Y86.179 E1.0195
;WIDTH:0.675691
G1 X27.935 Y86.162 E.01413
;WIDTH:0.709922
G1 X27.653 Y86.145 E.01489
;WIDTH:0.744152
G1 X27.371 Y86.127 E.01566
G1 X27.354 Y85.845 E.01566
;WIDTH:0.709922
G1 X27.337 Y85.563 E.01489
;WIDTH:0.675691
G1 X27.32 Y85.281 E.01413
;WIDTH:0.64146
G1 X27.32 Y83.515 E.08347
G1 X27.296 Y83.283 E.01103
;WIDTH:0.594307
G1 X27.273 Y83.051 E.01016
;WIDTH:0.547153
G1 X27.249 Y82.819 E.00929
;WIDTH:0.499999
G1 X27.249 Y80.998 E.06575
G1 X28.989 Y82.666 E.08703
G1 X28.989 Y82.814 E.00534
G1 X28.105 Y83.317 E.03673
;WIDTH:0.547153
G1 X28.042 Y83.383 E.00362
;WIDTH:0.594307
G1 X27.98 Y83.449 E.00395
;WIDTH:0.64146
G1 X27.918 Y83.515 E.00429
G1 X27.918 Y85.281 E.08347
;WIDTH:0.675691
G1 X27.935 Y85.364 E.00422
;WIDTH:0.709922
G1 X27.952 Y85.446 E.00445
;WIDTH:0.744152
G1 X27.97 Y85.529 E.00467
G1 X28.029 Y85.541 E.00338
; stop printing object cableChain_linkCover_v2.stl id:0 copy 0
;LAYER_CHANGE
;Z:0.4
;HEIGHT:0.2
;BEFORE_LAYER_CHANGE
;0.4
G92 E0

G1 E-2.8 F1800
;WIPE_START
G1 F900
G1 X28.135 Y85.563 E-.12931
G1 X28.218 Y85.58 E-.10127
G1 X29.025 Y85.58 E-.96942
;WIPE_END
EXCLUDE_OBJECT_END NAME=cableChain_linkCover_v2.stl_id_0_copy_0
;_SET_FAN_SPEED_CHANGING_LAYER
SET_VELOCITY_LIMIT SQUARE_CORNER_VELOCITY=1
M104 S235 ; set nozzle temperature
M140 S80 ; set bed temperature
; printing object cableChain_linkCover_v2.stl id:0 copy 0
SET_VELOCITY_LIMIT SQUARE_CORNER_VELOCITY=8
EXCLUDE_OBJECT_START NAME=cableChain_linkCover_v2.stl_id_0_copy_0
G17
G3 Z.6 I.018 J1.217 P1  F12000
G1 X50.99 Y85.251 Z.6
G1 X49.464 Y82.69
G1 Z.4
G1 E4 F1800
SET_VELOCITY_LIMIT SQUARE_CORNER_VELOCITY=1
;TYPE:Inner wall
;WIDTH:0.449999
G1 F6000
G1 X50.417 Y81.776 E.04247
G1 X50.417 Y82.819 E.03353
;WIDTH:0.48792
G1 X50.398 Y83.167 E.01226
;WIDTH:0.52584
G1 X50.379 Y83.515 E.0133
G1 X50.218 Y83.272 E.01114
;WIDTH:0.48792
G1 X50.058 Y83.028 E.01026
;WIDTH:0.449999
G1 X49.498 Y82.71 E.02068
SET_VELOCITY_LIMIT SQUARE_CORNER_VELOCITY=8
G1 X50.078 Y82.583 F12000
SET_VELOCITY_LIMIT SQUARE_CORNER_VELOCITY=1
;WIDTH:0.352598
G1 F6000
G1 X50.02 Y82.616 E.00164
G1 X50.078 Y82.65 E.00164
G1 X50.097 Y82.616 E.00095
SET_VELOCITY_LIMIT SQUARE_CORNER_VELOCITY=8
G1 E-2.8 F1800
;WIPE_START
G1 F6000
G1 X50.078 Y82.65 E-.26881
G1 X50.02 Y82.616 E-.46559
G1 X50.078 Y82.583 E-.46559
;WIPE_END
G17
G3 Z.8 I-1.209 J-.139 P1  F12000
G1 X49.768 Y85.269 Z.8
G1 X28.23 Y85.269
G1 X27.619 Y83.515
G1 Z.4
G1 E4 F1800
SET_VELOCITY_LIMIT SQUARE_CORNER_VELOCITY=1
;WIDTH:0.525842
G1 F6000
G1 X27.6 Y83.167 E.0133
;WIDTH:0.487921
G1 X27.581 Y82.819 E.01226
;WIDTH:0.449999
G1 X27.581 Y81.776 E.03353
G1 X28.534 Y82.69 E.04247
G1 X27.94 Y83.028 E.02197
;WIDTH:0.487921
G1 X27.78 Y83.272 E.01026
;WIDTH:0.525842
G1 X27.641 Y83.482 E.00961
SET_VELOCITY_LIMIT SQUARE_CORNER_VELOCITY=8
G1 X27.978 Y82.616 F12000
SET_VELOCITY_LIMIT SQUARE_CORNER_VELOCITY=1
;WIDTH:0.3526
G1 F6000
G1 X27.959 Y82.65 E.00095
G1 X27.901 Y82.616 E.00164
G1 X27.959 Y82.583 E.00164
SET_VELOCITY_LIMIT SQUARE_CORNER_VELOCITY=8
G1 E-4 F1800
G17
G3 Z.8 I-1.212 J.109 P1  F12000
G1 X28.218 Y85.46 Z.8
G1 Z.4
G1 E4 F1800
SET_VELOCITY_LIMIT SQUARE_CORNER_VELOCITY=1
;TYPE:Outer wall
;WIDTH:0.399999
G1 F6000
G1 X49.78 Y85.46 E.60822
G1 X49.907 Y85.407 E.00385
G1 X49.959 Y85.281 E.00385
G1 X49.959 Y83.515 E.0498
G1 X49.869 Y83.36 E.00507
G1 X48.959 Y82.843 E.02952
G1 X48.959 Y82.645 E.00559
G1 X50.775 Y80.903 E.07097
G1 X50.799 Y80.914 E.00073
G1 X50.799 Y86.3 E.15192
G1 X27.199 Y86.3 E.66568
G1 X27.199 Y80.914 E.15192
G1 X27.219 Y80.9 E.00068
G1 X29.039 Y82.645 E.07113
G1 X29.039 Y82.843 E.00559
G1 X28.129 Y83.36 E.02952
G1 X28.039 Y83.515 E.00507
G1 X28.039 Y85.281 E.0498
G1 X28.055 Y85.354 E.00212
G1 X28.184 Y85.438 E.00434
SET_VELOCITY_LIMIT SQUARE_CORNER_VELOCITY=8
G1 E-2.8 F1800
;WIPE_START
G1 F6000
G1 X29.184 Y85.439 E-1.2
;WIPE_END
G17
G3 Z.8 I-.016 J1.217 P1  F12000
G1 X50.948 Y85.722 Z.8
G1 X50.379 Y83.515
M73 P17 R13
G1 Z.4
G1 E4 F1800
SET_VELOCITY_LIMIT SQUARE_CORNER_VELOCITY=1
;TYPE:Inner wall
;WIDTH:0.52584
G1 F6000
G1 X50.379 Y85.281 E.06735
;WIDTH:0.553456
G1 F5876.177
G1 X50.365 Y85.41 E.00523
;WIDTH:0.581072
G1 F5574.634
G1 X50.351 Y85.538 E.00547
;WIDTH:0.618611
G1 F5211.129
G1 X50.333 Y85.598 E.00285
;WIDTH:0.65615
G1 F4892.129
G1 X50.314 Y85.657 E.003
;WIDTH:0.693689
G1 F4609.931
G1 X50.295 Y85.717 E.00324
;WIDTH:0.731228
G1 F4358.514
G1 X50.276 Y85.777 E.00342
G1 X50.217 Y85.796 E.00337
;WIDTH:0.69369
G1 F4609.927
G1 X50.157 Y85.814 E.00322
;WIDTH:0.656151
G1 F4892.121
G1 X50.097 Y85.833 E.00305
;WIDTH:0.618613
G1 F5211.116
G1 X50.038 Y85.852 E.00282
;WIDTH:0.581074
G1 F5574.613
G1 X49.909 Y85.866 E.00552
;WIDTH:0.553458
G1 F5876.155
G1 X49.78 Y85.88 E.00523
;WIDTH:0.525842
G1 F6000
G1 X28.218 Y85.88 E.82257
;WIDTH:0.566919
G1 F5725.204
G1 X28.118 Y85.859 E.00423
;WIDTH:0.607996
G1 F5309.024
G1 X28.019 Y85.838 E.00452
;WIDTH:0.649073
G1 F4949.251
G1 X27.92 Y85.818 E.00484
;WIDTH:0.69015
G1 F4635.143
G1 X27.821 Y85.797 E.00517
;WIDTH:0.731226
G1 F4358.527
G1 X27.722 Y85.777 E.00549
G1 X27.703 Y85.717 E.00342
;WIDTH:0.693688
G1 F4609.938
G1 X27.684 Y85.657 E.00324
;WIDTH:0.65615
G1 F4892.129
G1 X27.665 Y85.598 E.003
;WIDTH:0.618612
G1 F5211.12
G1 X27.647 Y85.538 E.00285
;WIDTH:0.581074
G1 F5574.613
G1 X27.633 Y85.41 E.00547
;WIDTH:0.553458
G1 F5876.155
G1 X27.619 Y85.281 E.00523
;WIDTH:0.525842
G1 F6000
G1 X27.619 Y83.515 E.06735
; stop printing object cableChain_linkCover_v2.stl id:0 copy 0
M106 S255
;LAYER_CHANGE
;Z:0.6
;HEIGHT:0.2
;BEFORE_LAYER_CHANGE
;0.6
G92 E0

G1 E-2.8 F1800
;WIPE_START
G1 F6000
G1 X27.619 Y84.515 E-1.2
;WIPE_END
EXCLUDE_OBJECT_END NAME=cableChain_linkCover_v2.stl_id_0_copy_0
;_SET_FAN_SPEED_CHANGING_LAYER
; printing object cableChain_linkCover_v2.stl id:0 copy 0
SET_VELOCITY_LIMIT SQUARE_CORNER_VELOCITY=8
EXCLUDE_OBJECT_START NAME=cableChain_linkCover_v2.stl_id_0_copy_0
G17
G3 Z.8 I-.945 J.766 P1  F12000
G1 X28.23 Y85.269 Z.8
G1 X49.768 Y85.269
G1 X49.768 Y83.522
G1 X49.464 Y82.69
G1 Z.6
G1 E4 F1800
SET_VELOCITY_LIMIT SQUARE_CORNER_VELOCITY=1
;WIDTH:0.449999
G1 F6000
G1 X50.417 Y81.776 E.04247
G1 X50.417 Y82.819 E.03353
;WIDTH:0.48792
G1 X50.398 Y83.167 E.01226
;WIDTH:0.52584
G1 X50.379 Y83.515 E.0133
G1 X50.218 Y83.272 E.01114
;WIDTH:0.48792
G1 X50.058 Y83.028 E.01026
;WIDTH:0.449999
G1 X49.498 Y82.71 E.02068
SET_VELOCITY_LIMIT SQUARE_CORNER_VELOCITY=8
G1 X50.078 Y82.583 F12000
SET_VELOCITY_LIMIT SQUARE_CORNER_VELOCITY=1
;WIDTH:0.352598
G1 F6000
G1 X50.02 Y82.616 E.00164
G1 X50.078 Y82.65 E.00164
G1 X50.097 Y82.616 E.00095
SET_VELOCITY_LIMIT SQUARE_CORNER_VELOCITY=8
G1 E-2.8 F1800
;WIPE_START
G1 F6000
G1 X50.078 Y82.65 E-.26881
G1 X50.02 Y82.616 E-.46559
G1 X50.078 Y82.583 E-.46559
;WIPE_END
G17
G3 Z1 I-1.209 J-.139 P1  F12000
G1 X49.768 Y85.269 Z1
