; HEADER_BLOCK_START
; generated by OrcaSlicer 1.7.0 on 2023-11-18 at 00:10:57
; total layer number: 60
; HEADER_BLOCK_END

; THUMBNAIL_BLOCK_START
; THUMBNAIL_BLOCK_END

; external perimeters extrusion width = 0.40mm
; perimeters extrusion width = 0.45mm
; infill extrusion width = 0.45mm
; solid infill extrusion width = 0.40mm
; top infill extrusion width = 0.40mm
; first layer extrusion width = 0.50mm

; external perimeters extrusion width = 0.40mm
; perimeters extrusion width = 0.45mm
; infill extrusion width = 0.45mm
; solid infill extrusion width = 0.40mm
; top infill extrusion width = 0.40mm
; first layer extrusion width = 0.50mm

; external perimeters extrusion width = 0.40mm
; perimeters extrusion width = 0.45mm
; infill extrusion width = 0.45mm
; solid infill extrusion width = 0.40mm
; top infill extrusion width = 0.40mm
; first layer extrusion width = 0.50mm

; external perimeters extrusion width = 0.40mm
; perimeters extrusion width = 0.45mm
; infill extrusion width = 0.45mm
; solid infill extrusion width = 0.40mm
; top infill extrusion width = 0.40mm
; first layer extrusion width = 0.50mm

; external perimeters extrusion width = 0.40mm
; perimeters extrusion width = 0.45mm
; infill extrusion width = 0.45mm
; solid infill extrusion width = 0.40mm
; top infill extrusion width = 0.40mm
; first layer extrusion width = 0.50mm

; external perimeters extrusion width = 0.40mm
; perimeters extrusion width = 0.45mm
; infill extrusion width = 0.45mm
; solid infill extrusion width = 0.40mm
; top infill extrusion width = 0.40mm
; first layer extrusion width = 0.50mm

; external perimeters extrusion width = 0.40mm
; perimeters extrusion width = 0.45mm
; infill extrusion width = 0.45mm
; solid infill extrusion width = 0.40mm
; top infill extrusion width = 0.40mm
; first layer extrusion width = 0.50mm

; external perimeters extrusion width = 0.40mm
; perimeters extrusion width = 0.45mm
; infill extrusion width = 0.45mm
; solid infill extrusion width = 0.40mm
; top infill extrusion width = 0.40mm
; first layer extrusion width = 0.50mm

; external perimeters extrusion width = 0.40mm
; perimeters extrusion width = 0.45mm
; infill extrusion width = 0.45mm
; solid infill extrusion width = 0.40mm
; top infill extrusion width = 0.40mm
; first layer extrusion width = 0.50mm

; external perimeters extrusion width = 0.40mm
; perimeters extrusion width = 0.45mm
; infill extrusion width = 0.45mm
; solid infill extrusion width = 0.40mm
; top infill extrusion width = 0.40mm
; first layer extrusion width = 0.50mm

; external perimeters extrusion width = 0.40mm
; perimeters extrusion width = 0.45mm
; infill extrusion width = 0.45mm
; solid infill extrusion width = 0.40mm
; top infill extrusion width = 0.40mm
; first layer extrusion width = 0.50mm

; external perimeters extrusion width = 0.40mm
; perimeters extrusion width = 0.45mm
; infill extrusion width = 0.45mm
; solid infill extrusion width = 0.40mm
; top infill extrusion width = 0.40mm
; first layer extrusion width = 0.50mm

; external perimeters extrusion width = 0.40mm
; perimeters extrusion width = 0.45mm
; infill extrusion width = 0.45mm
; solid infill extrusion width = 0.40mm
; top infill extrusion width = 0.40mm
; first layer extrusion width = 0.50mm

; external perimeters extrusion width = 0.40mm
; perimeters extrusion width = 0.45mm
; infill extrusion width = 0.45mm
; solid infill extrusion width = 0.40mm
; top infill extrusion width = 0.40mm
; first layer extrusion width = 0.50mm

; external perimeters extrusion width = 0.40mm
; perimeters extrusion width = 0.45mm
; infill extrusion width = 0.45mm
; solid infill extrusion width = 0.40mm
; top infill extrusion width = 0.40mm
; first layer extrusion width = 0.50mm

; external perimeters extrusion width = 0.40mm
; perimeters extrusion width = 0.45mm
; infill extrusion width = 0.45mm
; solid infill extrusion width = 0.40mm
; top infill extrusion width = 0.40mm
; first layer extrusion width = 0.50mm

; external perimeters extrusion width = 0.40mm
; perimeters extrusion width = 0.45mm
; infill extrusion width = 0.45mm
; solid infill extrusion width = 0.40mm
; top infill extrusion width = 0.40mm
; first layer extrusion width = 0.50mm

; external perimeters extrusion width = 0.40mm
; perimeters extrusion width = 0.45mm
; infill extrusion width = 0.45mm
; solid infill extrusion width = 0.40mm
; top infill extrusion width = 0.40mm
; first layer extrusion width = 0.50mm

; external perimeters extrusion width = 0.40mm
; perimeters extrusion width = 0.45mm
; infill extrusion width = 0.45mm
; solid infill extrusion width = 0.40mm
; top infill extrusion width = 0.40mm
; first layer extrusion width = 0.50mm

; external perimeters extrusion width = 0.40mm
; perimeters extrusion width = 0.45mm
; infill extrusion width = 0.45mm
; solid infill extrusion width = 0.40mm
; top infill extrusion width = 0.40mm
; first layer extrusion width = 0.50mm

; external perimeters extrusion width = 0.40mm
; perimeters extrusion width = 0.45mm
; infill extrusion width = 0.45mm
; solid infill extrusion width = 0.40mm
; top infill extrusion width = 0.40mm
; first layer extrusion width = 0.50mm

; EXECUTABLE_BLOCK_START
EXCLUDE_OBJECT_DEFINE NAME=cableChain_link_v3.stl_id_0_copy_0 CENTER=143.802,153.5 POLYGON=[[131.802,144.502],[133.642,139.5],[153.962,139.5],[155.802,144.502],[155.802,167.2],[155.504,167.5],[132.101,167.5],[131.802,167.2],[131.802,144.502]]
EXCLUDE_OBJECT_DEFINE NAME=cableChain_link_v3.stl_id_1_copy_0 CENTER=114.802,153.5 POLYGON=[[102.802,144.502],[104.642,139.5],[124.962,139.5],[126.802,144.502],[126.802,167.2],[126.504,167.5],[103.101,167.5],[102.802,167.2],[102.802,144.502]]
EXCLUDE_OBJECT_DEFINE NAME=cableChain_link_v3.stl_id_2_copy_0 CENTER=143.802,120.5 POLYGON=[[131.802,111.502],[133.642,106.5],[153.962,106.5],[155.802,111.502],[155.802,134.2],[155.504,134.5],[132.101,134.5],[131.802,134.2],[131.802,111.502]]
EXCLUDE_OBJECT_DEFINE NAME=cableChain_link_v3.stl_id_3_copy_0 CENTER=114.802,120.5 POLYGON=[[102.802,111.502],[104.642,106.5],[124.962,106.5],[126.802,111.502],[126.802,134.2],[126.504,134.5],[103.101,134.5],[102.802,134.2],[102.802,111.502]]
EXCLUDE_OBJECT_DEFINE NAME=cableChain_link_v3.stl_id_4_copy_0 CENTER=85.8022,120.5 POLYGON=[[73.8022,111.502],[75.6422,106.5],[95.9622,106.5],[97.8022,111.502],[97.8022,134.2],[97.5037,134.5],[74.1007,134.5],[73.8022,134.2],[73.8022,111.502]]
EXCLUDE_OBJECT_DEFINE NAME=cableChain_linkCover_v2.stl_id_5_copy_0 CENTER=85.8022,142.4 POLYGON=[[73.8022,139.5],[97.8022,139.5],[97.8022,145.3],[73.8022,145.3],[73.8022,139.5]]
EXCLUDE_OBJECT_DEFINE NAME=cableChain_linkCover_v2.stl_id_6_copy_0 CENTER=85.8022,153.2 POLYGON=[[73.8022,150.3],[97.8022,150.3],[97.8022,156.1],[73.8022,156.1],[73.8022,150.3]]
EXCLUDE_OBJECT_DEFINE NAME=cableChain_linkCover_v2.stl_id_7_copy_0 CENTER=85.8022,164 POLYGON=[[73.8022,161.1],[97.8022,161.1],[97.8022,166.9],[73.8022,166.9],[73.8022,161.1]]
EXCLUDE_OBJECT_DEFINE NAME=cableChain_linkCover_v2.stl_id_8_copy_0 CENTER=107.493,98.5999 POLYGON=[[95.4933,95.6999],[119.493,95.6999],[119.493,101.5],[95.4933,101.5],[95.4933,95.6999]]
EXCLUDE_OBJECT_DEFINE NAME=cableChain_linkCover_v2.stl_id_9_copy_0 CENTER=136.493,98.5999 POLYGON=[[124.493,95.6999],[148.493,95.6999],[148.493,101.5],[124.493,101.5],[124.493,95.6999]]
EXCLUDE_OBJECT_DEFINE NAME=cableChain_linkCover_v2.stl_id_10_copy_0 CENTER=111.58,87.8 POLYGON=[[99.58,84.9],[123.58,84.9],[123.58,90.6999],[99.58,90.6999],[99.58,84.9]]
EXCLUDE_OBJECT_DEFINE NAME=cableChain_linkCover_v2.stl_id_11_copy_0 CENTER=78.4933,98.5999 POLYGON=[[66.4933,95.6999],[90.4933,95.6999],[90.4933,101.5],[66.4933,101.5],[66.4933,95.6999]]
EXCLUDE_OBJECT_DEFINE NAME=cableChain_linkCover_v2.stl_id_12_copy_0 CENTER=82.58,87.8 POLYGON=[[70.58,84.9],[94.58,84.9],[94.58,90.6999],[70.58,90.6999],[70.58,84.9]]
EXCLUDE_OBJECT_DEFINE NAME=cableChain_linkCover_v2.stl_id_13_copy_0 CENTER=105.198,77 POLYGON=[[93.1978,74.1],[117.198,74.1],[117.198,79.9],[93.1978,79.9],[93.1978,74.1]]
EXCLUDE_OBJECT_DEFINE NAME=cableChain_linkCover_v2.stl_id_14_copy_0 CENTER=140.58,87.8 POLYGON=[[128.58,84.9],[152.58,84.9],[152.58,90.6999],[128.58,90.6999],[128.58,84.9]]
EXCLUDE_OBJECT_DEFINE NAME=cableChain_linkCover_v2.stl_id_15_copy_0 CENTER=134.198,77 POLYGON=[[122.198,74.1],[146.198,74.1],[146.198,79.9],[122.198,79.9],[122.198,74.1]]
EXCLUDE_OBJECT_DEFINE NAME=cableChain_linkCover_v2.stl_id_16_copy_0 CENTER=110.519,66.2 POLYGON=[[98.5194,63.3001],[122.519,63.3001],[122.519,69.1],[98.5194,69.1],[98.5194,63.3001]]
EXCLUDE_OBJECT_DEFINE NAME=cableChain_linkCover_v2.stl_id_17_copy_0 CENTER=76.1978,77 POLYGON=[[64.1978,74.1],[88.1978,74.1],[88.1978,79.9],[64.1978,79.9],[64.1978,74.1]]
EXCLUDE_OBJECT_DEFINE NAME=cableChain_linkCover_v2.stl_id_18_copy_0 CENTER=81.5194,66.2 POLYGON=[[69.5194,63.3001],[93.5194,63.3001],[93.5194,69.1],[69.5194,69.1],[69.5194,63.3001]]
EXCLUDE_OBJECT_DEFINE NAME=cableChain_linkCover_v2.stl_id_19_copy_0 CENTER=105.651,55.4001 POLYGON=[[93.6515,52.5001],[117.651,52.5001],[117.651,58.3001],[93.6515,58.3001],[93.6515,52.5001]]
EXCLUDE_OBJECT_DEFINE NAME=cableChain_linkCover_v2.stl_id_20_copy_0 CENTER=139.519,66.2 POLYGON=[[127.519,63.3001],[151.519,63.3001],[151.519,69.1],[127.519,69.1],[127.519,63.3001]]
M73 P0 R131
;TYPE:Custom
START_PRINT EXTRUDER_TEMP=235  BED_TEMP=80
G90
G21
M83 ; use relative distances for extrusion
; filament start gcode
M106 S0
;LAYER_CHANGE
;Z:0.2
;HEIGHT:0.2
;BEFORE_LAYER_CHANGE
;0.2
G92 E0

G1 E-4 F1800
;_SET_FAN_SPEED_CHANGING_LAYER
SET_VELOCITY_LIMIT SQUARE_CORNER_VELOCITY=8
G1 Z.4 F12000
G1 X59.844 Y55.008
G1 Z.4
G1 Z.2
G1 E4 F1800
;TYPE:Skirt
;WIDTH:0.5
G1 F900
G1 X62.204 Y52.867 E.12111
G1 X64.314 Y51.669 E.09222
G1 X88.446 Y40.869 E1.00483
G1 X91.495 Y39.941 E.12111
G1 X93.651 Y39.758 E.08227
G1 X117.651 Y39.758 E.91215
G1 X121.523 Y40.36 E.1489
G1 X155.391 Y51.16 E1.35106
G1 X158.282 Y52.5 E.12111
G1 X160.75 Y54.515 E.12111
G1 X162.641 Y57.08 E.12111
G1 X163.836 Y60.034 E.12111
G1 X164.222 Y62.296 E.08722
G1 X168.346 Y114.982 E2.0085
G1 X168.346 Y161.495 E1.7678
G1 X168.185 Y163.758 E.08623
G1 X167.48 Y166.866 E.12111
G1 X166.027 Y169.701 E.12111
G1 X163.915 Y172.087 E.12111
G1 X161.277 Y173.875 E.12111
G1 X158.278 Y174.952 E.12111
G1 X156.469 Y175.221 E.06949
G1 X98.768 Y179.606 E2.19934
G1 X73.802 Y179.642 E.94885
G1 X70.641 Y179.244 E.12111
G1 X67.677 Y178.073 E.12111
G1 X65.096 Y176.204 E.12111
G1 X63.06 Y173.753 E.12111
G1 X61.695 Y170.874 E.12111
G1 X61.139 Y168.315 E.09952
G1 X53.83 Y102.915 E2.50108
G1 X51.527 Y81.247 E.82818
G1 X51.455 Y79.9 E.05125
G1 X51.455 Y74.1 E.22044
G1 X51.854 Y70.939 E.12111
G1 X52.768 Y68.468 E.10012
G1 X58.089 Y57.668 E.45759
G1 X59.822 Y55.041 E.11959
G1 X60.206 Y55.296 F12000
G1 F900
G1 X60.228 Y55.262 E.00153
G1 X62.56 Y53.176 E.11891
G1 X64.501 Y52.086 E.08461
G1 X88.633 Y41.286 E1.00483
G1 X91.628 Y40.382 E.11891
G1 X93.651 Y40.215 E.07716
G1 X117.651 Y40.215 E.91215
G1 X121.384 Y40.795 E.14356
G1 X155.252 Y51.595 E1.35106
M73 P0 R130
G1 X158.087 Y52.918 E.11891
G1 X160.497 Y54.913 E.11891
G1 X162.324 Y57.453 E.11891
G1 X163.451 Y60.372 E.11891
G1 X163.767 Y62.332 E.07548
G1 X167.889 Y114.982 E2.00714
G1 X167.889 Y161.495 E1.7678
G1 X167.73 Y163.714 E.08454
G1 X167.031 Y166.763 E.11891
G1 X165.585 Y169.537 E.11891
G1 X163.484 Y171.856 E.11891
G1 X160.866 Y173.569 E.11891
G1 X156.435 Y174.765 E.17445
G1 X98.733 Y179.15 E2.19934
G1 X73.802 Y179.185 E.94753
G1 X70.699 Y178.787 E.11891
G1 X67.797 Y177.618 E.11891
G1 X65.285 Y175.753 E.11891
G1 X63.325 Y173.315 E.11891
G1 X62.044 Y170.46 E.11891
G1 X61.593 Y168.264 E.0852
G1 X54.284 Y102.864 E2.50108
G1 X51.981 Y81.198 E.82809
G1 X51.912 Y79.9 E.04941
G1 X51.912 Y74.1 E.22044
G1 X52.311 Y70.997 E.11891
G1 X53.178 Y68.67 E.09438
G1 X58.499 Y57.87 E.45759
G1 X60.184 Y55.329 E.11586
G1 X60.567 Y55.585 F12000
G1 F900
G1 X60.612 Y55.518 E.00306
G1 X62.914 Y53.488 E.11667
G1 X64.688 Y52.504 E.07708
G1 X88.82 Y41.704 E1.00483
G1 X91.761 Y40.824 E.11667
G1 X93.651 Y40.672 E.0721
G1 X117.651 Y40.672 E.91215
G1 X121.245 Y41.231 E.13822
G1 X155.113 Y52.031 E1.35106
G1 X157.892 Y53.335 E.11667
G1 X160.241 Y55.31 E.11667
G1 X162.004 Y57.824 E.11667
G1 X163.06 Y60.706 E.11667
G1 X163.311 Y62.368 E.06389
G1 X167.432 Y114.982 E2.00577
G1 X167.432 Y161.495 E1.7678
G1 X167.276 Y163.669 E.08284
G1 X166.582 Y166.659 E.11667
G1 X165.143 Y169.371 E.11667
G1 X163.054 Y171.62 E.11667
G1 X160.457 Y173.256 E.11667
G1 X156.4 Y174.31 E.15931
G1 X98.698 Y178.694 E2.19934
M73 P1 R130
G1 X73.802 Y178.728 E.94621
G1 X70.759 Y178.33 E.11667
G1 X67.92 Y177.162 E.11667
G1 X65.477 Y175.302 E.11667
G1 X63.595 Y172.877 E.11667
G1 X62.401 Y170.05 E.11667
G1 X62.047 Y168.213 E.07107
G1 X54.738 Y102.814 E2.50108
G1 X52.436 Y81.15 E.82799
G1 X52.369 Y79.9 E.04757
G1 X52.369 Y74.1 E.22044
G1 X52.768 Y71.056 E.11667
G1 X53.588 Y68.872 E.08868
G1 X58.909 Y58.072 E.45759
G1 X60.545 Y55.618 E.11208
G1 X60.928 Y55.875 F12000
G1 F900
G1 X60.995 Y55.774 E.0046
G1 X63.268 Y53.802 E.11438
G1 X64.874 Y52.921 E.06963
G1 X89.006 Y42.121 E1.00483
G1 X91.892 Y41.266 E.11438
G1 X93.651 Y41.129 E.06708
G1 X117.651 Y41.129 E.91215
G1 X121.106 Y41.666 E.13288
G1 X154.974 Y52.466 E1.35106
M73 P1 R129
G1 X157.695 Y53.752 E.11438
G1 X159.984 Y55.706 E.11438
G1 X161.679 Y58.193 E.11438
G1 X162.855 Y62.404 E.16618
G1 X166.94 Y114.086 E1.97035
G1 X166.975 Y161.495 E1.80185
G1 X166.821 Y163.624 E.08115
G1 X166.133 Y166.554 E.11438
G1 X164.701 Y169.201 E.11438
G1 X162.625 Y171.38 E.11438
G1 X160.05 Y172.938 E.11438
G1 X156.365 Y173.854 E.14432
G1 X98.664 Y178.238 E2.19934
G1 X73.802 Y178.271 E.9449
G1 X70.819 Y177.873 E.11438
G1 X68.045 Y176.706 E.11438
G1 X65.674 Y174.852 E.11438
G1 X63.873 Y172.442 E.11438
G1 X62.501 Y168.163 E.17077
G1 X55.192 Y102.763 E2.50108
G1 X52.89 Y81.102 E.8279
G1 X52.827 Y79.9 E.04574
G1 X52.827 Y74.1 E.22044
G1 X53.225 Y71.117 E.11438
G1 X53.998 Y69.074 E.08302
G1 X59.319 Y58.274 E.45759
G1 X60.905 Y55.908 E.10826
G1 X61.287 Y56.166 F12000
G1 F900
G1 X61.378 Y56.032 E.00613
G1 X63.62 Y54.118 E.11205
G1 X65.061 Y53.338 E.06228
G1 X89.193 Y42.538 E1.00483
G1 X92.022 Y41.708 E.11205
G1 X93.651 Y41.586 E.0621
G1 X117.651 Y41.586 E.91215
G1 X120.967 Y42.102 E.12754
G1 X154.835 Y52.902 E1.35106
G1 X157.497 Y54.169 E.11205
G1 X159.723 Y56.102 E.11205
G1 X161.351 Y58.56 E.11205
G1 X162.4 Y62.44 E.15277
G1 X166.484 Y114.122 E1.97035
G1 X166.518 Y161.495 E1.80048
G1 X166.366 Y163.58 E.07945
G1 X165.685 Y166.448 E.11205
G1 X164.26 Y169.03 E.11205
G1 X162.198 Y171.136 E.11205
G1 X159.646 Y172.613 E.11205
G1 X156.331 Y173.398 E.1295
G1 X98.629 Y177.783 E2.19934
G1 X73.802 Y177.814 E.94358
G1 X70.881 Y177.416 E.11205
G1 X68.173 Y176.25 E.11205
G1 X65.876 Y174.403 E.11205
G1 X64.157 Y172.007 E.11205
G1 X62.956 Y168.112 E.15494
G1 X55.647 Y102.712 E2.50108
G1 X53.345 Y81.053 E.8278
G1 X53.284 Y79.9 E.0439
G1 X53.284 Y74.1 E.22044
G1 X53.682 Y71.179 E.11205
G1 X54.408 Y69.276 E.07741
G1 X59.729 Y58.476 E.45759
G1 X61.265 Y56.199 E.10439
G1 X61.646 Y56.457 F12000
G1 F900
G1 X61.76 Y56.29 E.00767
G1 X63.971 Y54.437 E.10966
G1 X65.248 Y53.755 E.05502
G1 X89.38 Y42.955 E1.00483
G1 X92.151 Y42.151 E.10966
G1 X93.651 Y42.043 E.05718
G1 X117.651 Y42.043 E.91215
G1 X120.828 Y42.537 E.1222
G1 X154.696 Y53.337 E1.35106
M73 P1 R128
G1 X157.298 Y54.585 E.10966
G1 X159.46 Y56.496 E.10966
G1 X161.017 Y58.925 E.10966
G1 X161.944 Y62.476 E.13949
G1 X166.061 Y114.982 E2.00166
M73 P2 R128
G1 X166.061 Y161.495 E1.7678
G1 X165.911 Y163.535 E.07775
G1 X165.236 Y166.341 E.10966
G1 X163.82 Y168.855 E.10966
G1 X161.771 Y170.886 E.10966
G1 X159.245 Y172.28 E.10966
G1 X156.296 Y172.942 E.11485
G1 X98.595 Y177.327 E2.19934
G1 X73.802 Y177.357 E.94227
G1 X70.944 Y176.959 E.10966
G1 X68.304 Y175.795 E.10966
G1 X66.082 Y173.954 E.10966
G1 X64.449 Y171.575 E.10966
G1 X63.41 Y168.061 E.13927
G1 X56.101 Y102.661 E2.50108
G1 X53.799 Y81.005 E.82771
G1 X53.741 Y74.1 E.26244
G1 X54.139 Y71.242 E.10966
G1 X54.818 Y69.478 E.07184
G1 X60.139 Y58.678 E.45759
G1 X61.624 Y56.491 E.10048
