; HEADER_BLOCK_START
; generated by OrcaSlicer 1.7.0 on 2023-11-18 at 20:15:31
; total layer number: 60
; HEADER_BLOCK_END

; THUMBNAIL_BLOCK_START
; THUMBNAIL_BLOCK_END

; external perimeters extrusion width = 0.40mm
; perimeters extrusion width = 0.45mm
; infill extrusion width = 0.45mm
; solid infill extrusion width = 0.40mm
; top infill extrusion width = 0.40mm
; first layer extrusion width = 0.50mm

; EXECUTABLE_BLOCK_START
EXCLUDE_OBJECT_DEFINE NAME=cableChain_bedCornerCover_v2.stl_id_0_copy_0 CENTER=110,110 POLYGON=[[98,117.238],[98.003,92.9314],[121.997,92.9314],[122,117.238],[122,126.574],[121.508,127.069],[98.492,127.069],[98,126.574],[98,117.238]]
M73 P0 R18
;TYPE:Custom
START_PRINT EXTRUDER_TEMP=255  BED_TEMP=80
G90
G21
M83 ; use relative distances for extrusion
; filament start gcode
M106 S0
;LAYER_CHANGE
;Z:0.2
;HEIGHT:0.2
;BEFORE_LAYER_CHANGE
;0.2
G92 E0

G1 E-6 F3600
;_SET_FAN_SPEED_CHANGING_LAYER
SET_VELOCITY_LIMIT SQUARE_CORNER_VELOCITY=8
G1 X89.093 Y84.224 F12000
G1 Z.4
G1 Z.2
G1 E6 F3600
;TYPE:Skirt
;WIDTH:0.5
G1 F900
G1 X91.544 Y82.188 E.11505
G1 X94.424 Y80.824 E.11505
G1 X98.396 Y80.189 E.14523
G1 X121.604 Y80.189 E.83796
G1 X124.766 Y80.587 E.11505
G1 X127.729 Y81.758 E.11505
G1 X130.31 Y83.627 E.11505
G1 X132.347 Y86.078 E.11505
G1 X133.711 Y88.957 E.11505
G1 X134.347 Y92.929 E.14523
G1 X134.351 Y121.064 E1.01582
G1 X134.29 Y122.307 E.04494
G1 X134.19 Y123.327 E.037
G1 X133.485 Y126.434 E.11505
G1 X132.031 Y129.27 E.11505
G1 X129.919 Y131.656 E.11505
G1 X127.281 Y133.443 E.11505
G1 X124.282 Y134.52 E.11505
G1 X121.508 Y134.826 E.10076
G1 X98.492 Y134.826 E.83102
G1 X95.33 Y134.428 E.11505
G1 X92.367 Y133.257 E.11505
G1 X89.786 Y131.388 E.11505
G1 X87.75 Y128.937 E.11505
G1 X86.385 Y126.057 E.11505
G1 X85.81 Y123.327 E.10076
G1 X85.649 Y121.064 E.08192
G1 X85.653 Y92.929 E1.01582
M73 P1 R18
G1 X86.052 Y89.768 E.11505
G1 X87.223 Y86.804 E.11505
G1 X89.069 Y84.256 E.11361
G1 X89.45 Y84.539 F12000
G1 F900
G1 X89.544 Y84.412 E.00568
G1 X91.983 Y82.453 E.11296
G1 X94.837 Y81.173 E.11296
G1 X98.396 Y80.646 E.12988
G1 X121.604 Y80.646 E.83796
G1 X124.707 Y81.044 E.11296
G1 X127.609 Y82.214 E.11296
G1 X130.122 Y84.078 E.11296
G1 X132.082 Y86.517 E.11296
G1 X133.362 Y89.371 E.11296
G1 X133.89 Y92.929 E.12988
G1 X133.893 Y121.064 E1.01581
G1 X133.835 Y122.262 E.04333
G1 X133.735 Y123.282 E.037
G1 X133.036 Y126.332 E.11296
G1 X131.589 Y129.106 E.11296
G1 X129.488 Y131.424 E.11296
G1 X126.87 Y133.137 E.11296
G1 X123.904 Y134.133 E.11296
G1 X121.508 Y134.369 E.08693
G1 X98.492 Y134.369 E.83102
G1 X95.389 Y133.971 E.11296
G1 X92.487 Y132.801 E.11296
G1 X89.974 Y130.937 E.11296
M73 P2 R18
G1 X88.014 Y128.498 E.11296
G1 X86.734 Y125.644 E.11296
G1 X86.265 Y123.282 E.08693
G1 X86.107 Y121.064 E.0803
G1 X86.11 Y92.929 E1.01581
G1 X86.509 Y89.826 E.11296
G1 X87.679 Y86.925 E.11296
G1 X89.426 Y84.571 E.10583
G1 X89.802 Y84.857 F12000
G1 F900
G1 X89.995 Y84.605 E.01145
G1 X92.42 Y82.724 E.11083
G1 X95.248 Y81.53 E.11083
G1 X98.396 Y81.103 E.1147
G1 X121.604 Y81.103 E.83796
G1 X124.648 Y81.501 E.11083
G1 X127.486 Y82.67 E.11083
G1 X129.929 Y84.529 E.11083
G1 X131.811 Y86.954 E.11083
G1 X133.005 Y89.782 E.11083
G1 X133.432 Y92.93 E.1147
G1 X133.436 Y121.064 E1.01581
G1 X133.28 Y123.238 E.07869
G1 X132.587 Y126.228 E.11083
G1 X131.147 Y128.939 E.11083
G1 X129.058 Y131.188 E.11083
G1 X126.461 Y132.825 E.11083
G1 X123.531 Y133.738 E.11083
G1 X121.508 Y133.912 E.07329
G1 X98.492 Y133.912 E.83102
M73 P3 R18
G1 X95.448 Y133.514 E.11083
G1 X92.61 Y132.345 E.11083
G1 X90.167 Y130.486 E.11083
G1 X88.285 Y128.061 E.11083
G1 X87.091 Y125.233 E.11083
G1 X86.72 Y123.238 E.07329
G1 X86.564 Y121.064 E.07869
G1 X86.568 Y92.93 E1.01581
G1 X86.966 Y89.886 E.11083
G1 X88.135 Y87.047 E.11083
G1 X89.778 Y84.889 E.09794
G1 X90.149 Y85.18 F12000
G1 F900
G1 X90.445 Y84.802 E.0173
G1 X92.856 Y83.001 E.10866
G1 X95.655 Y81.896 E.10866
G1 X98.396 Y81.56 E.09971
G1 X121.604 Y81.56 E.83796
G1 X124.587 Y81.958 E.10866
G1 X127.361 Y83.125 E.10866
G1 X129.732 Y84.979 E.10866
G1 X131.534 Y87.39 E.10866
G1 X132.64 Y90.189 E.10866
G1 X132.975 Y92.93 E.09971
G1 X132.979 Y121.064 E1.01581
G1 X132.925 Y122.173 E.0401
G1 X132.825 Y123.193 E.037
G1 X132.138 Y126.123 E.10866
G1 X130.706 Y128.77 E.10866
G1 X128.63 Y130.949 E.10866
G1 X126.055 Y132.506 E.10866
G1 X123.161 Y133.334 E.10866
G1 X121.508 Y133.455 E.05985
G1 X98.492 Y133.455 E.83102
M73 P4 R18
G1 X95.509 Y133.056 E.10866
G1 X92.735 Y131.89 E.10866
G1 X90.364 Y130.036 E.10866
G1 X88.563 Y127.625 E.10866
G1 X87.456 Y124.826 E.10866
G1 X87.075 Y122.173 E.09679
G1 X87.021 Y121.064 E.0401
G1 X87.025 Y92.93 E1.01581
G1 X87.423 Y89.947 E.10866
G1 X88.591 Y87.173 E.10866
G1 X90.125 Y85.211 E.08991
G1 X90.491 Y85.506 F12000
G1 F900
G1 X90.894 Y85.004 E.02325
G1 X93.29 Y83.285 E.10644
G1 X96.058 Y82.271 E.10644
G1 X98.396 Y82.017 E.08492
G1 X121.604 Y82.017 E.83796
G1 X124.525 Y82.415 E.10644
G1 X127.233 Y83.581 E.10644
G1 X129.53 Y85.429 E.10644
G1 X131.249 Y87.824 E.10644
M73 P4 R17
G1 X132.264 Y90.592 E.10644
G1 X132.518 Y92.93 E.08492
G1 X132.522 Y121.064 E1.0158
G1 X132.47 Y122.128 E.03849
G1 X132.37 Y123.148 E.037
G1 X131.689 Y126.017 E.10644
G1 X130.265 Y128.598 E.10644
G1 X128.202 Y130.704 E.10644
G1 X125.65 Y132.181 E.10644
G1 X121.508 Y132.998 E.15244
G1 X98.492 Y132.998 E.83102
M73 P5 R17
G1 X95.571 Y132.599 E.10644
G1 X92.863 Y131.434 E.10644
G1 X90.566 Y129.586 E.10644
G1 X88.847 Y127.191 E.10644
G1 X87.63 Y123.148 E.15244
G1 X87.53 Y122.128 E.037
G1 X87.478 Y121.064 E.03849
G1 X87.482 Y92.93 E1.0158
G1 X87.88 Y90.009 E.10644
G1 X89.046 Y87.301 E.10644
G1 X90.466 Y85.537 E.08175
G1 X90.826 Y85.835 F12000
G1 F900
G1 X91.343 Y85.211 E.02929
G1 X93.722 Y83.577 E.10418
G1 X96.456 Y82.656 E.10418
G1 X98.396 Y82.474 E.07034
G1 X121.604 Y82.474 E.83796
G1 X124.462 Y82.872 E.10418
G1 X127.102 Y84.036 E.10418
G1 X129.324 Y85.878 E.10418
G1 X130.958 Y88.256 E.10418
G1 X131.879 Y90.99 E.10418
G1 X132.061 Y92.93 E.07034
G1 X132.015 Y122.084 E1.05264
G1 X131.915 Y123.104 E.037
G1 X131.24 Y125.909 E.10418
G1 X129.824 Y128.423 E.10418
G1 X127.775 Y130.455 E.10418
G1 X125.249 Y131.849 E.10418
G1 X121.508 Y132.541 E.13735
G1 X98.492 Y132.541 E.83102
M73 P6 R17
G1 X95.634 Y132.142 E.10418
G1 X92.994 Y130.979 E.10418
G1 X90.772 Y129.137 E.10418
G1 X89.138 Y126.759 E.10418
G1 X88.085 Y123.104 E.13735
G1 X87.985 Y122.084 E.037
G1 X87.939 Y92.93 E1.05264
G1 X88.337 Y90.072 E.10418
G1 X89.502 Y87.432 E.10418
G1 X90.8 Y85.866 E.07345
; printing object cableChain_bedCornerCover_v2.stl id:0 copy 0
G1 E-4.2 F3600
;WIPE_START
G1 F900
G1 X91.343 Y85.211 E-1.53218
G1 X91.466 Y85.126 E-.26782
;WIPE_END
EXCLUDE_OBJECT_START NAME=cableChain_bedCornerCover_v2.stl_id_0_copy_0
G17
G3 Z.6 I-1.178 J.306 P1  F12000
G1 X99.557 Y116.276 Z.6
G1 Z.2
G1 E6 F3600
;TYPE:Inner wall
;WIDTH:0.499999
G1 F900
G1 X99.56 Y94.096 E.80085
G1 X120.44 Y94.096 E.7539
G1 X120.44 Y95.803 E.06164
G1 X120.443 Y116.276 E.73921
G1 X120.381 Y116.256 E.00235
G1 X99.619 Y116.256 E.74967
M73 P7 R17
G1 X99.595 Y116.264 E.00091
G1 X99.1 Y117.065 F12000
G1 F900
G1 X99.103 Y93.639 E.84583
G1 X120.897 Y93.639 E.7869
G1 X120.897 Y95.803 E.07814
G1 X120.9 Y117.065 E.76769
G1 X120.793 Y116.85 E.00868
G1 X120.381 Y116.713 E.01566
G1 X99.619 Y116.713 E.74967
G1 X99.207 Y116.85 E.01566
G1 X99.117 Y117.029 E.00724
G1 X99.317 Y117.398 F12000
;TYPE:Outer wall
;WIDTH:0.645471
G1 F900
G1 X99.328 Y121.772 E.20816
;WIDTH:0.623553
G1 X98.775 Y121.772 E.02539
;WIDTH:0.645471
G1 X98.715 Y121.048 E.03457
G1 X98.715 Y117.398 E.17372
;WIDTH:0.645219
G1 X98.691 Y117.197 E.00962
;WIDTH:0.596813
G1 X98.667 Y116.997 E.00885
;WIDTH:0.548406
G1 X98.643 Y116.796 E.00807
;WIDTH:0.499999
G1 X98.646 Y93.181 E.85263
G1 X121.354 Y93.181 E.8199
G1 X121.355 Y95.803 E.09464
G1 X121.357 Y116.796 E.75798
;WIDTH:0.548405
M73 P8 R17
G1 X121.333 Y116.997 E.00807
;WIDTH:0.596811
G1 X121.309 Y117.197 E.00885
;WIDTH:0.645217
G1 X121.285 Y117.398 E.00962
;WIDTH:0.64547
G1 X121.285 Y121.033 E.17301
G1 X121.225 Y121.772 E.03527
;WIDTH:0.623551
G1 X120.672 Y121.772 E.02539
;WIDTH:0.64547
G1 X120.683 Y117.398 E.20816
;WIDTH:0.645217
G1 X120.628 Y117.337 E.0039
;WIDTH:0.596811
G1 X120.573 Y117.276 E.00358
;WIDTH:0.548405
G1 X120.519 Y117.215 E.00327
;WIDTH:0.499999
G1 X120.381 Y117.17 E.00522
G1 X99.619 Y117.17 E.74967
G1 X99.481 Y117.215 E.00522
;WIDTH:0.548406
G1 X99.427 Y117.276 E.00327
;WIDTH:0.596812
G1 X99.372 Y117.337 E.00358
;WIDTH:0.645218
G1 X99.344 Y117.369 E.00199
G1 E-6 F3600
G17
G3 Z.6 I.806 J.912 P1  F12000
G1 X117.103 Y101.687 Z.6
G1 Z.2
G1 E6 F3600
;TYPE:Inner wall
;WIDTH:0.499999
G1 F900
G1 X117.023 Y102.059 E.01375
G1 X116.827 Y102.359 E.01294
G1 X116.657 Y102.512 E.00825
G1 X116.375 Y102.663 E.01157
G1 X115.981 Y102.733 E.01442
G1 X113.439 Y102.733 E.09181
G1 X113.191 Y102.706 E.00898
G1 X112.93 Y102.613 E.01001
G1 X112.633 Y102.4 E.0132
G1 X112.418 Y102.103 E.01324
G1 X112.323 Y101.837 E.01019
G1 X112.296 Y101.59 E.00898
G1 X112.296 Y96.547 E.18208
G1 X112.356 Y96.181 E.01339
G1 X112.549 Y95.83 E.01447
G1 X112.969 Y95.505 E.01918
G1 X113.439 Y95.404 E.01733
G1 X115.981 Y95.404 E.09181
G1 X116.529 Y95.544 E.0204
G1 X116.907 Y95.877 E.01817
G1 X117.085 Y96.249 E.01489
G1 X117.124 Y96.547 E.01086
G1 X117.124 Y101.59 E.18208
G1 X117.112 Y101.648 E.00213
G1 X116.631 Y101.759 F12000
G1 F900
G1 X116.607 Y101.871 E.00417
G1 X116.489 Y102.051 E.00776
G1 X116.217 Y102.234 E.0118
G1 X115.981 Y102.276 E.00865
G1 X113.439 Y102.276 E.09181
G1 X113.133 Y102.204 E.01132
G1 X112.869 Y101.972 E.0127
G1 X112.769 Y101.738 E.00916
G1 X112.753 Y101.59 E.00539
G1 X112.753 Y96.547 E.18208
G1 X112.789 Y96.327 E.00803
G1 X112.905 Y96.117 E.00868
G1 X113.157 Y95.922 E.01151
G1 X113.439 Y95.861 E.0104
G1 X115.981 Y95.861 E.09181
G1 X116.31 Y95.945 E.01224
G1 X116.537 Y96.145 E.0109
G1 X116.643 Y96.368 E.00894
G1 X116.667 Y96.547 E.00652
G1 X116.667 Y101.59 E.18208
G1 X116.639 Y101.719 E.00478
G1 X116.06 Y101.805 F12000
;TYPE:Outer wall
G1 F900
G1 X115.981 Y101.819 E.00288
G1 X113.439 Y101.819 E.09181
G1 X113.277 Y101.752 E.0063
G1 X113.21 Y101.59 E.00634
G1 X113.21 Y96.547 E.18208
G1 X113.261 Y96.404 E.00549
G1 X113.439 Y96.319 E.00712
G1 X115.981 Y96.319 E.09181
G1 X116.167 Y96.413 E.0075
G1 X116.21 Y96.547 E.00509
G1 X116.21 Y101.59 E.18208
G1 X116.151 Y101.744 E.00595
G1 X116.093 Y101.782 E.00249
G1 E-6 F3600
G17
G3 Z.6 I-1.209 J.142 P1  F12000
G1 X117.087 Y110.262 Z.6
G1 Z.2
G1 E6 F3600
;TYPE:Inner wall
G1 F900
G1 X117.023 Y110.559 E.01097
G1 X116.927 Y110.732 E.00715
G1 X116.723 Y110.959 E.01101
G1 X116.451 Y111.132 E.01165
G1 X116.25 Y111.201 E.00766
G1 X115.981 Y111.233 E.00977
G1 X113.439 Y111.233 E.09181
G1 X113.173 Y111.202 E.00964
G1 X112.929 Y111.113 E.00938
G1 X112.558 Y110.818 E.0171
G1 X112.383 Y110.527 E.01229
G1 X112.296 Y110.09 E.01608
G1 X112.296 Y105.047 E.18208
G1 X112.33 Y104.769 E.01013
G1 X112.489 Y104.411 E.01413
G1 X112.633 Y104.237 E.00814
G1 X112.93 Y104.024 E.0132
G1 X113.191 Y103.931 E.01001
G1 X113.439 Y103.904 E.00898
G1 X115.981 Y103.904 E.09181
G1 X116.375 Y103.974 E.01442
G1 X116.657 Y104.126 E.01157
G1 X116.926 Y104.403 E.01395
G1 X117.071 Y104.703 E.01202
G1 X117.124 Y105.047 E.01258
G1 X117.124 Y110.09 E.18208
G1 X117.096 Y110.223 E.00491
G1 X116.649 Y110.176 F12000
G1 F900
G1 X116.607 Y110.371 E.00722
G1 X116.427 Y110.612 E.01084
G1 X116.143 Y110.756 E.01151
G1 X115.981 Y110.776 E.00586
G1 X113.439 Y110.776 E.09181
G1 X113.133 Y110.704 E.01134
G1 X112.91 Y110.527 E.01026
G1 X112.767 Y110.229 E.01194
G1 X112.753 Y110.09 E.00504
G1 X112.753 Y105.047 E.18208
G1 X112.826 Y104.739 E.01143
G1 X112.955 Y104.561 E.00794
G1 X113.133 Y104.433 E.00792
G1 X113.439 Y104.361 E.01132
G1 X115.981 Y104.361 E.09181
G1 X116.217 Y104.403 E.00865
G1 X116.489 Y104.586 E.0118
G1 X116.635 Y104.84 E.01061
G1 X116.667 Y105.047 E.00755
G1 X116.667 Y110.09 E.18208
M73 P9 R17
G1 X116.657 Y110.137 E.00173
G1 X116.21 Y110.09 F12000
;TYPE:Outer wall
G1 F900
G1 X116.171 Y110.218 E.00485
G1 X116.035 Y110.312 E.00594
G1 X113.439 Y110.319 E.09375
G1 X113.295 Y110.268 E.00549
G1 X113.215 Y110.136 E.00557
G1 X113.21 Y105.047 E.18375
G1 X113.277 Y104.885 E.00634
G1 X113.439 Y104.819 E.0063
G1 X115.981 Y104.819 E.09181
G1 X116.151 Y104.893 E.00668
G1 X116.21 Y105.047 E.00595
G1 X116.21 Y110.05 E.18064
G1 E-4.2 F3600
;WIPE_START
G1 F900
G1 X116.171 Y110.218 E-.31136
G1 X116.035 Y110.312 E-.29631
G1 X115.373 Y110.314 E-1.19232
;WIPE_END
G17
G3 Z.6 I-1.217 J0 P1  F12000
G1 X115.373 Y110.754 Z.6
G1 X112.774 Y110.754
G1 X112.774 Y108.395
G1 X106.753 Y103.949
G1 Z.2
G1 E6 F3600
;TYPE:Inner wall
G1 F900
G1 X107.07 Y104.024 E.01175
G1 X107.367 Y104.237 E.0132
G1 X107.582 Y104.534 E.01324
G1 X107.67 Y104.769 E.00904
G1 X107.704 Y105.047 E.01013
G1 X107.704 Y110.09 E.18208
G1 X107.617 Y110.527 E.01608
G1 X107.442 Y110.818 E.01229
G1 X107.071 Y111.113 E.0171
G1 X106.827 Y111.202 E.00938
G1 X106.561 Y111.233 E.00964
G1 X104.019 Y111.233 E.09181
G1 X103.75 Y111.201 E.00977
G1 X103.503 Y111.11 E.0095
G1 X103.277 Y110.959 E.00981
G1 X103.073 Y110.732 E.01101
G1 X102.929 Y110.433 E.01199
G1 X102.876 Y110.09 E.01254
G1 X102.876 Y105.047 E.18209
G1 X102.977 Y104.578 E.01733
G1 X103.173 Y104.278 E.01293
G1 X103.343 Y104.126 E.00825
G1 X103.771 Y103.931 E.01698
G1 X104.019 Y103.904 E.00898
G1 X106.561 Y103.904 E.09181
G1 X106.714 Y103.94 E.00568
G1 X106.657 Y104.384 F12000
G1 F900
G1 X106.867 Y104.433 E.00776
G1 X107.131 Y104.665 E.0127
G1 X107.226 Y104.88 E.00848
G1 X107.247 Y105.047 E.00608
G1 X107.247 Y110.09 E.18208
G1 X107.195 Y110.352 E.00965
G1 X107.09 Y110.527 E.00737
G1 X106.843 Y110.715 E.0112
G1 X106.561 Y110.776 E.0104
G1 X104.019 Y110.776 E.09181
G1 X103.709 Y110.702 E.01148
G1 X103.451 Y110.475 E.01239
G1 X103.365 Y110.296 E.00719
G1 X103.333 Y110.09 E.00752
G1 X103.333 Y105.047 E.18208
G1 X103.393 Y104.765 E.0104
G1 X103.511 Y104.586 E.00776
G1 X103.613 Y104.494 E.00495
G1 X103.87 Y104.378 E.01019
G1 X104.019 Y104.361 E.00539
G1 X106.561 Y104.361 E.09181
G1 X106.619 Y104.375 E.00212
G1 X106.561 Y104.819 F12000
;TYPE:Outer wall
G1 F900
G1 X106.723 Y104.885 E.0063
G1 X106.79 Y105.047 E.00634
G1 X106.79 Y110.09 E.18208
G1 X106.738 Y110.236 E.00559
G1 X106.614 Y110.312 E.00523
G1 X104.019 Y110.319 E.09373
G1 X103.87 Y110.264 E.00571
G1 X103.801 Y110.159 E.00455
G1 X103.79 Y105.047 E.18456
G1 X103.849 Y104.893 E.00595
G1 X103.883 Y104.863 E.00165
G1 X104.019 Y104.819 E.00513
G1 X106.521 Y104.819 E.09037
G1 E-6 F3600
G17
G3 Z.6 I.788 J-.927 P1  F12000
G1 X102.899 Y101.738 Z.6
G1 Z.2
G1 E6 F3600
;TYPE:Inner wall
G1 F900
G1 X102.876 Y101.59 E.00539
G1 X102.876 Y96.547 E.18209
G1 X102.915 Y96.249 E.01086
G1 X103.093 Y95.877 E.01489
G1 X103.471 Y95.544 E.01817
G1 X103.549 Y95.505 E.00316
G1 X104.019 Y95.404 E.01733
G1 X106.561 Y95.404 E.09181
G1 X107.078 Y95.528 E.01919
G1 X107.451 Y95.83 E.01732
G1 X107.644 Y96.181 E.01447
G1 X107.704 Y96.547 E.01339
G1 X107.704 Y101.59 E.18208
G1 X107.67 Y101.869 E.01013
G1 X107.511 Y102.226 E.01413
G1 X107.367 Y102.4 E.00814
G1 X107.07 Y102.613 E.0132
G1 X106.561 Y102.733 E.01887
G1 X104.019 Y102.733 E.09181
G1 X103.625 Y102.663 E.01442
G1 X103.343 Y102.512 E.01157
G1 X103.074 Y102.234 E.01395
G1 X102.929 Y101.934 E.01202
G1 X102.905 Y101.777 E.00574
G1 X103.344 Y101.664 F12000
G1 F900
G1 X103.333 Y101.59 E.0027
G1 X103.333 Y96.547 E.18208
G1 X103.357 Y96.368 E.00651
G1 X103.463 Y96.145 E.00894
G1 X103.737 Y95.922 E.01274
G1 X104.019 Y95.861 E.0104
G1 X106.561 Y95.861 E.09181
G1 X106.872 Y95.936 E.01152
G1 X107.095 Y96.117 E.01039
G1 X107.211 Y96.327 E.00868
G1 X107.247 Y96.547 E.00803
G1 X107.247 Y101.59 E.18208
G1 X107.174 Y101.898 E.01143
G1 X107.045 Y102.076 E.00794
G1 X106.867 Y102.204 E.00792
G1 X106.561 Y102.276 E.01132
G1 X104.019 Y102.276 E.09181
G1 X103.783 Y102.234 E.00865
G1 X103.511 Y102.051 E.0118
G1 X103.365 Y101.797 E.01061
G1 X103.35 Y101.703 E.00341
G1 X103.79 Y101.59 F12000
;TYPE:Outer wall
G1 F900
G1 X103.79 Y96.547 E.18208
M73 P9 R16
G1 X103.833 Y96.413 E.00509
G1 X103.925 Y96.339 E.00425
G1 X104.019 Y96.319 E.00347
G1 X106.561 Y96.319 E.09181
