; HEADER_BLOCK_START
; generated by OrcaSlicer 1.7.0 on 2023-11-19 at 20:48:03
; total layer number: 60
; HEADER_BLOCK_END

; THUMBNAIL_BLOCK_START
; THUMBNAIL_BLOCK_END

; external perimeters extrusion width = 0.40mm
; perimeters extrusion width = 0.45mm
; infill extrusion width = 0.45mm
; solid infill extrusion width = 0.40mm
; top infill extrusion width = 0.40mm
; first layer extrusion width = 0.50mm

; external perimeters extrusion width = 0.40mm
; perimeters extrusion width = 0.45mm
; infill extrusion width = 0.45mm
; solid infill extrusion width = 0.40mm
; top infill extrusion width = 0.40mm
; first layer extrusion width = 0.50mm

; external perimeters extrusion width = 0.40mm
; perimeters extrusion width = 0.45mm
; infill extrusion width = 0.45mm
; solid infill extrusion width = 0.40mm
; top infill extrusion width = 0.40mm
; first layer extrusion width = 0.50mm

; external perimeters extrusion width = 0.40mm
; perimeters extrusion width = 0.45mm
; infill extrusion width = 0.45mm
; solid infill extrusion width = 0.40mm
; top infill extrusion width = 0.40mm
; first layer extrusion width = 0.50mm

; external perimeters extrusion width = 0.40mm
; perimeters extrusion width = 0.45mm
; infill extrusion width = 0.45mm
; solid infill extrusion width = 0.40mm
; top infill extrusion width = 0.40mm
; first layer extrusion width = 0.50mm

; external perimeters extrusion width = 0.40mm
; perimeters extrusion width = 0.45mm
; infill extrusion width = 0.45mm
; solid infill extrusion width = 0.40mm
; top infill extrusion width = 0.40mm
; first layer extrusion width = 0.50mm

; EXECUTABLE_BLOCK_START
EXCLUDE_OBJECT_DEFINE NAME=cableChain_link_v3.stl_id_0_copy_0 CENTER=139,126.5 POLYGON=[[127,117.503],[128.84,112.5],[149.16,112.5],[151,117.503],[151,140.2],[150.701,140.5],[127.299,140.5],[127,140.2],[127,117.503]]
EXCLUDE_OBJECT_DEFINE NAME=cableChain_link_v3.stl_id_1_copy_0 CENTER=110,126.5 POLYGON=[[98,117.503],[99.84,112.5],[120.16,112.5],[122,117.503],[122,140.2],[121.701,140.5],[98.2985,140.5],[98,140.2],[98,117.503]]
EXCLUDE_OBJECT_DEFINE NAME=cableChain_link_v3.stl_id_2_copy_0 CENTER=139,93.5 POLYGON=[[127,84.5025],[128.84,79.5],[149.16,79.5],[151,84.5025],[151,107.2],[150.701,107.5],[127.299,107.5],[127,107.2],[127,84.5025]]
EXCLUDE_OBJECT_DEFINE NAME=cableChain_link_v3.stl_id_3_copy_0 CENTER=110,93.5 POLYGON=[[98,84.5025],[99.84,79.5],[120.16,79.5],[122,84.5025],[122,107.2],[121.701,107.5],[98.2985,107.5],[98,107.2],[98,84.5025]]
EXCLUDE_OBJECT_DEFINE NAME=cableChain_link_v3.stl_id_4_copy_0 CENTER=81,93.5 POLYGON=[[69,84.5025],[70.84,79.5],[91.16,79.5],[93,84.5025],[93,107.2],[92.7015,107.5],[69.2985,107.5],[69,107.2],[69,84.5025]]
EXCLUDE_OBJECT_DEFINE NAME=cableChain_link_v3.stl_id_5_copy_0 CENTER=81,126.5 POLYGON=[[69,117.503],[70.84,112.5],[91.16,112.5],[93,117.503],[93,140.2],[92.7015,140.5],[69.2985,140.5],[69,140.2],[69,117.503]]
M73 P0 R106
;TYPE:Custom
START_PRINT EXTRUDER_TEMP=255  BED_TEMP=80
G90
G21
M83 ; use relative distances for extrusion
; filament start gcode
M106 S0
;LAYER_CHANGE
;Z:0.2
;HEIGHT:0.2
;BEFORE_LAYER_CHANGE
;0.2
G92 E0

G1 E-5 F3600
;_SET_FAN_SPEED_CHANGING_LAYER
SET_VELOCITY_LIMIT ACCEL=500 ACCEL_TO_DECEL=250
G1 X64.409 Y75.106 F9000
G1 Z.4
G1 Z.2
G1 E5 F2400
;TYPE:Skirt
;WIDTH:0.5
G1 F900
G1 X67.095 Y73.748 E.11438
G1 X70.84 Y73.113 E.14437
G1 X149.16 Y73.113 E2.97666
G1 X152.143 Y73.512 E.11438
G1 X154.917 Y74.679 E.11438
G1 X157.288 Y76.532 E.11438
G1 X159.454 Y79.653 E.14437
G1 X161.095 Y83.15 E.14682
G1 X162.002 Y86.02 E.11438
G1 X162.173 Y87.982 E.07486
G1 X162.173 Y134.495 E1.7678
M73 P0 R105
G1 X162.118 Y135.604 E.04221
G1 X162.018 Y136.625 E.03896
G1 X161.331 Y139.555 E.11438
G1 X159.899 Y142.202 E.11438
G1 X157.823 Y144.38 E.11438
G1 X155.248 Y145.938 E.11438
G1 X152.355 Y146.766 E.11438
G1 X150.701 Y146.887 E.063
G1 X69.299 Y146.887 E3.09383
G1 X66.316 Y146.488 E.11438
G1 X63.541 Y145.321 E.11438
G1 X61.171 Y143.468 E.11438
G1 X59.369 Y141.057 E.11438
G1 X58.263 Y138.258 E.11438
G1 X57.882 Y135.604 E.1019
G1 X57.827 Y134.495 E.04221
G1 X57.827 Y87.982 E1.7678
G1 X58.226 Y84.999 E.11438
G1 X58.905 Y83.15 E.07486
G1 X60.546 Y79.653 E.14682
G1 X62.174 Y77.122 E.11438
G1 X64.38 Y75.133 E.11286
G1 X64.691 Y75.484 F9000
G1 F900
G1 X64.767 Y75.416 E.0039
G1 X67.416 Y74.121 E.11205
G1 X70.84 Y73.571 E.1318
G1 X149.16 Y73.571 E2.97666
G1 X152.081 Y73.969 E.11205
G1 X154.789 Y75.134 E.11205
G1 X157.086 Y76.982 E.11205
G1 X159.04 Y79.847 E.1318
G1 X160.681 Y83.344 E.14682
G1 X161.562 Y86.158 E.11205
G1 X161.716 Y87.982 E.06957
G1 X161.716 Y134.495 E1.7678
G1 X161.664 Y135.56 E.04051
G1 X161.564 Y136.58 E.03896
G1 X160.882 Y139.448 E.11205
G1 X159.458 Y142.03 E.11205
G1 X157.395 Y144.136 E.11205
G1 X154.844 Y145.613 E.11205
G1 X150.701 Y146.429 E.16047
G1 X69.299 Y146.429 E3.09383
G1 X66.377 Y146.031 E.11205
G1 X63.669 Y144.866 E.11205
G1 X61.372 Y143.018 E.11205
G1 X59.653 Y140.623 E.11205
G1 X58.436 Y136.58 E.16047
G1 X58.336 Y135.56 E.03896
G1 X58.284 Y134.495 E.04051
G1 X58.284 Y87.982 E1.7678
G1 X58.683 Y85.061 E.11205
G1 X59.319 Y83.344 E.06957
G1 X60.96 Y79.847 E.14682
G1 X62.562 Y77.372 E.11205
G1 X64.661 Y75.511 E.10663
G1 X64.968 Y75.864 F9000
G1 F900
G1 X65.124 Y75.728 E.00784
G1 X67.735 Y74.499 E.10966
G1 X70.84 Y74.028 E.11937
G1 X149.16 Y74.028 E2.97666
G1 X152.018 Y74.426 E.10966
G1 X154.658 Y75.59 E.10966
G1 X156.88 Y77.431 E.10966
G1 X158.626 Y80.041 E.11937
G1 X160.268 Y83.538 E.14682
G1 X161.122 Y86.295 E.10966
G1 X161.259 Y87.982 E.06433
G1 X161.209 Y135.515 E1.80657
G1 X161.109 Y136.535 E.03896
G1 X160.434 Y139.341 E.10966
G1 X159.018 Y141.855 E.10966
G1 X156.969 Y143.886 E.10966
G1 X154.442 Y145.28 E.10966
G1 X150.701 Y145.972 E.14459
G1 X69.299 Y145.972 E3.09383
G1 X66.441 Y145.574 E.10966
G1 X63.8 Y144.41 E.10966
G1 X61.579 Y142.569 E.10966
G1 X59.945 Y140.191 E.10966
G1 X58.891 Y136.535 E.14459
G1 X58.791 Y135.515 E.03896
G1 X58.741 Y87.982 E1.80657
M73 P1 R105
G1 X59.14 Y85.124 E.10966
G1 X59.732 Y83.538 E.06433
G1 X61.374 Y80.041 E.14682
G1 X62.949 Y77.624 E.10966
G1 X64.938 Y75.89 E.1003
; printing object cableChain_link_v3.stl id:2 copy 0
G1 E-3.5 F3600
;WIPE_START
G1 F900
G1 X65.124 Y75.728 E-.36959
G1 X65.806 Y75.407 E-1.13041
;WIPE_END
EXCLUDE_OBJECT_START NAME=cableChain_link_v3.stl_id_2_copy_0
G17
G3 Z.6 I-.198 J1.201 P1  F9000
G1 X148.964 Y89.112 Z.6
G1 Z.2
G1 E5 F2400
;TYPE:Inner wall
;WIDTH:0.499999
G1 F900
G1 X149.139 Y89.146 E.00676
G1 X149.637 Y89.146 E.01896
G1 X149.637 Y89.645 E.01896
G1 X149.637 Y96.772 E.2709
G1 X149.381 Y96.687 E.01025
G1 X128.619 Y96.687 E.78912
M73 P1 R104
G1 X128.363 Y96.772 E.01025
G1 X128.363 Y89.146 E.28985
G1 X128.861 Y89.146 E.01896
G1 X129.292 Y89.062 E.01668
G1 X129.537 Y88.925 E.01067
G1 X129.773 Y88.692 E.01261
G1 X129.958 Y88.325 E.01559
G1 X130.004 Y88.003 E.01237
G1 X130.004 Y86.557 E.05496
G1 X130.459 Y86.709 E.0182
G1 X147.541 Y86.709 E.64926
G1 X147.996 Y86.557 E.0182
G1 X147.996 Y88.003 E.05496
G1 X148.042 Y88.325 E.01237
G1 X148.132 Y88.544 E.00898
G1 X148.32 Y88.8 E.0121
G1 X148.708 Y89.062 E.01777
G1 X148.925 Y89.104 E.00841
G1 X149.051 Y88.672 F9000
G1 F900
G1 X149.139 Y88.689 E.00338
G1 X150.094 Y88.689 E.03633
G1 X150.094 Y89.645 E.03633
G1 X150.094 Y97.13 E.28451
;WIDTH:0.527314
G1 X150.081 Y97.83 E.02817
G1 X149.793 Y97.281 E.02495
;WIDTH:0.499999
G1 X149.381 Y97.144 E.01648
G1 X128.619 Y97.144 E.78912
G1 X128.207 Y97.281 E.01648
;WIDTH:0.527314
G1 X127.919 Y97.83 E.02495
G1 X127.906 Y97.13 E.02817
;WIDTH:0.499999
G1 X127.906 Y88.689 E.32084
G1 X128.861 Y88.689 E.03633
G1 X129.12 Y88.638 E.01001
G1 X129.267 Y88.556 E.0064
G1 X129.466 Y88.328 E.01151
G1 X129.547 Y88.003 E.01271
G1 X129.547 Y86.364 E.06228
G1 X129.529 Y86.145 E.00838
;WIDTH:0.463477
G1 X129.511 Y85.925 E.00771
;WIDTH:0.426954
G1 X129.492 Y85.705 E.00704
;WIDTH:0.390431
G1 X129.489 Y85.134 E.0165
;WIDTH:0.38438
G1 X129.831 Y85.134 E.00969
;WIDTH:0.390431
G1 X129.837 Y85.675 E.01563
;WIDTH:0.426954
G1 X129.907 Y85.821 E.00518
;WIDTH:0.463477
G1 X129.977 Y85.968 E.00568
;WIDTH:0.499999
G1 X130.047 Y86.114 E.00617
G1 X130.459 Y86.252 E.01648
G1 X147.541 Y86.252 E.64926
G1 X147.953 Y86.114 E.01648
G1 X148.023 Y85.968 E.00617
;WIDTH:0.463476
G1 X148.093 Y85.821 E.00568
;WIDTH:0.426953
G1 X148.163 Y85.675 E.00518
;WIDTH:0.390429
G1 X148.169 Y85.134 E.01563
;WIDTH:0.384379
G1 X148.511 Y85.134 E.00969
;WIDTH:0.390429
G1 X148.508 Y85.705 E.0165
;WIDTH:0.426953
G1 X148.489 Y85.925 E.00704
;WIDTH:0.463476
G1 X148.471 Y86.145 E.00771
;WIDTH:0.499999
G1 X148.453 Y86.364 E.00838
G1 X148.453 Y87.163 E.03035
G1 X148.481 Y88.196 E.03929
G1 X148.647 Y88.482 E.01255
G1 X148.88 Y88.638 E.01066
G1 X149.012 Y88.664 E.00511
G1 X149.139 Y88.232 F9000
;TYPE:Outer wall
G1 F900
G1 X150.551 Y88.232 E.0537
G1 X150.551 Y89.645 E.0537
G1 X150.551 Y101.483 E.44993
G1 X150.475 Y102.265 E.02988
G1 X149.61 Y102.265 E.03287
G1 X149.61 Y97.83 E.16858
G1 X149.519 Y97.647 E.00777
G1 X149.381 Y97.601 E.00549
G1 X128.619 Y97.601 E.78912
G1 X128.481 Y97.647 E.00549
G1 X128.39 Y97.83 E.00777
G1 X128.39 Y102.265 E.16858
G1 X127.525 Y102.265 E.03287
G1 X127.449 Y101.483 E.02988
G1 X127.449 Y88.232 E.50363
G1 X128.861 Y88.232 E.0537
G1 X129.025 Y88.163 E.00675
G1 X129.09 Y88.003 E.00654
G1 X129.09 Y84.735 E.12422
G1 X130.23 Y84.735 E.04333
G1 X130.23 Y85.566 E.03159
G1 X130.321 Y85.749 E.00777
G1 X130.459 Y85.794 E.00549
G1 X147.541 Y85.794 E.64926
G1 X147.679 Y85.749 E.00549
G1 X147.77 Y85.566 E.00777
G1 X147.77 Y84.735 E.03159
G1 X148.91 Y84.735 E.04333
G1 X148.91 Y88.003 E.12422
G1 X148.975 Y88.163 E.00654
G1 X149.102 Y88.216 E.00523
G1 E-3.5 F3600
;WIPE_START
G1 F900
G1 X150.102 Y88.227 E-1.5
;WIPE_END
G17
G3 Z.6 I-1.217 J-.003 P1  F9000
G1 X150.064 Y101.812 Z.6
G1 Z.2
G1 E5 F2400
;TYPE:Inner wall
;WIDTH:0.527314
G1 F900
G1 X150.081 Y101.46 E.01419
G1 X150.081 Y97.83 E.14621
G1 E-3.5 F3600
;WIPE_START
G1 F900
G1 X150.081 Y98.83 E-1.5
;WIPE_END
G17
G3 Z.6 I-.162 J-1.206 P1  F9000
G1 X127.936 Y101.812 Z.6
G1 Z.2
G1 E5 F2400
G1 F900
G1 X127.919 Y101.46 E.01419
G1 X127.919 Y97.83 E.14621
G1 E-3.5 F3600
;WIPE_START
G1 F900
G1 X127.919 Y98.83 E-1.5
;WIPE_END
G17
G3 Z.6 I.595 J1.062 P1  F9000
G1 X147.85 Y87.668 Z.6
G1 Z.2
G1 E5 F2400
;TYPE:Bottom surface
;WIDTH:0.502431
G1 F1200
G1 X147.242 Y87.061 E.03282
G1 X146.592 Y87.061 E.02483
G1 X147.661 Y88.129 E.05773
G1 X147.703 Y88.422 E.01132
G1 X147.82 Y88.709 E.01184
G1 X147.945 Y88.903 E.00881
G1 X148.068 Y89.047 E.00724
G1 X148.256 Y89.21 E.00951
G1 X148.579 Y89.391 E.01411
G1 X149.006 Y89.474 E.01664
G1 X149.285 Y89.754 E.0151
G1 X149.285 Y90.403 E.02483
G1 X145.942 Y87.061 E.18063
G1 X145.293 Y87.061 E.02483
G1 X149.285 Y91.053 E.21575
G1 X149.285 Y91.703 E.02483
G1 X144.643 Y87.061 E.25086
G1 X143.993 Y87.061 E.02483
G1 X149.285 Y92.353 E.28598
G1 X149.285 Y93.003 E.02483
G1 X143.343 Y87.061 E.32109
G1 X142.693 Y87.061 E.02483
G1 X149.285 Y93.653 E.35621
G1 X149.285 Y94.303 E.02483
G1 X142.043 Y87.061 E.39132
G1 X141.394 Y87.061 E.02483
G1 X149.285 Y94.952 E.42644
G1 X149.285 Y95.602 E.02483
G1 X140.744 Y87.061 E.46155
G1 X140.094 Y87.061 E.02483
G1 X149.285 Y96.252 E.49666
G1 X149.285 Y96.344 E.00352
G1 X148.728 Y96.344 E.02131
G1 X139.444 Y87.061 E.50164
G1 X138.794 Y87.061 E.02483
G1 X148.078 Y96.344 E.50164
G1 X147.428 Y96.344 E.02483
G1 X138.144 Y87.061 E.50164
G1 X137.494 Y87.061 E.02483
G1 X146.778 Y96.344 E.50164
G1 X146.128 Y96.344 E.02483
G1 X136.845 Y87.061 E.50164
G1 X136.195 Y87.061 E.02483
G1 X145.478 Y96.344 E.50164
G1 X144.829 Y96.344 E.02483
G1 X135.545 Y87.061 E.50164
G1 X134.895 Y87.061 E.02483
G1 X144.179 Y96.344 E.50164
G1 X143.529 Y96.344 E.02483
G1 X134.245 Y87.061 E.50164
G1 X133.595 Y87.061 E.02483
G1 X142.879 Y96.344 E.50164
G1 X142.229 Y96.344 E.02483
G1 X132.946 Y87.061 E.50164
G1 X132.296 Y87.061 E.02483
G1 X141.579 Y96.344 E.50164
G1 X140.93 Y96.344 E.02483
G1 X131.646 Y87.061 E.50164
G1 X130.996 Y87.061 E.02483
G1 X140.28 Y96.344 E.50164
G1 X139.63 Y96.344 E.02483
G1 X130.356 Y87.071 E.5011
G1 X130.356 Y87.72 E.02483
G1 X138.98 Y96.344 E.46599
G1 X138.33 Y96.344 E.02483
G1 X130.311 Y88.325 E.43331
G1 X130.297 Y88.422 E.00375
G1 X130.18 Y88.709 E.01184
G1 X130.127 Y88.791 E.00372
G1 X137.68 Y96.344 E.40814
G1 X137.03 Y96.344 E.02483
G1 X129.826 Y89.139 E.38932
G1 X129.744 Y89.21 E.00414
G1 X129.425 Y89.389 E.01395
G1 X136.381 Y96.344 E.37585
G1 X135.731 Y96.344 E.02483
G1 X128.883 Y89.496 E.37004
G1 X128.715 Y89.498 E.00642
G1 X128.715 Y89.978 E.01834
G1 X135.081 Y96.344 E.344
G1 X134.431 Y96.344 E.02483
G1 X128.715 Y90.628 E.30889
G1 X128.715 Y91.278 E.02483
G1 X133.781 Y96.344 E.27377
G1 X133.131 Y96.344 E.02483
G1 X128.715 Y91.927 E.23866
G1 X128.715 Y92.577 E.02483
G1 X132.481 Y96.344 E.20354
G1 X131.832 Y96.344 E.02483
G1 X128.715 Y93.227 E.16843
G1 X128.715 Y93.877 E.02483
G1 X131.182 Y96.344 E.13331
G1 X130.532 Y96.344 E.02483
G1 X128.715 Y94.527 E.0982
G1 X128.715 Y95.177 E.02483
G1 X129.882 Y96.344 E.06309
G1 X129.232 Y96.344 E.02483
G1 X128.509 Y95.621 E.03908
; stop printing object cableChain_link_v3.stl id:2 copy 0
; printing object cableChain_link_v3.stl id:3 copy 0
G1 E-3.5 F3600
;WIPE_START
G1 F1200
G1 X129.216 Y96.328 E-1.5
;WIPE_END
EXCLUDE_OBJECT_END NAME=cableChain_link_v3.stl_id_2_copy_0
EXCLUDE_OBJECT_START NAME=cableChain_link_v3.stl_id_3_copy_0
G17
G3 Z.6 I.748 J-.96 P1  F9000
G1 X119.964 Y89.112 Z.6
G1 Z.2
G1 E5 F2400
;TYPE:Inner wall
;WIDTH:0.499999
G1 F900
G1 X120.139 Y89.146 E.00676
G1 X120.637 Y89.146 E.01896
G1 X120.637 Y89.645 E.01896
G1 X120.637 Y96.772 E.2709
G1 X120.381 Y96.687 E.01025
G1 X99.619 Y96.687 E.78912
G1 X99.363 Y96.772 E.01025
G1 X99.363 Y89.146 E.28985
G1 X99.861 Y89.146 E.01896
G1 X100.292 Y89.062 E.01668
G1 X100.537 Y88.925 E.01067
G1 X100.773 Y88.692 E.01261
G1 X100.958 Y88.325 E.01559
G1 X101.004 Y88.003 E.01237
G1 X101.004 Y86.557 E.05496
G1 X101.459 Y86.709 E.0182
G1 X118.541 Y86.709 E.64926
G1 X118.996 Y86.557 E.0182
G1 X118.996 Y88.003 E.05496
G1 X119.042 Y88.325 E.01237
G1 X119.132 Y88.544 E.00898
G1 X119.32 Y88.8 E.0121
G1 X119.708 Y89.062 E.01777
G1 X119.925 Y89.104 E.00841
G1 X120.051 Y88.672 F9000
G1 F900
G1 X120.139 Y88.689 E.00338
G1 X121.094 Y88.689 E.03633
G1 X121.094 Y89.645 E.03633
G1 X121.094 Y97.13 E.28451
;WIDTH:0.527314
G1 X121.081 Y97.83 E.02817
G1 X120.793 Y97.281 E.02495
;WIDTH:0.499999
G1 X120.381 Y97.144 E.01648
G1 X99.619 Y97.144 E.78912
G1 X99.207 Y97.281 E.01648
;WIDTH:0.527314
G1 X98.919 Y97.83 E.02495
G1 X98.906 Y97.13 E.02817
;WIDTH:0.499999
G1 X98.906 Y88.689 E.32084
G1 X99.861 Y88.689 E.03633
G1 X100.12 Y88.638 E.01001
G1 X100.267 Y88.556 E.0064
G1 X100.466 Y88.328 E.01151
G1 X100.547 Y88.003 E.01271
G1 X100.547 Y86.364 E.06228
G1 X100.529 Y86.145 E.00838
;WIDTH:0.463477
G1 X100.511 Y85.925 E.00771
;WIDTH:0.426954
G1 X100.492 Y85.705 E.00704
;WIDTH:0.390431
G1 X100.489 Y85.134 E.0165
;WIDTH:0.38438
G1 X100.831 Y85.134 E.00969
;WIDTH:0.390431
G1 X100.837 Y85.675 E.01563
;WIDTH:0.426954
G1 X100.907 Y85.821 E.00518
;WIDTH:0.463477
G1 X100.977 Y85.968 E.00568
;WIDTH:0.499999
G1 X101.047 Y86.114 E.00617
G1 X101.459 Y86.252 E.01648
G1 X118.541 Y86.252 E.64926
G1 X118.953 Y86.114 E.01648
G1 X119.023 Y85.968 E.00617
;WIDTH:0.463476
G1 X119.093 Y85.821 E.00568
;WIDTH:0.426953
G1 X119.163 Y85.675 E.00518
;WIDTH:0.390429
G1 X119.169 Y85.134 E.01563
;WIDTH:0.384379
G1 X119.511 Y85.134 E.00969
;WIDTH:0.390429
G1 X119.508 Y85.705 E.0165
;WIDTH:0.426953
G1 X119.489 Y85.925 E.00704
;WIDTH:0.463476
G1 X119.471 Y86.145 E.00771
;WIDTH:0.499999
G1 X119.453 Y86.364 E.00838
G1 X119.453 Y87.163 E.03035
G1 X119.481 Y88.196 E.03929
G1 X119.647 Y88.482 E.01255
G1 X119.88 Y88.638 E.01066
G1 X120.012 Y88.664 E.00511
G1 X120.139 Y88.232 F9000
;TYPE:Outer wall
G1 F900
G1 X121.551 Y88.232 E.0537
G1 X121.551 Y89.645 E.0537
G1 X121.551 Y101.483 E.44993
G1 X121.475 Y102.265 E.02988
G1 X120.61 Y102.265 E.03287
G1 X120.61 Y97.83 E.16858
G1 X120.519 Y97.647 E.00777
G1 X120.381 Y97.601 E.00549
G1 X99.619 Y97.601 E.78912
G1 X99.481 Y97.647 E.00549
G1 X99.39 Y97.83 E.00777
G1 X99.39 Y102.265 E.16858
G1 X98.525 Y102.265 E.03287
