; HEADER_BLOCK_START
; generated by OrcaSlicer 1.7.0 on 2023-11-20 at 14:10:38
; total layer number: 60
; HEADER_BLOCK_END

; THUMBNAIL_BLOCK_START
; THUMBNAIL_BLOCK_END

; external perimeters extrusion width = 0.40mm
; perimeters extrusion width = 0.45mm
; infill extrusion width = 0.45mm
; solid infill extrusion width = 0.40mm
; top infill extrusion width = 0.40mm
; first layer extrusion width = 0.50mm

; EXECUTABLE_BLOCK_START
EXCLUDE_OBJECT_DEFINE NAME=cableChain_link_v3.stl_id_0_copy_0 CENTER=110,110 POLYGON=[[98,101.003],[99.84,96],[120.16,96],[122,101.003],[122,123.7],[121.701,124],[98.2985,124],[98,123.7],[98,101.003]]
M73 P0 R17
;TYPE:Custom
START_PRINT EXTRUDER_TEMP=255  BED_TEMP=80
G90
G21
M83 ; use relative distances for extrusion
; filament start gcode
M106 S0
;LAYER_CHANGE
;Z:0.2
;HEIGHT:0.2
;BEFORE_LAYER_CHANGE
;0.2
G92 E0

G1 E-2 F3600
;_SET_FAN_SPEED_CHANGING_LAYER
SET_VELOCITY_LIMIT ACCEL=500 ACCEL_TO_DECEL=250
SET_VELOCITY_LIMIT SQUARE_CORNER_VELOCITY=8
G1 X98.536 Y98.902 F9000
G1 Z.4
G1 Z.2
G1 E2 F3600
;TYPE:Skirt
;WIDTH:0.5
G1 F900
G1 X99.84 Y98.528 E.05156
G1 X120.16 Y98.528 E.77229
G1 X121.491 Y98.919 E.05274
G1 X122.384 Y99.941 E.05156
G1 X124.026 Y103.438 E.14682
G1 X124.259 Y104.482 E.04065
G1 X124.259 Y117.995 E.51359
G1 X124.147 Y119.255 E.04807
G1 X123.627 Y120.542 E.05274
G1 X122.493 Y121.341 E.05274
G1 X121.701 Y121.472 E.03049
G1 X98.299 Y121.472 E.88946
G1 X96.967 Y121.081 E.05274
M73 P0 R16
G1 X96.061 Y120.03 E.05274
G1 X95.853 Y119.255 E.03049
G1 X95.753 Y118.235 E.03896
G1 X95.741 Y104.482 E.5227
G1 X95.974 Y103.438 E.04065
G1 X97.616 Y99.941 E.14682
G1 X98.51 Y98.932 E.05122
; printing object cableChain_link_v3.stl id:0 copy 0
G1 E-1.4 F3600
;WIPE_START
G1 F900
G1 X99.466 Y98.641 E-.6
;WIPE_END
EXCLUDE_OBJECT_START NAME=cableChain_link_v3.stl_id_0_copy_0
G17
G3 Z.6 I-.392 J1.152 P1  F9000
G1 X119.964 Y105.612 Z.6
G1 Z.2
G1 E2 F3600
;TYPE:Inner wall
;WIDTH:0.499999
G1 F900
G1 X120.139 Y105.646 E.00676
G1 X120.637 Y105.646 E.01896
G1 X120.637 Y106.145 E.01896
G1 X120.637 Y113.272 E.2709
G1 X120.381 Y113.187 E.01025
G1 X99.619 Y113.187 E.78912
M73 P1 R16
G1 X99.363 Y113.272 E.01025
G1 X99.363 Y105.646 E.28985
G1 X99.861 Y105.646 E.01896
G1 X100.292 Y105.562 E.01668
G1 X100.537 Y105.425 E.01067
G1 X100.773 Y105.192 E.01261
G1 X100.958 Y104.825 E.01559
G1 X101.004 Y104.503 E.01237
G1 X101.004 Y103.057 E.05496
G1 X101.459 Y103.209 E.0182
G1 X118.541 Y103.209 E.64926
G1 X118.996 Y103.057 E.0182
G1 X118.996 Y104.503 E.05496
G1 X119.042 Y104.825 E.01237
G1 X119.132 Y105.044 E.00898
G1 X119.32 Y105.3 E.0121
G1 X119.708 Y105.562 E.01777
G1 X119.925 Y105.604 E.00841
G1 X120.051 Y105.172 F9000
G1 F900
G1 X120.139 Y105.189 E.00338
G1 X121.094 Y105.189 E.03633
G1 X121.094 Y106.145 E.03633
G1 X121.094 Y113.63 E.28451
;WIDTH:0.527314
G1 X121.081 Y114.33 E.02817
G1 X120.793 Y113.781 E.02495
;WIDTH:0.499999
G1 X120.381 Y113.644 E.01648
G1 X99.619 Y113.644 E.78912
G1 X99.207 Y113.781 E.01648
;WIDTH:0.527314
G1 X98.919 Y114.33 E.02495
G1 X98.906 Y113.63 E.02817
;WIDTH:0.499999
G1 X98.906 Y105.189 E.32084
G1 X99.861 Y105.189 E.03633
G1 X100.12 Y105.138 E.01001
G1 X100.267 Y105.056 E.0064
G1 X100.466 Y104.828 E.01151
G1 X100.547 Y104.503 E.01271
G1 X100.547 Y102.864 E.06228
G1 X100.527 Y102.637 E.00869
;WIDTH:0.460612
G1 X100.508 Y102.409 E.00794
;WIDTH:0.421224
G1 X100.489 Y101.634 E.02439
;WIDTH:0.38438
G1 X100.831 Y101.634 E.00969
G1 X100.831 Y101.805 E.00485
;WIDTH:0.421224
G1 X100.869 Y102.331 E.01661
;WIDTH:0.460612
G1 X100.958 Y102.473 E.00581
;WIDTH:0.499999
G1 X101.047 Y102.614 E.00635
G1 X101.459 Y102.752 E.01648
G1 X118.541 Y102.752 E.64926
G1 X118.953 Y102.614 E.01648
G1 X119.042 Y102.473 E.00635
;WIDTH:0.460611
G1 X119.131 Y102.331 E.00581
;WIDTH:0.421222
G1 X119.169 Y101.634 E.02197
;WIDTH:0.384379
G1 X119.511 Y101.634 E.00969
G1 X119.511 Y102.066 E.01226
;WIDTH:0.422919
G1 X119.491 Y102.332 E.00843
;WIDTH:0.461459
G1 X119.472 Y102.598 E.00929
;WIDTH:0.499999
G1 X119.453 Y102.864 E.01014
G1 X119.453 Y103.663 E.03035
G1 X119.481 Y104.696 E.03929
G1 X119.647 Y104.982 E.01255
G1 X119.88 Y105.138 E.01066
G1 X120.012 Y105.164 E.00511
G1 X120.139 Y104.732 F9000
;TYPE:Outer wall
G1 F900
G1 X121.551 Y104.732 E.0537
G1 X121.551 Y106.145 E.0537
G1 X121.551 Y117.983 E.44993
G1 X121.475 Y118.765 E.02988
G1 X120.61 Y118.765 E.03287
G1 X120.61 Y114.33 E.16858
G1 X120.519 Y114.147 E.00777
G1 X120.381 Y114.101 E.00549
G1 X99.619 Y114.101 E.78912
M73 P2 R16
G1 X99.481 Y114.147 E.00549
G1 X99.39 Y114.33 E.00777
G1 X99.39 Y118.765 E.16858
G1 X98.525 Y118.765 E.03287
G1 X98.449 Y117.983 E.02988
G1 X98.449 Y104.732 E.50363
G1 X99.861 Y104.732 E.0537
G1 X100.025 Y104.663 E.00675
G1 X100.09 Y104.503 E.00654
G1 X100.09 Y101.235 E.12422
G1 X101.23 Y101.235 E.04333
G1 X101.23 Y102.066 E.03159
G1 X101.321 Y102.249 E.00777
G1 X101.459 Y102.294 E.00549
G1 X118.541 Y102.294 E.64926
G1 X118.679 Y102.249 E.00549
G1 X118.77 Y102.066 E.00777
G1 X118.77 Y101.235 E.03159
G1 X119.91 Y101.235 E.04333
G1 X119.91 Y104.503 E.12422
G1 X119.975 Y104.663 E.00654
G1 X120.102 Y104.716 E.00523
G1 E-1.4 F3600
;WIPE_START
G1 F900
G1 X121.102 Y104.727 E-.6
;WIPE_END
G17
G3 Z.6 I-1.217 J-.003 P1  F9000
G1 X121.064 Y118.312 Z.6
G1 Z.2
G1 E2 F3600
;TYPE:Inner wall
;WIDTH:0.527314
G1 F900
G1 X121.081 Y117.96 E.01419
G1 X121.081 Y114.33 E.14621
G1 E-1.4 F3600
;WIPE_START
G1 F900
G1 X121.081 Y115.33 E-.6
;WIPE_END
G17
G3 Z.6 I-.162 J-1.206 P1  F9000
G1 X98.936 Y118.312 Z.6
G1 Z.2
G1 E2 F3600
G1 F900
G1 X98.919 Y117.96 E.01419
G1 X98.919 Y114.33 E.14621
G1 E-1.4 F3600
;WIPE_START
G1 F900
G1 X98.919 Y115.33 E-.6
;WIPE_END
G17
G3 Z.6 I.595 J1.062 P1  F9000
G1 X118.85 Y104.168 Z.6
G1 Z.2
G1 E2 F3600
;TYPE:Bottom surface
;WIDTH:0.502431
G1 F1200
G1 X118.242 Y103.561 E.03282
G1 X117.592 Y103.561 E.02483
G1 X118.661 Y104.629 E.05773
G1 X118.703 Y104.922 E.01132
G1 X118.82 Y105.209 E.01184
G1 X118.945 Y105.403 E.00881
G1 X119.068 Y105.547 E.00724
G1 X119.256 Y105.71 E.00951
G1 X119.579 Y105.891 E.01411
G1 X120.006 Y105.974 E.01664
G1 X120.285 Y106.254 E.0151
G1 X120.285 Y106.903 E.02483
G1 X116.942 Y103.561 E.18063
G1 X116.293 Y103.561 E.02483
G1 X120.285 Y107.553 E.21575
G1 X120.285 Y108.203 E.02483
G1 X115.643 Y103.561 E.25086
G1 X114.993 Y103.561 E.02483
G1 X120.285 Y108.853 E.28598
G1 X120.285 Y109.503 E.02483
G1 X114.343 Y103.561 E.32109
G1 X113.693 Y103.561 E.02483
G1 X120.285 Y110.153 E.35621
G1 X120.285 Y110.803 E.02483
M73 P3 R16
G1 X113.043 Y103.561 E.39132
G1 X112.394 Y103.561 E.02483
G1 X120.285 Y111.452 E.42644
G1 X120.285 Y112.102 E.02483
G1 X111.744 Y103.561 E.46155
G1 X111.094 Y103.561 E.02483
G1 X120.285 Y112.752 E.49666
G1 X120.285 Y112.844 E.00352
G1 X119.728 Y112.844 E.02131
G1 X110.444 Y103.561 E.50164
G1 X109.794 Y103.561 E.02483
G1 X119.078 Y112.844 E.50164
G1 X118.428 Y112.844 E.02483
G1 X109.144 Y103.561 E.50164
G1 X108.494 Y103.561 E.02483
G1 X117.778 Y112.844 E.50164
G1 X117.128 Y112.844 E.02483
G1 X107.845 Y103.561 E.50164
G1 X107.195 Y103.561 E.02483
G1 X116.478 Y112.844 E.50164
G1 X115.829 Y112.844 E.02483
G1 X106.545 Y103.561 E.50164
G1 X105.895 Y103.561 E.02483
G1 X115.179 Y112.844 E.50164
G1 X114.529 Y112.844 E.02483
G1 X105.245 Y103.561 E.50164
G1 X104.595 Y103.561 E.02483
G1 X113.879 Y112.844 E.50164
G1 X113.229 Y112.844 E.02483
G1 X103.946 Y103.561 E.50164
M73 P4 R16
G1 X103.296 Y103.561 E.02483
G1 X112.579 Y112.844 E.50164
G1 X111.93 Y112.844 E.02483
G1 X102.646 Y103.561 E.50164
G1 X101.996 Y103.561 E.02483
G1 X111.28 Y112.844 E.50164
G1 X110.63 Y112.844 E.02483
G1 X101.356 Y103.57 E.5011
G1 X101.356 Y104.22 E.02483
G1 X109.98 Y112.844 E.46599
G1 X109.33 Y112.844 E.02483
G1 X101.311 Y104.825 E.43331
G1 X101.297 Y104.922 E.00375
G1 X101.18 Y105.209 E.01184
G1 X101.127 Y105.291 E.00372
G1 X108.68 Y112.844 E.40814
G1 X108.03 Y112.844 E.02483
G1 X100.826 Y105.639 E.38932
G1 X100.744 Y105.71 E.00414
G1 X100.425 Y105.889 E.01395
G1 X107.381 Y112.844 E.37585
G1 X106.731 Y112.844 E.02483
G1 X99.883 Y105.996 E.37004
G1 X99.715 Y105.998 E.00642
G1 X99.715 Y106.478 E.01834
G1 X106.081 Y112.844 E.344
G1 X105.431 Y112.844 E.02483
G1 X99.715 Y107.128 E.30889
G1 X99.715 Y107.778 E.02483
G1 X104.781 Y112.844 E.27377
G1 X104.131 Y112.844 E.02483
G1 X99.715 Y108.427 E.23866
G1 X99.715 Y109.077 E.02483
G1 X103.481 Y112.844 E.20354
G1 X102.832 Y112.844 E.02483
G1 X99.715 Y109.727 E.16843
G1 X99.715 Y110.377 E.02483
G1 X102.182 Y112.844 E.13331
G1 X101.532 Y112.844 E.02483
G1 X99.715 Y111.027 E.0982
G1 X99.715 Y111.677 E.02483
G1 X100.882 Y112.844 E.06309
G1 X100.232 Y112.844 E.02483
G1 X99.509 Y112.121 E.03908
; stop printing object cableChain_link_v3.stl id:0 copy 0
;LAYER_CHANGE
;Z:0.4
;HEIGHT:0.2
;BEFORE_LAYER_CHANGE
;0.4
G92 E0

G1 E-1.4 F3600
;WIPE_START
G1 F1200
G1 X100.216 Y112.828 E-.6
;WIPE_END
EXCLUDE_OBJECT_END NAME=cableChain_link_v3.stl_id_0_copy_0
;_SET_FAN_SPEED_CHANGING_LAYER
SET_VELOCITY_LIMIT SQUARE_CORNER_VELOCITY=1
M104 S240 ; set nozzle temperature
M140 S80 ; set bed temperature
; printing object cableChain_link_v3.stl id:0 copy 0
SET_VELOCITY_LIMIT ACCEL=700 ACCEL_TO_DECEL=350
SET_VELOCITY_LIMIT SQUARE_CORNER_VELOCITY=8
EXCLUDE_OBJECT_START NAME=cableChain_link_v3.stl_id_0_copy_0
G17
G3 Z.6 I.465 J1.125 P1  F9000
G1 X119.184 Y104.987 Z.6
M73 P5 R16
G1 Z.4
G1 E2 F3600
SET_VELOCITY_LIMIT ACCEL=500 ACCEL_TO_DECEL=250
SET_VELOCITY_LIMIT SQUARE_CORNER_VELOCITY=1
;TYPE:Inner wall
;WIDTH:0.449999
G1 F6000
G1 X119.199 Y105.11 E.0042
G1 X119.325 Y105.401 E.01074
G1 X119.501 Y105.605 E.00912
G1 X119.824 Y105.792 E.01263
G1 X120.139 Y105.845 E.01081
G1 X121.011 Y105.845 E.02953
G1 X121.011 Y106.717 E.02953
G1 X121.011 Y113.653 E.23477
G1 X120.962 Y113.556 E.00369
G1 X120.381 Y113.362 E.02072
G1 X99.619 Y113.362 E.7028
G1 X99.038 Y113.556 E.02072
G1 X98.989 Y113.653 E.00369
G1 X98.989 Y105.845 E.26429
G1 X99.861 Y105.845 E.02953
G1 X100.176 Y105.792 E.01081
G1 X100.374 Y105.698 E.00741
G1 X100.597 Y105.506 E.00996
G1 X100.742 Y105.279 E.00911
G1 X100.829 Y104.877 E.01392
G1 X100.829 Y102.779 E.07102
G1 X100.878 Y102.84 E.00264
G1 X101.459 Y103.034 E.02072
G1 X118.541 Y103.034 E.57824
G1 X119.122 Y102.84 E.02072
G1 X119.171 Y102.779 E.00264
G1 X119.171 Y104.877 E.07102
G1 X119.179 Y104.947 E.00237
SET_VELOCITY_LIMIT ACCEL=700 ACCEL_TO_DECEL=350
SET_VELOCITY_LIMIT SQUARE_CORNER_VELOCITY=8
G1 X119.584 Y104.93 F9000
SET_VELOCITY_LIMIT ACCEL=500 ACCEL_TO_DECEL=250
SET_VELOCITY_LIMIT SQUARE_CORNER_VELOCITY=1
G1 F6000
G1 X119.594 Y105.012 E.00279
G1 X119.667 Y105.181 E.00622
G1 X119.842 Y105.353 E.00829
G1 X120.139 Y105.438 E.01046
G1 X121.418 Y105.438 E.04331
G1 X121.418 Y106.717 E.04331
G1 X121.418 Y113.531 E.23064
;WIDTH:0.48438
G1 X121.401 Y114.33 E.02932
G1 X121.401 Y117.96 E.13327
G1 X121.362 Y118.494 E.01965
;WIDTH:0.459262
G1 F1556.481
G1 X121.324 Y119.007 E.01781
;WIDTH:0.434143
G1 F1200
G1 X121.322 Y119.015 E.00027
G1 X121.272 Y119.207 E.00645
;WIDTH:0.430499
G1 F1500
G1 X120.932 Y119.207 E.01096
;WIDTH:0.434143
G1 F1200
G1 X120.934 Y119.015 E.00625
G1 X120.934 Y118.988 E.00088
;WIDTH:0.459262
G1 F2354.186
G1 X120.947 Y118.474 E.0178
;WIDTH:0.48438
G1 F6000
M106 S0
G1 X120.959 Y114.33 E.15213
G1 X120.718 Y113.881 E.0187
;WIDTH:0.449999
G1 X120.381 Y113.769 E.012
G1 X99.619 Y113.769 E.7028
G1 X99.282 Y113.881 E.012
;WIDTH:0.48438
G1 X99.041 Y114.33 E.0187
G1 X99.053 Y118.474 E.15213
;WIDTH:0.459262
G1 F2354.185
G1 X99.066 Y118.988 E.0178
;WIDTH:0.434144
G1 F1200
G1 X99.066 Y119.015 E.00088
G1 X99.068 Y119.207 E.00625
;WIDTH:0.430501
G1 F1500
G1 X98.728 Y119.207 E.01096
;WIDTH:0.434144
G1 F1200
G1 X98.678 Y119.015 E.00645
G1 X98.676 Y119.007 E.00027
;WIDTH:0.459262
G1 F1556.481
G1 X98.638 Y118.494 E.01781
;WIDTH:0.48438
G1 F6000
M106 S0
G1 X98.599 Y117.971 E.01926
G1 X98.599 Y114.33 E.13366
G1 X98.582 Y113.531 E.02932
;WIDTH:0.449999
G1 X98.582 Y105.438 E.27395
G1 X99.861 Y105.438 E.04331
G1 X100.044 Y105.407 E.00626
G1 X100.231 Y105.299 E.00731
G1 X100.371 Y105.11 E.00797
G1 X100.422 Y104.877 E.00806
G1 X100.422 Y103.663 E.04111
;WIDTH:0.485612
G1 X100.44 Y103.036 E.02309
;WIDTH:0.521224
G1 X100.458 Y102.409 E.02495
G1 X100.439 Y102.066 E.01366
;WIDTH:0.48438
G1 F1200
G1 X100.439 Y100.985 E.03968
G1 F674.098
G1 X100.439 Y100.82 E.00606
G1 X100.881 Y100.82 E.01622
G1 X100.881 Y100.985 E.00606
G1 F1200
G1 X100.881 Y102.066 E.03968
;WIDTH:0.521224
G1 F6000
M106 S0
G1 X100.915 Y102.311 E.00983
G1 X101.019 Y102.413 E.00578
;WIDTH:0.485612
G1 X101.122 Y102.514 E.00535
;WIDTH:0.449999
G1 X101.459 Y102.627 E.012
G1 X118.541 Y102.627 E.57824
G1 X118.878 Y102.514 E.012
;WIDTH:0.485611
G1 X118.981 Y102.413 E.00535
;WIDTH:0.521222
G1 X119.085 Y102.311 E.00578
G1 X119.119 Y102.066 E.00983
;WIDTH:0.484379
G1 F1200
G1 X119.119 Y100.985 E.03968
G1 F674.097
G1 X119.119 Y100.82 E.00606
G1 X119.561 Y100.82 E.01622
G1 X119.561 Y100.985 E.00606
G1 F1200
G1 X119.561 Y102.066 E.03968
;WIDTH:0.521222
G1 F6000
M106 S0
G1 X119.542 Y102.409 E.01366
G1 X119.56 Y102.637 E.00909
;WIDTH:0.485611
G1 X119.578 Y102.864 E.00841
;WIDTH:0.449999
G1 X119.578 Y104.877 E.06814
G1 X119.58 Y104.891 E.00045
SET_VELOCITY_LIMIT ACCEL=700 ACCEL_TO_DECEL=350
SET_VELOCITY_LIMIT SQUARE_CORNER_VELOCITY=8
G1 X119.96 Y104.877 F9000
SET_VELOCITY_LIMIT ACCEL=500 ACCEL_TO_DECEL=250
SET_VELOCITY_LIMIT SQUARE_CORNER_VELOCITY=1
;TYPE:Outer wall
;WIDTH:0.399999
G1 F6000
G1 X120.003 Y104.993 E.00367
G1 X120.139 Y105.056 E.00445
G1 F1270.704
G1 X121.8 Y105.056 E.04932
G1 X121.8 Y106.717 E.04932
G1 X121.8 Y107.316 E.01779
G1 X121.8 Y117.392 E.29917
G1 X121.8 Y117.991 E.01779
G1 F1200
G1 X121.7 Y119.015 E.03055
G1 F958.437
G1 X121.692 Y119.096 E.00242
G1 X121.657 Y119.215 E.00368
SET_VELOCITY_LIMIT ACCEL=250 ACCEL_TO_DECEL=125
;TYPE:Overhang wall
G1 F1500
G1 X121.551 Y119.579 E.01126
G1 X120.56 Y119.579 E.02943
G1 X120.56 Y119.215 E.01081
SET_VELOCITY_LIMIT ACCEL=500 ACCEL_TO_DECEL=250
;TYPE:Outer wall
G1 F1200
G1 X120.56 Y119.015 E.00594
G1 X120.56 Y118.415 E.01781
M106 S0
G1 F6000
G1 X120.56 Y114.729 E.10944
G1 X120.56 Y114.33 E.01185
G1 X120.489 Y114.187 E.00474
G1 X120.381 Y114.151 E.00338
G1 X99.619 Y114.151 E.61645
G1 X99.511 Y114.187 E.00338
G1 X99.44 Y114.33 E.00474
G1 X99.44 Y114.729 E.01185
G1 X99.44 Y118.415 E.10944
G1 F1200
G1 X99.44 Y119.015 E.01781
G1 X99.44 Y119.215 E.00594
SET_VELOCITY_LIMIT ACCEL=250 ACCEL_TO_DECEL=125
;TYPE:Overhang wall
G1 F1500
G1 X99.44 Y119.579 E.01081
G1 X98.449 Y119.579 E.02943
G1 X98.343 Y119.215 E.01126
SET_VELOCITY_LIMIT ACCEL=500 ACCEL_TO_DECEL=250
;TYPE:Outer wall
G1 F958.437
G1 X98.308 Y119.096 E.00368
G1 X98.3 Y119.015 E.00242
G1 F1200
G1 X98.2 Y117.991 E.03055
G1 F1270.704
G1 X98.2 Y117.392 E.01779
G1 X98.2 Y105.654 E.34852
G1 X98.2 Y105.056 E.01776
G1 X99.861 Y105.056 E.04932
M106 S0
G1 F6000
G1 X99.979 Y105.012 E.00374
G1 X100.04 Y104.877 E.0044
G1 F1200
G1 X100.04 Y100.985 E.11556
G1 X100.04 Y100.785 E.00594
SET_VELOCITY_LIMIT ACCEL=250 ACCEL_TO_DECEL=125
;TYPE:Overhang wall
G1 F1500
G1 X100.04 Y100.421 E.01081
G1 X101.28 Y100.421 E.03682
G1 X101.28 Y100.785 E.01081
SET_VELOCITY_LIMIT ACCEL=500 ACCEL_TO_DECEL=250
;TYPE:Outer wall
M73 P6 R16
G1 F1200
G1 X101.28 Y100.985 E.00594
G1 X101.28 Y102.066 E.0321
M106 S0
G1 F6000
G1 X101.351 Y102.209 E.00474
G1 X101.459 Y102.244 E.00337
G1 X118.541 Y102.244 E.50719
G1 X118.649 Y102.209 E.00337
G1 X118.72 Y102.066 E.00474
G1 F1200
G1 X118.72 Y100.985 E.0321
G1 X118.72 Y100.785 E.00594
SET_VELOCITY_LIMIT ACCEL=250 ACCEL_TO_DECEL=125
;TYPE:Overhang wall
G1 F1500
G1 X118.72 Y100.421 E.01081
G1 X119.96 Y100.421 E.03682
G1 X119.96 Y100.785 E.01081
SET_VELOCITY_LIMIT ACCEL=500 ACCEL_TO_DECEL=250
;TYPE:Outer wall
G1 F1200
G1 X119.96 Y100.985 E.00594
G1 X119.96 Y104.837 E.11437
SET_VELOCITY_LIMIT ACCEL=700 ACCEL_TO_DECEL=350
SET_VELOCITY_LIMIT SQUARE_CORNER_VELOCITY=8
G1 E-1.4 F3600
;WIPE_START
G1 F1200
G1 X120.003 Y104.993 E-.09708
G1 X120.139 Y105.056 E-.08965
G1 X120.827 Y105.056 E-.41328
;WIPE_END
G17
G3 Z.8 I-1.217 J.009 P1  F9000
G1 X120.883 Y112.663 Z.8
G1 Z.4
G1 E2 F3600
SET_VELOCITY_LIMIT ACCEL=500 ACCEL_TO_DECEL=250
;TYPE:Internal solid infill
;WIDTH:0.400904
G1 F2400
