; HEADER_BLOCK_START
; generated by OrcaSlicer 1.7.0 on 2023-11-20 at 14:41:00
; total layer number: 35
; HEADER_BLOCK_END

; THUMBNAIL_BLOCK_START
; THUMBNAIL_BLOCK_END

; external perimeters extrusion width = 0.40mm
; perimeters extrusion width = 0.45mm
; infill extrusion width = 0.45mm
; solid infill extrusion width = 0.40mm
; top infill extrusion width = 0.40mm
; first layer extrusion width = 0.50mm

; external perimeters extrusion width = 0.40mm
; perimeters extrusion width = 0.45mm
; infill extrusion width = 0.45mm
; solid infill extrusion width = 0.40mm
; top infill extrusion width = 0.40mm
; first layer extrusion width = 0.50mm

; external perimeters extrusion width = 0.40mm
; perimeters extrusion width = 0.45mm
; infill extrusion width = 0.45mm
; solid infill extrusion width = 0.40mm
; top infill extrusion width = 0.40mm
; first layer extrusion width = 0.50mm

; external perimeters extrusion width = 0.40mm
; perimeters extrusion width = 0.45mm
; infill extrusion width = 0.45mm
; solid infill extrusion width = 0.40mm
; top infill extrusion width = 0.40mm
; first layer extrusion width = 0.50mm

; external perimeters extrusion width = 0.40mm
; perimeters extrusion width = 0.45mm
; infill extrusion width = 0.45mm
; solid infill extrusion width = 0.40mm
; top infill extrusion width = 0.40mm
; first layer extrusion width = 0.50mm

; external perimeters extrusion width = 0.40mm
; perimeters extrusion width = 0.45mm
; infill extrusion width = 0.45mm
; solid infill extrusion width = 0.40mm
; top infill extrusion width = 0.40mm
; first layer extrusion width = 0.50mm

; EXECUTABLE_BLOCK_START
EXCLUDE_OBJECT_DEFINE NAME=cableChain_linkCover_v2.stl_id_0_copy_0 CENTER=110,132 POLYGON=[[98,129.1],[122,129.1],[122,134.9],[98,134.9],[98,129.1]]
EXCLUDE_OBJECT_DEFINE NAME=cableChain_linkCover_v2.stl_id_1_copy_0 CENTER=110,123.2 POLYGON=[[98,120.3],[122,120.3],[122,126.1],[98,126.1],[98,120.3]]
EXCLUDE_OBJECT_DEFINE NAME=cableChain_linkCover_v2.stl_id_2_copy_0 CENTER=110,114.4 POLYGON=[[98,111.5],[122,111.5],[122,117.3],[98,117.3],[98,111.5]]
EXCLUDE_OBJECT_DEFINE NAME=cableChain_linkCover_v2.stl_id_3_copy_0 CENTER=110,105.6 POLYGON=[[98,102.7],[122,102.7],[122,108.5],[98,108.5],[98,102.7]]
EXCLUDE_OBJECT_DEFINE NAME=cableChain_linkCover_v2.stl_id_4_copy_0 CENTER=110,96.8001 POLYGON=[[98,93.9001],[122,93.9001],[122,99.7],[98,99.7],[98,93.9001]]
EXCLUDE_OBJECT_DEFINE NAME=cableChain_linkCover_v2.stl_id_5_copy_0 CENTER=110,88.0001 POLYGON=[[98,85.1001],[122,85.1001],[122,90.9001],[98,90.9001],[98,85.1001]]
M73 P0 R19
;TYPE:Custom
START_PRINT EXTRUDER_TEMP=255  BED_TEMP=80
G90
G21
M83 ; use relative distances for extrusion
; filament start gcode
M106 S0
;LAYER_CHANGE
;Z:0.2
;HEIGHT:0.2
;BEFORE_LAYER_CHANGE
;0.2
G92 E0

G1 E-2 F3600
;_SET_FAN_SPEED_CHANGING_LAYER
SET_VELOCITY_LIMIT ACCEL=500 ACCEL_TO_DECEL=250
SET_VELOCITY_LIMIT SQUARE_CORNER_VELOCITY=8
G1 X95.935 Y83.769 F9000
G1 Z.4
G1 Z.2
G1 E2 F3600
;TYPE:Skirt
;WIDTH:0.5
G1 F900
G1 X96.985 Y82.862 E.05274
G1 X98 Y82.643 E.03945
G1 X122 Y82.643 E.91215
G1 X123.331 Y83.035 E.05274
G1 X124.238 Y84.085 E.05274
G1 X124.457 Y85.1 E.03945
G1 X124.457 Y134.9 E1.89271
G1 X124.065 Y136.231 E.05274
G1 X123.015 Y137.138 E.05274
G1 X122 Y137.357 E.03945
G1 X98 Y137.357 E.91215
G1 X96.669 Y136.965 E.05274
G1 X95.762 Y135.915 E.05274
G1 X95.543 Y134.9 E.03945
G1 X95.543 Y85.1 E1.89271
M73 P1 R19
G1 X95.923 Y83.807 E.05122
; printing object cableChain_linkCover_v2.stl id:5 copy 0
G1 E-1.4 F3600
;WIPE_START
G1 F900
G1 X96.671 Y83.143 E-.6
;WIPE_END
EXCLUDE_OBJECT_START NAME=cableChain_linkCover_v2.stl_id_5_copy_0
G17
G3 Z.6 I-.196 J1.201 P1  F9000
G1 X120.676 Y87.065 Z.6
G1 Z.2
G1 E2 F3600
;TYPE:Inner wall
;WIDTH:0.504838
G1 F900
G1 X121.291 Y86.476 E.03269
G1 X121.291 Y87.608 E.04351
G1 X121.121 Y87.318 E.01291
G1 X120.711 Y87.084 E.01814
G1 E-1.4 F3600
;WIPE_START
G1 F900
G1 X121.291 Y86.476 E-.50439
G1 X121.291 Y86.635 E-.09561
;WIPE_END
G17
G3 Z.6 I-.052 J-1.216 P1  F9000
G1 X98.709 Y87.608 Z.6
G1 Z.2
G1 E2 F3600
;WIDTH:0.504839
G1 F900
G1 X98.709 Y86.476 E.04351
G1 X99.324 Y87.065 E.03269
G1 X98.879 Y87.318 E.01968
G1 X98.73 Y87.574 E.01137
G1 E-1.4 F3600
;WIPE_START
G1 F900
G1 X98.711 Y86.574 E-.6
;WIPE_END
G17
G3 Z.6 I-1.21 J.128 P1  F9000
G1 X99.07 Y89.95 Z.6
G1 Z.2
G1 E2 F3600
;TYPE:Outer wall
;WIDTH:0.709922
G1 F900
G1 X99.136 Y89.964 E.00376
;WIDTH:0.675691
G1 X99.219 Y89.981 E.00444
;WIDTH:0.64146
G1 X120.781 Y89.981 E1.07316
;WIDTH:0.675691
G1 X120.864 Y89.964 E.00444
;WIDTH:0.709922
G1 X120.947 Y89.947 E.00468
;WIDTH:0.744153
G1 X121.029 Y89.929 E.00492
G1 X121.046 Y89.847 E.00492
;WIDTH:0.709922
G1 X121.064 Y89.764 E.00468
;WIDTH:0.675691
G1 X121.081 Y89.682 E.00444
;WIDTH:0.641459
G1 X121.081 Y87.916 E.08787
G1 X121.019 Y87.85 E.00452
;WIDTH:0.594306
G1 X120.957 Y87.784 E.00416
;WIDTH:0.547153
G1 X120.894 Y87.717 E.00381
;WIDTH:0.499999
G1 X120.01 Y87.215 E.03866
G1 X120.01 Y87.067 E.00562
G1 X121.75 Y85.399 E.09161
G1 X121.75 Y87.22 E.06921
;WIDTH:0.547153
G1 X121.726 Y87.452 E.00978
;WIDTH:0.594306
G1 X121.703 Y87.684 E.0107
;WIDTH:0.641459
G1 X121.679 Y87.916 E.01161
G1 X121.679 Y89.682 E.08787
;WIDTH:0.669075
G1 X121.665 Y89.939 E.01341
;WIDTH:0.706614
G1 X121.647 Y90.233 E.01629
;WIDTH:0.744153
G1 X121.628 Y90.528 E.01722
G1 X121.346 Y90.545 E.01648
;WIDTH:0.709922
G1 X121.064 Y90.562 E.01568
;WIDTH:0.675691
G1 X120.781 Y90.579 E.01487
;WIDTH:0.64146
G1 X99.219 Y90.579 E1.07316
;WIDTH:0.675691
G1 X98.936 Y90.562 E.01487
;WIDTH:0.709922
G1 X98.654 Y90.545 E.01568
;WIDTH:0.744152
G1 X98.372 Y90.528 E.01648
G1 X98.355 Y90.246 E.01648
;WIDTH:0.709922
G1 X98.338 Y89.964 E.01568
;WIDTH:0.675691
G1 X98.321 Y89.682 E.01487
;WIDTH:0.64146
G1 X98.321 Y87.916 E.08787
G1 X98.297 Y87.684 E.01161
;WIDTH:0.594307
G1 X98.274 Y87.452 E.0107
;WIDTH:0.547153
G1 X98.25 Y87.22 E.00978
;WIDTH:0.499999
G1 X98.25 Y85.399 E.06921
G1 X99.99 Y87.067 E.09161
G1 X99.99 Y87.215 E.00562
G1 X99.106 Y87.717 E.03866
;WIDTH:0.547153
G1 X99.043 Y87.784 E.00381
;WIDTH:0.594307
G1 X98.981 Y87.85 E.00416
;WIDTH:0.64146
G1 X98.919 Y87.916 E.00452
G1 X98.919 Y89.682 E.08787
;WIDTH:0.675691
G1 X98.936 Y89.764 E.00444
;WIDTH:0.709922
G1 X98.954 Y89.847 E.00468
;WIDTH:0.744152
G1 X98.971 Y89.929 E.00492
G1 X99.03 Y89.942 E.00356
; stop printing object cableChain_linkCover_v2.stl id:5 copy 0
; printing object cableChain_linkCover_v2.stl id:4 copy 0
G1 E-1.4 F3600
;WIPE_START
G1 F900
G1 X99.136 Y89.964 E-.06465
G1 X99.219 Y89.981 E-.05064
G1 X100.026 Y89.981 E-.48471
;WIPE_END
EXCLUDE_OBJECT_END NAME=cableChain_linkCover_v2.stl_id_5_copy_0
EXCLUDE_OBJECT_START NAME=cableChain_linkCover_v2.stl_id_4_copy_0
G17
G3 Z.6 I-.333 J1.17 P1  F9000
G1 X120.676 Y95.865 Z.6
G1 Z.2
G1 E2 F3600
;TYPE:Inner wall
;WIDTH:0.504838
G1 F900
G1 X121.291 Y95.276 E.03269
G1 X121.291 Y96.408 E.04351
G1 X121.121 Y96.118 E.01291
G1 X120.711 Y95.884 E.01814
G1 E-1.4 F3600
;WIPE_START
G1 F900
G1 X121.291 Y95.276 E-.50439
G1 X121.291 Y95.435 E-.09561
;WIPE_END
G17
G3 Z.6 I-.052 J-1.216 P1  F9000
G1 X98.709 Y96.408 Z.6
G1 Z.2
G1 E2 F3600
;WIDTH:0.504839
G1 F900
G1 X98.709 Y95.276 E.04351
G1 X99.324 Y95.865 E.03269
G1 X98.879 Y96.118 E.01968
G1 X98.73 Y96.374 E.01137
G1 E-1.4 F3600
;WIPE_START
G1 F900
G1 X98.711 Y95.374 E-.6
;WIPE_END
G17
G3 Z.6 I-1.21 J.128 P1  F9000
G1 X99.07 Y98.75 Z.6
G1 Z.2
G1 E2 F3600
;TYPE:Outer wall
;WIDTH:0.709922
G1 F900
G1 X99.136 Y98.764 E.00376
;WIDTH:0.675691
G1 X99.219 Y98.781 E.00444
;WIDTH:0.64146
M73 P2 R19
G1 X120.781 Y98.781 E1.07316
;WIDTH:0.675691
G1 X120.864 Y98.764 E.00444
;WIDTH:0.709922
G1 X120.947 Y98.747 E.00468
;WIDTH:0.744153
G1 X121.029 Y98.729 E.00492
G1 X121.046 Y98.647 E.00492
;WIDTH:0.709922
G1 X121.064 Y98.564 E.00468
;WIDTH:0.675691
G1 X121.081 Y98.482 E.00444
;WIDTH:0.641459
G1 X121.081 Y96.716 E.08787
G1 X121.019 Y96.65 E.00452
;WIDTH:0.594306
G1 X120.957 Y96.584 E.00416
;WIDTH:0.547153
G1 X120.894 Y96.517 E.00381
;WIDTH:0.499999
G1 X120.01 Y96.015 E.03866
G1 X120.01 Y95.867 E.00562
G1 X121.75 Y94.198 E.09161
G1 X121.75 Y96.02 E.06921
;WIDTH:0.547153
G1 X121.726 Y96.252 E.00978
;WIDTH:0.594306
G1 X121.703 Y96.484 E.0107
;WIDTH:0.641459
G1 X121.679 Y96.716 E.01161
G1 X121.679 Y98.482 E.08787
;WIDTH:0.669075
G1 X121.665 Y98.739 E.01341
;WIDTH:0.706614
G1 X121.647 Y99.033 E.01629
;WIDTH:0.744153
G1 X121.628 Y99.328 E.01722
G1 X121.346 Y99.345 E.01648
;WIDTH:0.709922
G1 X121.064 Y99.362 E.01568
;WIDTH:0.675691
G1 X120.781 Y99.379 E.01487
;WIDTH:0.64146
G1 X99.219 Y99.379 E1.07316
;WIDTH:0.675691
G1 X98.936 Y99.362 E.01487
;WIDTH:0.709922
G1 X98.654 Y99.345 E.01568
;WIDTH:0.744152
G1 X98.372 Y99.328 E.01648
G1 X98.355 Y99.046 E.01648
;WIDTH:0.709922
G1 X98.338 Y98.764 E.01568
;WIDTH:0.675691
G1 X98.321 Y98.482 E.01487
;WIDTH:0.64146
G1 X98.321 Y96.716 E.08787
G1 X98.297 Y96.484 E.01161
;WIDTH:0.594307
G1 X98.274 Y96.252 E.0107
;WIDTH:0.547153
G1 X98.25 Y96.02 E.00978
;WIDTH:0.499999
G1 X98.25 Y94.198 E.06921
G1 X99.99 Y95.867 E.09161
G1 X99.99 Y96.015 E.00562
G1 X99.106 Y96.517 E.03866
;WIDTH:0.547153
G1 X99.043 Y96.584 E.00381
;WIDTH:0.594307
G1 X98.981 Y96.65 E.00416
;WIDTH:0.64146
G1 X98.919 Y96.716 E.00452
G1 X98.919 Y98.482 E.08787
;WIDTH:0.675691
G1 X98.936 Y98.564 E.00444
;WIDTH:0.709922
G1 X98.954 Y98.647 E.00468
;WIDTH:0.744152
G1 X98.971 Y98.729 E.00492
G1 X99.03 Y98.742 E.00356
; stop printing object cableChain_linkCover_v2.stl id:4 copy 0
; printing object cableChain_linkCover_v2.stl id:3 copy 0
G1 E-1.4 F3600
;WIPE_START
G1 F900
G1 X99.136 Y98.764 E-.06465
G1 X99.219 Y98.781 E-.05064
G1 X100.026 Y98.781 E-.48471
;WIPE_END
EXCLUDE_OBJECT_END NAME=cableChain_linkCover_v2.stl_id_4_copy_0
EXCLUDE_OBJECT_START NAME=cableChain_linkCover_v2.stl_id_3_copy_0
G17
G3 Z.6 I-.333 J1.17 P1  F9000
G1 X120.676 Y104.665 Z.6
G1 Z.2
G1 E2 F3600
;TYPE:Inner wall
;WIDTH:0.504838
G1 F900
G1 X121.291 Y104.076 E.03269
G1 X121.291 Y105.208 E.04351
G1 X121.121 Y104.918 E.01291
G1 X120.711 Y104.684 E.01814
G1 E-1.4 F3600
;WIPE_START
G1 F900
G1 X121.291 Y104.076 E-.50439
G1 X121.291 Y104.235 E-.09561
;WIPE_END
G17
G3 Z.6 I-.052 J-1.216 P1  F9000
G1 X98.709 Y105.208 Z.6
G1 Z.2
G1 E2 F3600
;WIDTH:0.504839
G1 F900
G1 X98.709 Y104.076 E.04351
G1 X99.324 Y104.665 E.03269
G1 X98.879 Y104.918 E.01968
G1 X98.73 Y105.174 E.01137
G1 E-1.4 F3600
;WIPE_START
G1 F900
G1 X98.711 Y104.174 E-.6
;WIPE_END
G17
G3 Z.6 I-1.21 J.128 P1  F9000
G1 X99.07 Y107.55 Z.6
G1 Z.2
G1 E2 F3600
;TYPE:Outer wall
;WIDTH:0.709922
G1 F900
G1 X99.136 Y107.564 E.00376
;WIDTH:0.675691
G1 X99.219 Y107.581 E.00444
;WIDTH:0.64146
G1 X120.781 Y107.581 E1.07316
;WIDTH:0.675691
G1 X120.864 Y107.564 E.00444
;WIDTH:0.709922
G1 X120.947 Y107.546 E.00468
;WIDTH:0.744153
G1 X121.029 Y107.529 E.00492
G1 X121.046 Y107.447 E.00492
;WIDTH:0.709922
G1 X121.064 Y107.364 E.00468
;WIDTH:0.675691
G1 X121.081 Y107.281 E.00444
;WIDTH:0.641459
G1 X121.081 Y105.516 E.08787
G1 X121.019 Y105.45 E.00452
;WIDTH:0.594306
G1 X120.957 Y105.384 E.00416
;WIDTH:0.547153
G1 X120.894 Y105.317 E.00381
;WIDTH:0.499999
G1 X120.01 Y104.815 E.03866
G1 X120.01 Y104.667 E.00562
G1 X121.75 Y102.998 E.09161
G1 X121.75 Y104.819 E.06921
;WIDTH:0.547153
G1 X121.726 Y105.052 E.00978
;WIDTH:0.594306
G1 X121.703 Y105.284 E.0107
;WIDTH:0.641459
G1 X121.679 Y105.516 E.01161
G1 X121.679 Y107.281 E.08787
;WIDTH:0.669075
G1 X121.665 Y107.539 E.01341
;WIDTH:0.706614
G1 X121.647 Y107.833 E.01629
;WIDTH:0.744153
G1 X121.628 Y108.128 E.01722
G1 X121.346 Y108.145 E.01648
;WIDTH:0.709922
G1 X121.064 Y108.162 E.01568
;WIDTH:0.675691
G1 X120.781 Y108.179 E.01487
;WIDTH:0.64146
G1 X99.219 Y108.179 E1.07316
;WIDTH:0.675691
G1 X98.936 Y108.162 E.01487
;WIDTH:0.709922
G1 X98.654 Y108.145 E.01568
;WIDTH:0.744152
G1 X98.372 Y108.128 E.01648
G1 X98.355 Y107.846 E.01648
;WIDTH:0.709922
G1 X98.338 Y107.564 E.01568
;WIDTH:0.675691
G1 X98.321 Y107.281 E.01487
;WIDTH:0.64146
G1 X98.321 Y105.516 E.08787
M73 P3 R19
G1 X98.297 Y105.284 E.01161
;WIDTH:0.594307
G1 X98.274 Y105.052 E.0107
;WIDTH:0.547153
G1 X98.25 Y104.819 E.00978
;WIDTH:0.499999
G1 X98.25 Y102.998 E.06921
G1 X99.99 Y104.667 E.09161
G1 X99.99 Y104.815 E.00562
G1 X99.106 Y105.317 E.03866
;WIDTH:0.547153
G1 X99.043 Y105.384 E.00381
;WIDTH:0.594307
G1 X98.981 Y105.45 E.00416
;WIDTH:0.64146
G1 X98.919 Y105.516 E.00452
G1 X98.919 Y107.281 E.08787
;WIDTH:0.675691
G1 X98.936 Y107.364 E.00444
;WIDTH:0.709922
G1 X98.954 Y107.447 E.00468
;WIDTH:0.744152
G1 X98.971 Y107.529 E.00492
G1 X99.03 Y107.542 E.00356
; stop printing object cableChain_linkCover_v2.stl id:3 copy 0
; printing object cableChain_linkCover_v2.stl id:2 copy 0
G1 E-1.4 F3600
;WIPE_START
G1 F900
G1 X99.136 Y107.564 E-.06465
G1 X99.219 Y107.581 E-.05064
G1 X100.026 Y107.581 E-.48471
;WIPE_END
EXCLUDE_OBJECT_END NAME=cableChain_linkCover_v2.stl_id_3_copy_0
EXCLUDE_OBJECT_START NAME=cableChain_linkCover_v2.stl_id_2_copy_0
G17
G3 Z.6 I-.333 J1.17 P1  F9000
G1 X120.676 Y113.465 Z.6
G1 Z.2
G1 E2 F3600
;TYPE:Inner wall
;WIDTH:0.504838
G1 F900
G1 X121.291 Y112.876 E.03269
G1 X121.291 Y114.008 E.04351
G1 X121.121 Y113.718 E.01291
G1 X120.711 Y113.484 E.01814
G1 E-1.4 F3600
;WIPE_START
G1 F900
G1 X121.291 Y112.876 E-.50439
G1 X121.291 Y113.035 E-.09561
;WIPE_END
G17
G3 Z.6 I-.052 J-1.216 P1  F9000
G1 X98.709 Y114.008 Z.6
G1 Z.2
G1 E2 F3600
;WIDTH:0.504839
G1 F900
G1 X98.709 Y112.876 E.04351
G1 X99.324 Y113.465 E.03269
G1 X98.879 Y113.718 E.01968
G1 X98.73 Y113.974 E.01137
G1 E-1.4 F3600
;WIPE_START
G1 F900
G1 X98.711 Y112.974 E-.6
;WIPE_END
G17
G3 Z.6 I-1.21 J.128 P1  F9000
G1 X99.07 Y116.35 Z.6
G1 Z.2
G1 E2 F3600
;TYPE:Outer wall
;WIDTH:0.709922
G1 F900
G1 X99.136 Y116.364 E.00376
;WIDTH:0.675691
G1 X99.219 Y116.381 E.00444
;WIDTH:0.64146
G1 X120.781 Y116.381 E1.07316
;WIDTH:0.675691
G1 X120.864 Y116.364 E.00444
;WIDTH:0.709922
G1 X120.947 Y116.346 E.00468
;WIDTH:0.744153
G1 X121.029 Y116.329 E.00492
G1 X121.046 Y116.247 E.00492
;WIDTH:0.709922
G1 X121.064 Y116.164 E.00468
;WIDTH:0.675691
G1 X121.081 Y116.081 E.00444
;WIDTH:0.641459
G1 X121.081 Y114.316 E.08787
G1 X121.019 Y114.25 E.00452
;WIDTH:0.594306
G1 X120.957 Y114.183 E.00416
;WIDTH:0.547153
G1 X120.894 Y114.117 E.00381
;WIDTH:0.499999
G1 X120.01 Y113.615 E.03866
G1 X120.01 Y113.467 E.00562
G1 X121.75 Y111.798 E.09161
G1 X121.75 Y113.619 E.06921
;WIDTH:0.547153
G1 X121.726 Y113.852 E.00978
;WIDTH:0.594306
G1 X121.703 Y114.084 E.0107
;WIDTH:0.641459
G1 X121.679 Y114.316 E.01161
G1 X121.679 Y116.081 E.08787
;WIDTH:0.669075
G1 X121.665 Y116.339 E.01341
;WIDTH:0.706614
G1 X121.647 Y116.633 E.01629
;WIDTH:0.744153
G1 X121.628 Y116.928 E.01722
G1 X121.346 Y116.945 E.01648
;WIDTH:0.709922
G1 X121.064 Y116.962 E.01568
;WIDTH:0.675691
G1 X120.781 Y116.979 E.01487
;WIDTH:0.64146
G1 X99.219 Y116.979 E1.07316
;WIDTH:0.675691
G1 X98.936 Y116.962 E.01487
;WIDTH:0.709922
G1 X98.654 Y116.945 E.01568
;WIDTH:0.744152
G1 X98.372 Y116.928 E.01648
G1 X98.355 Y116.646 E.01648
;WIDTH:0.709922
G1 X98.338 Y116.364 E.01568
;WIDTH:0.675691
G1 X98.321 Y116.081 E.01487
;WIDTH:0.64146
G1 X98.321 Y114.316 E.08787
G1 X98.297 Y114.084 E.01161
;WIDTH:0.594307
G1 X98.274 Y113.852 E.0107
;WIDTH:0.547153
G1 X98.25 Y113.619 E.00978
;WIDTH:0.499999
G1 X98.25 Y111.798 E.06921
G1 X99.99 Y113.467 E.09161
G1 X99.99 Y113.615 E.00562
G1 X99.106 Y114.117 E.03866
;WIDTH:0.547153
G1 X99.043 Y114.183 E.00381
;WIDTH:0.594307
G1 X98.981 Y114.25 E.00416
;WIDTH:0.64146
G1 X98.919 Y114.316 E.00452
G1 X98.919 Y116.081 E.08787
;WIDTH:0.675691
G1 X98.936 Y116.164 E.00444
;WIDTH:0.709922
G1 X98.954 Y116.247 E.00468
;WIDTH:0.744152
G1 X98.971 Y116.329 E.00492
G1 X99.03 Y116.342 E.00356
; stop printing object cableChain_linkCover_v2.stl id:2 copy 0
; printing object cableChain_linkCover_v2.stl id:1 copy 0
G1 E-1.4 F3600
;WIPE_START
G1 F900
G1 X99.136 Y116.364 E-.06465
G1 X99.219 Y116.381 E-.05064
G1 X100.026 Y116.381 E-.48471
;WIPE_END
EXCLUDE_OBJECT_END NAME=cableChain_linkCover_v2.stl_id_2_copy_0
EXCLUDE_OBJECT_START NAME=cableChain_linkCover_v2.stl_id_1_copy_0
G17
G3 Z.6 I-.333 J1.17 P1  F9000
G1 X120.676 Y122.265 Z.6
M73 P3 R18
G1 Z.2
G1 E2 F3600
;TYPE:Inner wall
;WIDTH:0.504838
G1 F900
