; HEADER_BLOCK_START
; generated by OrcaSlicer 1.7.0 on 2023-11-11 at 15:17:28
; total layer number: 70
; HEADER_BLOCK_END

; THUMBNAIL_BLOCK_START
; THUMBNAIL_BLOCK_END

; external perimeters extrusion width = 0.40mm
; perimeters extrusion width = 0.45mm
; infill extrusion width = 0.45mm
; solid infill extrusion width = 0.40mm
; top infill extrusion width = 0.40mm
; first layer extrusion width = 0.50mm

; external perimeters extrusion width = 0.40mm
; perimeters extrusion width = 0.45mm
; infill extrusion width = 0.45mm
; solid infill extrusion width = 0.40mm
; top infill extrusion width = 0.40mm
; first layer extrusion width = 0.50mm

; external perimeters extrusion width = 0.40mm
; perimeters extrusion width = 0.45mm
; infill extrusion width = 0.45mm
; solid infill extrusion width = 0.40mm
; top infill extrusion width = 0.40mm
; first layer extrusion width = 0.50mm

; external perimeters extrusion width = 0.40mm
; perimeters extrusion width = 0.45mm
; infill extrusion width = 0.45mm
; solid infill extrusion width = 0.40mm
; top infill extrusion width = 0.40mm
; first layer extrusion width = 0.50mm

; external perimeters extrusion width = 0.40mm
; perimeters extrusion width = 0.45mm
; infill extrusion width = 0.45mm
; solid infill extrusion width = 0.40mm
; top infill extrusion width = 0.40mm
; first layer extrusion width = 0.50mm

; EXECUTABLE_BLOCK_START
EXCLUDE_OBJECT_DEFINE NAME=cableChain_link_v3.stl_id_0_copy_0 CENTER=184.512,161.846 POLYGON=[[172.512,152.849],[174.352,147.846],[194.672,147.846],[196.512,152.849],[196.512,175.546],[196.214,175.846],[172.811,175.846],[172.512,175.546],[172.512,152.849]]
EXCLUDE_OBJECT_DEFINE NAME=cableChain_link_v3.stl_id_1_copy_0 CENTER=150.512,161.846 POLYGON=[[138.512,152.849],[140.352,147.846],[160.672,147.846],[162.512,152.849],[162.512,175.546],[162.214,175.846],[138.811,175.846],[138.512,175.546],[138.512,152.849]]
EXCLUDE_OBJECT_DEFINE NAME=cableChain_link_v3.stl_id_2_copy_0 CENTER=184.512,123.846 POLYGON=[[172.512,114.849],[174.352,109.846],[194.672,109.846],[196.512,114.849],[196.512,137.546],[196.214,137.846],[172.811,137.846],[172.512,137.546],[172.512,114.849]]
EXCLUDE_OBJECT_DEFINE NAME=Ender_3_Cable_Chain_Link_v2_id_3_copy_0 CENTER=110.037,95.4011 POLYGON=[[23.5618,94.0382],[110.574,81.6519],[130.894,81.6519],[196.513,93.9743],[196.513,94.0382],[133.234,109.15],[108.234,109.15],[23.5618,94.0382]]
EXCLUDE_OBJECT_DEFINE NAME=Ender_3_Cable_Chain_Link_v2_id_4_copy_0 CENTER=110.037,57.9028 POLYGON=[[23.5618,56.5399],[110.574,44.1537],[130.894,44.1537],[196.513,56.476],[196.513,56.5399],[133.234,71.6519],[108.234,71.6519],[23.5618,56.5399]]
M73 P0 R79
;TYPE:Custom
START_PRINT EXTRUDER_TEMP=245  BED_TEMP=80
G90
G21
M83 ; use relative distances for extrusion
; filament start gcode
M106 S0
;LAYER_CHANGE
;Z:0.2
;HEIGHT:0.2
;BEFORE_LAYER_CHANGE
;0.2
G92 E0

G1 E-4 F1800
;_SET_FAN_SPEED_CHANGING_LAYER
G1 Z.4 F12000
G1 X98.667 Y44.511
G1 Z.4
G1 Z.2
G1 E4 F1800
;TYPE:Skirt
;WIDTH:0.5
G1 F900
G1 X99.705 Y42.209 E.09594
G1 X101.695 Y39.721 E.12111
G1 X104.24 Y37.804 E.12111
G1 X107.181 Y36.578 E.12111
G1 X110.574 Y36.118 E.1301
G1 X130.894 Y36.118 E.77229
G1 X134.055 Y36.516 E.12111
G1 X137.019 Y37.687 E.12111
G1 X140.055 Y40.004 E.14514
G1 X203.834 Y105.974 E3.48745
G1 X206.207 Y109.417 E.15893
G1 X207.849 Y112.914 E.14682
G1 X208.832 Y115.945 E.12111
G1 X209.056 Y118.328 E.09098
G1 X209.056 Y169.841 E1.95783
G1 X208.996 Y171.084 E.0473
G1 X208.896 Y172.105 E.03896
G1 X208.191 Y175.212 E.12111
G1 X206.737 Y178.048 E.12111
G1 X204.625 Y180.434 E.12111
G1 X201.987 Y182.221 E.12111
G1 X198.988 Y183.299 E.12111
G1 X196.214 Y183.604 E.10607
G1 X138.811 Y183.604 E2.18168
G1 X135.649 Y183.206 E.12111
G1 X132.686 Y182.035 E.12111
G1 X130.105 Y180.166 E.12111
G1 X128.069 Y177.715 E.12111
G1 X127.2 Y176.112 E.06931
G1 X96.623 Y108.485 E2.82074
G1 X95.683 Y105.441 E.12111
G1 X95.491 Y103.236 E.08412
G1 X95.491 Y56.468 E1.77748
G1 X96.054 Y52.721 E.14399
G1 X98.394 Y45.114 E.30249
M73 P0 R78
G1 X98.65 Y44.547 E.02364
G1 X99.064 Y44.735 F12000
G1 F900
G1 X100.124 Y42.4 E.09748
G1 X102.095 Y39.97 E.11891
G1 X104.616 Y38.116 E.11891
G1 X107.523 Y36.96 E.11891
G1 X110.574 Y36.575 E.11687
G1 X130.894 Y36.575 E.77229
G1 X133.997 Y36.974 E.11891
G1 X136.899 Y38.143 E.11891
G1 X139.726 Y40.321 E.13566
G1 X203.505 Y106.292 E3.48745
G1 X205.794 Y109.611 E.15323
G1 X207.435 Y113.108 E.14682
G1 X208.393 Y116.086 E.11891
G1 X208.599 Y118.328 E.08556
G1 X208.599 Y169.841 E1.95783
G1 X208.541 Y171.04 E.0456
G1 X208.441 Y172.06 E.03896
G1 X207.742 Y175.11 E.11891
G1 X206.295 Y177.884 E.11891
G1 X204.194 Y180.202 E.11891
G1 X201.576 Y181.915 E.11891
G1 X198.61 Y182.911 E.11891
G1 X196.214 Y183.147 E.09152
G1 X138.811 Y183.147 E2.18168
M73 P1 R78
G1 X135.708 Y182.749 E.11891
G1 X132.806 Y181.579 E.11891
G1 X130.293 Y179.715 E.11891
G1 X127.617 Y175.923 E.1764
G1 X97.039 Y108.297 E2.82074
G1 X96.124 Y105.305 E.11891
G1 X95.948 Y103.236 E.07895
G1 X95.948 Y56.468 E1.77748
G1 X96.491 Y52.856 E.13882
G1 X98.831 Y45.248 E.30249
G1 X99.048 Y44.771 E.01991
G1 X99.461 Y44.96 F12000
G1 F900
G1 X100.544 Y42.591 E.09901
G1 X102.495 Y40.221 E.11667
G1 X104.99 Y38.433 E.11667
G1 X107.861 Y37.347 E.11667
G1 X110.574 Y37.032 E.10378
G1 X130.894 Y37.032 E.77229
G1 X133.937 Y37.431 E.11667
G1 X136.776 Y38.599 E.11667
G1 X139.398 Y40.639 E.12626
G1 X203.176 Y106.61 E3.48745
G1 X205.38 Y109.805 E.14752
G1 X207.021 Y113.302 E.14682
G1 X207.954 Y116.227 E.11667
G1 X208.142 Y118.328 E.08019
G1 X208.142 Y169.841 E1.95783
G1 X208.086 Y170.995 E.04391
G1 X207.986 Y172.015 E.03896
G1 X207.293 Y175.006 E.11667
G1 X205.853 Y177.717 E.11667
G1 X203.764 Y179.967 E.11667
G1 X201.167 Y181.603 E.11667
G1 X198.237 Y182.516 E.11667
G1 X196.214 Y182.69 E.07716
G1 X138.811 Y182.69 E2.18168
G1 X135.767 Y182.292 E.11667
G1 X132.929 Y181.124 E.11667
G1 X130.486 Y179.264 E.11667
G1 X128.033 Y175.735 E.16336
G1 X97.456 Y108.109 E2.82074
G1 X96.565 Y105.171 E.11667
G1 X96.405 Y103.236 E.07382
G1 X96.405 Y56.468 E1.77748
G1 X96.928 Y52.99 E.13366
G1 X99.268 Y45.383 E.30249
G1 X99.445 Y44.997 E.01614
G1 X99.857 Y45.186 F12000
G1 F900
G1 X100.963 Y42.783 E.10054
G1 X102.894 Y40.475 E.11438
G1 X105.362 Y38.754 E.11438
G1 X108.196 Y37.741 E.11438
G1 X110.574 Y37.489 E.09086
G1 X130.894 Y37.489 E.77229
G1 X133.877 Y37.888 E.11438
M73 P1 R77
G1 X136.651 Y39.054 E.11438
G1 X139.069 Y40.957 E.11694
G1 X202.848 Y106.927 E3.48745
M73 P2 R77
G1 X204.966 Y109.999 E.14182
G1 X206.608 Y113.496 E.14682
G1 X207.515 Y116.366 E.11438
G1 X207.685 Y118.328 E.07486
G1 X207.685 Y169.841 E1.95783
G1 X207.631 Y170.951 E.04221
G1 X207.531 Y171.971 E.03896
G1 X206.844 Y174.901 E.11438
G1 X205.412 Y177.548 E.11438
G1 X203.336 Y179.727 E.11438
G1 X200.761 Y181.284 E.11438
G1 X197.867 Y182.112 E.11438
G1 X196.214 Y182.233 E.063
G1 X138.811 Y182.233 E2.18168
G1 X135.828 Y181.835 E.11438
G1 X133.054 Y180.668 E.11438
G1 X130.683 Y178.814 E.11438
G1 X128.45 Y175.547 E.15043
G1 X97.872 Y107.921 E2.82074
G1 X97.006 Y105.038 E.11438
G1 X96.862 Y103.236 E.06873
G1 X96.862 Y56.468 E1.77748
G1 X97.365 Y53.124 E.12849
G1 X99.705 Y45.517 E.30249
G1 X99.84 Y45.223 E.01232
G1 X100.252 Y45.414 F12000
G1 F900
G1 X101.381 Y42.977 E.10208
G1 X103.291 Y40.731 E.11205
G1 X105.733 Y39.079 E.11205
G1 X108.527 Y38.14 E.11205
G1 X110.574 Y37.946 E.07811
G1 X130.894 Y37.946 E.77229
G1 X133.815 Y38.345 E.11205
G1 X136.523 Y39.51 E.11205
G1 X138.74 Y41.274 E.10771
G1 X202.519 Y107.245 E3.48745
G1 X204.552 Y110.194 E.13612
G1 X206.194 Y113.691 E.14682
G1 X207.075 Y116.504 E.11205
G1 X207.228 Y118.328 E.06957
G1 X207.228 Y169.841 E1.95783
G1 X207.176 Y170.906 E.04051
G1 X207.076 Y171.926 E.03896
G1 X206.395 Y174.795 E.11205
G1 X204.971 Y177.376 E.11205
G1 X202.908 Y179.482 E.11205
G1 X200.356 Y180.959 E.11205
G1 X196.214 Y181.776 E.16047
G1 X138.811 Y181.776 E2.18168
G1 X135.89 Y181.378 E.11205
G1 X133.182 Y180.212 E.11205
G1 X130.885 Y178.364 E.11205
G1 X128.866 Y175.358 E.13762
G1 X98.289 Y107.732 E2.82074
G1 X97.448 Y104.907 E.11205
G1 X97.319 Y103.236 E.06369
G1 X97.319 Y56.468 E1.77748
M73 P3 R77
G1 X97.802 Y53.259 E.12333
G1 X100.142 Y45.652 E.30249
G1 X100.235 Y45.45 E.00845
G1 X100.646 Y45.642 F12000
G1 F900
G1 X101.799 Y43.172 E.10361
G1 X103.688 Y40.99 E.10966
G1 X106.101 Y39.408 E.10966
G1 X108.855 Y38.546 E.10966
G1 X110.574 Y38.403 E.06555
G1 X130.894 Y38.403 E.77229
G1 X133.751 Y38.802 E.10966
G1 X136.392 Y39.965 E.10966
G1 X138.412 Y41.592 E.09857
G1 X202.191 Y107.563 E3.48745
M73 P3 R76
G1 X204.139 Y110.388 E.13042
G1 X205.78 Y113.885 E.14682
G1 X206.634 Y116.641 E.10966
G1 X206.771 Y118.328 E.06433
G1 X206.721 Y170.861 E1.9966
G1 X206.621 Y171.882 E.03896
G1 X205.946 Y174.687 E.10966
G1 X204.53 Y177.201 E.10966
G1 X202.481 Y179.233 E.10966
G1 X199.955 Y180.627 E.10966
G1 X196.214 Y181.319 E.14459
G1 X138.811 Y181.319 E2.18168
G1 X135.953 Y180.921 E.10966
G1 X133.313 Y179.757 E.10966
G1 X131.091 Y177.915 E.10966
G1 X129.283 Y175.17 E.12496
G1 X98.705 Y107.544 E2.82074
G1 X97.891 Y104.776 E.10966
G1 X97.777 Y103.236 E.0587
G1 X97.777 Y56.468 E1.77748
G1 X98.239 Y53.393 E.11816
G1 X100.579 Y45.786 E.30249
G1 X100.629 Y45.678 E.00453
; printing object cableChain_link_v3.stl id:2 copy 0
G1 E-2.8 F1800
;WIPE_START
G1 F900
G1 X101.052 Y44.772 E-1.2
;WIPE_END
EXCLUDE_OBJECT_START NAME=cableChain_link_v3.stl_id_2_copy_0
G1 Z.6 F12000
G1 X194.477 Y119.458 Z.6
G1 Z.2
G1 E4 F1800
;TYPE:Inner wall
;WIDTH:0.499999
G1 F900
G1 X194.651 Y119.492 E.00676
G1 X195.15 Y119.492 E.01896
G1 X195.15 Y119.991 E.01896
G1 X195.15 Y127.119 E.2709
G1 X194.894 Y127.033 E.01025
G1 X174.131 Y127.033 E.78912
G1 X173.875 Y127.119 E.01025
G1 X173.875 Y119.492 E.28985
G1 X174.374 Y119.492 E.01896
G1 X174.805 Y119.408 E.01668
G1 X175.05 Y119.271 E.01067
G1 X175.286 Y119.038 E.01261
G1 X175.47 Y118.672 E.01559
G1 X175.517 Y118.35 E.01237
G1 X175.517 Y116.903 E.05496
G1 X175.971 Y117.055 E.0182
G1 X193.054 Y117.055 E.64926
G1 X193.508 Y116.903 E.0182
G1 X193.508 Y118.35 E.05496
G1 X193.555 Y118.672 E.01237
G1 X193.644 Y118.89 E.00898
G1 X193.832 Y119.147 E.0121
G1 X194.22 Y119.408 E.01777
G1 X194.437 Y119.45 E.00841
G1 X194.564 Y119.018 F12000
G1 F900
G1 X194.651 Y119.035 E.00338
G1 X195.607 Y119.035 E.03633
G1 X195.607 Y119.991 E.03633
G1 X195.607 Y127.477 E.28451
;WIDTH:0.527314
G1 X195.593 Y128.176 E.02817
G1 X195.305 Y127.628 E.02495
;WIDTH:0.499999
G1 X194.894 Y127.49 E.01648
G1 X174.131 Y127.49 E.78912
G1 X173.72 Y127.628 E.01648
;WIDTH:0.527314
G1 X173.432 Y128.176 E.02495
G1 X173.418 Y127.477 E.02817
;WIDTH:0.499999
G1 X173.418 Y119.035 E.32084
G1 X174.374 Y119.035 E.03633
G1 X174.632 Y118.985 E.01001
G1 X174.779 Y118.902 E.0064
G1 X174.978 Y118.674 E.01151
G1 X175.06 Y118.35 E.01271
G1 X175.06 Y116.711 E.06228
G1 X175.041 Y116.491 E.00838
;WIDTH:0.463477
G1 X175.023 Y116.271 E.00771
;WIDTH:0.426954
G1 X175.005 Y116.051 E.00704
;WIDTH:0.390431
G1 X175.002 Y115.48 E.0165
;WIDTH:0.38438
G1 X175.343 Y115.48 E.00969
;WIDTH:0.390431
G1 X175.35 Y116.021 E.01563
;WIDTH:0.426954
G1 X175.42 Y116.168 E.00518
;WIDTH:0.463477
G1 X175.49 Y116.314 E.00568
;WIDTH:0.499999
G1 X175.56 Y116.461 E.00617
G1 X175.971 Y116.598 E.01648
G1 X193.054 Y116.598 E.64926
G1 X193.465 Y116.461 E.01648
G1 X193.535 Y116.314 E.00617
;WIDTH:0.463476
G1 X193.605 Y116.168 E.00568
;WIDTH:0.426953
G1 X193.675 Y116.021 E.00518
;WIDTH:0.390429
G1 X193.682 Y115.48 E.01563
;WIDTH:0.384379
G1 X194.023 Y115.48 E.00969
;WIDTH:0.390429
G1 X194.02 Y116.051 E.0165
;WIDTH:0.426953
G1 X194.002 Y116.271 E.00704
;WIDTH:0.463476
G1 X193.984 Y116.491 E.00771
;WIDTH:0.499999
G1 X193.965 Y116.711 E.00838
G1 X193.965 Y117.509 E.03035
G1 X193.993 Y118.543 E.03929
G1 X194.16 Y118.828 E.01255
G1 X194.393 Y118.985 E.01066
G1 X194.525 Y119.01 E.00511
G1 X194.651 Y118.578 F12000
;TYPE:Outer wall
G1 F900
G1 X196.064 Y118.578 E.0537
G1 X196.064 Y119.991 E.0537
G1 X196.064 Y131.829 E.44993
G1 X195.987 Y132.612 E.02988
G1 X195.122 Y132.612 E.03287
G1 X195.122 Y128.176 E.16858
G1 X195.031 Y127.993 E.00777
G1 X194.894 Y127.948 E.00549
G1 X174.131 Y127.948 E.78912
G1 X173.994 Y127.993 E.00549
G1 X173.902 Y128.176 E.00777
G1 X173.902 Y132.612 E.16858
G1 X173.038 Y132.612 E.03287
G1 X172.961 Y131.829 E.02988
G1 X172.961 Y118.578 E.50363
G1 X174.374 Y118.578 E.0537
G1 X174.538 Y118.509 E.00675
G1 X174.602 Y118.35 E.00654
G1 X174.602 Y115.081 E.12422
G1 X175.742 Y115.081 E.04333
G1 X175.742 Y115.912 E.03159
G1 X175.834 Y116.095 E.00777
G1 X175.971 Y116.141 E.00549
G1 X193.054 Y116.141 E.64926
G1 X193.191 Y116.095 E.00549
G1 X193.283 Y115.912 E.00777
G1 X193.283 Y115.081 E.03159
G1 X194.422 Y115.081 E.04333
G1 X194.422 Y118.35 E.12422
G1 X194.487 Y118.509 E.00654
G1 X194.614 Y118.563 E.00523
G1 E-4 F1800
G1 Z.6 F12000
G1 X195.576 Y132.158 Z.6
G1 Z.2
G1 E4 F1800
;TYPE:Inner wall
;WIDTH:0.527314
G1 F900
G1 X195.593 Y131.806 E.01419
G1 X195.593 Y128.176 E.14621
G1 E-2.8 F1800
;WIPE_START
G1 F900
G1 X195.593 Y129.176 E-1.2
;WIPE_END
G1 Z.6 F12000
G1 X194.908 Y128.162 Z.6
G1 X194.041 Y127.744
G1 X193.552 Y127.512
G1 X175.473 Y127.512
M73 P4 R76
G1 X174.984 Y127.744
G1 X174.117 Y128.162
G1 X173.449 Y132.158
G1 Z.2
G1 E4 F1800
G1 F900
G1 X173.432 Y131.806 E.01419
G1 X173.432 Y128.176 E.14621
G1 E-4 F1800
G1 Z.6 F12000
G1 X193.257 Y118.047 Z.6
G1 Z.2
G1 E4 F1800
;TYPE:Bottom surface
;WIDTH:0.5
G1 F1200
G1 X192.517 Y117.306 E.03979
G1 X191.87 Y117.306
G1 X193.318 Y118.754 E.07783
G1 X194.224 Y119.661
G1 X194.898 Y120.335 E.03623
G1 X194.898 Y120.981
G1 X191.224 Y117.306 E.19751
G1 X190.577 Y117.306
G1 X194.898 Y121.627 E.23225
G1 X194.898 Y122.274
G1 X189.931 Y117.306 E.267
G1 X189.285 Y117.306
G1 X194.898 Y122.92 E.30174
G1 X194.898 Y123.567
G1 X188.638 Y117.306 E.33648
G1 X187.992 Y117.306
G1 X194.898 Y124.213 E.37123
G1 X194.898 Y124.859
G1 X187.345 Y117.306 E.40597
G1 X186.699 Y117.306
G1 X194.898 Y125.506 E.44072
G1 X194.898 Y126.152
G1 X186.053 Y117.306 E.47546
G1 X185.406 Y117.306
G1 X194.891 Y126.791 E.5098
G1 X194.244 Y126.791
G1 X184.76 Y117.306 E.5098
G1 X184.113 Y117.306
G1 X193.598 Y126.791 E.5098
G1 X192.952 Y126.791
G1 X183.467 Y117.306 E.5098
G1 X182.82 Y117.306
G1 X192.305 Y126.791 E.5098
G1 X191.659 Y126.791
G1 X182.174 Y117.306 E.5098
G1 X181.528 Y117.306
G1 X191.012 Y126.791 E.5098
G1 X190.366 Y126.791
G1 X180.881 Y117.306 E.5098
G1 X180.235 Y117.306
G1 X189.72 Y126.791 E.5098
G1 X189.073 Y126.791
G1 X179.588 Y117.306 E.5098
G1 X178.942 Y117.306
G1 X188.427 Y126.791 E.5098
G1 X187.78 Y126.791
G1 X178.296 Y117.306 E.5098
G1 X177.649 Y117.306
G1 X187.134 Y126.791 E.5098
G1 X186.488 Y126.791
G1 X177.003 Y117.306 E.5098
G1 X176.356 Y117.306
G1 X185.841 Y126.791 E.5098
G1 X185.195 Y126.791
G1 X175.768 Y117.364 E.50668
G1 X175.768 Y118.011
G1 X184.548 Y126.791 E.47193
G1 X183.902 Y126.791
G1 X175.73 Y118.619 E.43926
M73 P4 R75
G1 X175.552 Y119.088
G1 X183.256 Y126.791 E.41406
G1 X182.609 Y126.791
G1 X175.248 Y119.43 E.39563
G1 X174.827 Y119.655
G1 X181.963 Y126.791 E.38354
G1 X181.316 Y126.791
G1 X174.269 Y119.744 E.3788
G1 X174.127 Y120.248
G1 X180.67 Y126.791 E.3517
G1 X180.024 Y126.791
G1 X174.127 Y120.894 E.31695
G1 X174.127 Y121.541
G1 X179.377 Y126.791 E.28221
G1 X178.731 Y126.791
G1 X174.127 Y122.187 E.24747
G1 X174.127 Y122.833
G1 X178.084 Y126.791 E.21272
G1 X177.438 Y126.791
G1 X174.127 Y123.48 E.17798
G1 X174.127 Y124.126
G1 X176.791 Y126.791 E.14324
G1 X176.145 Y126.791
G1 X174.127 Y124.773 E.10849
G1 X174.127 Y125.419
G1 X175.499 Y126.791 E.07375
G1 X174.852 Y126.791
G1 X174.127 Y126.065 E.039
; stop printing object cableChain_link_v3.stl id:2 copy 0
; printing object cableChain_link_v3.stl id:0 copy 0
G1 E-2.8 F1800
;WIPE_START
G1 F1200
G1 X174.834 Y126.773 E-1.2
;WIPE_END
EXCLUDE_OBJECT_END NAME=cableChain_link_v3.stl_id_2_copy_0
EXCLUDE_OBJECT_START NAME=cableChain_link_v3.stl_id_0_copy_0
G1 Z.6 F12000
G1 X194.477 Y157.458 Z.6
G1 Z.2
G1 E4 F1800
;TYPE:Inner wall
;WIDTH:0.499999
G1 F900
G1 X194.651 Y157.492 E.00676
G1 X195.15 Y157.492 E.01896
G1 X195.15 Y157.991 E.01896
G1 X195.15 Y165.119 E.2709
G1 X194.894 Y165.033 E.01025
