; HEADER_BLOCK_START
; generated by OrcaSlicer 1.7.0 on 2023-11-19 at 10:41:02
; total layer number: 60
; HEADER_BLOCK_END

; THUMBNAIL_BLOCK_START
; THUMBNAIL_BLOCK_END

; external perimeters extrusion width = 0.40mm
; perimeters extrusion width = 0.45mm
; infill extrusion width = 0.45mm
; solid infill extrusion width = 0.40mm
; top infill extrusion width = 0.40mm
; first layer extrusion width = 0.50mm

; external perimeters extrusion width = 0.40mm
; perimeters extrusion width = 0.45mm
; infill extrusion width = 0.45mm
; solid infill extrusion width = 0.40mm
; top infill extrusion width = 0.40mm
; first layer extrusion width = 0.50mm

; EXECUTABLE_BLOCK_START
EXCLUDE_OBJECT_DEFINE NAME=cableChain_link_v3.stl_id_0_copy_0 CENTER=124.5,110 POLYGON=[[112.5,101.003],[114.34,96],[134.66,96],[136.5,101.003],[136.5,123.7],[136.201,124],[112.799,124],[112.5,123.7],[112.5,101.003]]
EXCLUDE_OBJECT_DEFINE NAME=cableChain_link_v3.stl_id_1_copy_0 CENTER=95.5,110 POLYGON=[[83.5,101.003],[85.34,96],[105.66,96],[107.5,101.003],[107.5,123.7],[107.201,124],[83.7985,124],[83.5,123.7],[83.5,101.003]]
M73 P0 R36
;TYPE:Custom
START_PRINT EXTRUDER_TEMP=255  BED_TEMP=80
G90
G21
M83 ; use relative distances for extrusion
; filament start gcode
M106 S0
;LAYER_CHANGE
;Z:0.2
;HEIGHT:0.2
;BEFORE_LAYER_CHANGE
;0.2
G92 E0

G1 E-6 F3600
;_SET_FAN_SPEED_CHANGING_LAYER
SET_VELOCITY_LIMIT SQUARE_CORNER_VELOCITY=8
G1 X77.828 Y90.692 F12000
G1 Z.4
G1 Z.2
G1 E6 F3600
;TYPE:Skirt
;WIDTH:0.5
G1 F900
G1 X80.616 Y89.15 E.11505
G1 X83.7 Y88.348 E.11505
G1 X85.34 Y88.242 E.05932
G1 X134.66 Y88.242 E1.78075
G1 X137.822 Y88.641 E.11505
G1 X140.785 Y89.811 E.11505
G1 X143.366 Y91.68 E.11505
G1 X145.402 Y94.131 E.11505
G1 X146.195 Y95.57 E.05932
G1 X147.836 Y99.067 E.13948
G1 X148.819 Y102.099 E.11505
G1 X149.044 Y104.482 E.08643
G1 X149.044 Y117.995 E.48791
G1 X148.883 Y120.258 E.08192
G1 X148.178 Y123.366 E.11505
G1 X146.724 Y126.201 E.11505
G1 X144.612 Y128.588 E.11505
G1 X141.974 Y130.375 E.11505
G1 X138.975 Y131.452 E.11505
G1 X136.201 Y131.758 E.10076
G1 X83.799 Y131.758 E1.89206
M73 P0 R35
G1 X80.637 Y131.359 E.11505
G1 X77.673 Y130.189 E.11505
G1 X75.092 Y128.32 E.11505
G1 X73.056 Y125.869 E.11505
G1 X71.692 Y122.989 E.11505
G1 X71.117 Y120.258 E.10076
G1 X71.017 Y119.238 E.03701
G1 X70.956 Y117.995 E.04493
G1 X70.956 Y104.482 E.48791
G1 X71.354 Y101.32 E.11505
G1 X72.164 Y99.067 E.08643
G1 X73.805 Y95.57 E.13948
G1 X75.509 Y92.878 E.11505
G1 X77.799 Y90.719 E.11361
G1 X78.117 Y91.062 F12000
G1 F900
G1 X78.189 Y90.995 E.00357
G1 X80.945 Y89.512 E.11296
G1 X85.34 Y88.699 E.16139
G1 X134.66 Y88.699 E1.78075
G1 X137.763 Y89.098 E.11296
G1 X140.665 Y90.267 E.11296
G1 X143.178 Y92.131 E.11296
G1 X145.781 Y95.765 E.16139
G1 X147.423 Y99.262 E.13948
G1 X148.381 Y102.24 E.11296
G1 X148.587 Y104.482 E.08128
G1 X148.587 Y117.995 E.48791
M73 P1 R35
G1 X148.428 Y120.214 E.08031
G1 X147.729 Y123.263 E.11296
G1 X146.282 Y126.037 E.11296
G1 X144.182 Y128.356 E.11296
G1 X141.564 Y130.069 E.11296
G1 X138.598 Y131.065 E.11296
G1 X136.201 Y131.301 E.08694
G1 X83.799 Y131.301 E1.89206
G1 X80.695 Y130.902 E.11296
G1 X77.793 Y129.733 E.11296
G1 X75.281 Y127.869 E.11296
G1 X73.321 Y125.43 E.11296
G1 X72.04 Y122.576 E.11296
G1 X71.572 Y120.214 E.08694
G1 X71.472 Y119.194 E.03701
G1 X71.413 Y117.995 E.04332
G1 X71.413 Y104.482 E.48791
G1 X71.811 Y101.379 E.11296
G1 X72.577 Y99.262 E.08128
G1 X74.219 Y95.765 E.13948
G1 X75.898 Y93.125 E.11296
G1 X78.088 Y91.089 E.10795
G1 X78.403 Y91.434 F12000
G1 F900
G1 X78.55 Y91.299 E.00718
G1 X81.271 Y89.878 E.11083
G1 X85.34 Y89.156 E.14921
G1 X134.66 Y89.156 E1.78075
G1 X137.704 Y89.555 E.11083
G1 X140.542 Y90.723 E.11083
G1 X142.985 Y92.582 E.11083
G1 X145.367 Y95.959 E.14921
G1 X147.009 Y99.456 E.13948
G1 X147.942 Y102.38 E.11083
G1 X148.13 Y104.482 E.07618
G1 X148.13 Y117.995 E.48791
G1 X147.973 Y120.169 E.0787
G1 X147.28 Y123.159 E.11083
G1 X145.841 Y125.871 E.11083
G1 X143.752 Y128.12 E.11083
G1 X141.155 Y129.757 E.11083
G1 X138.224 Y130.669 E.11083
G1 X136.201 Y130.844 E.0733
G1 X83.799 Y130.844 E1.89206
G1 X80.755 Y130.445 E.11083
G1 X77.916 Y129.277 E.11083
G1 X75.474 Y127.418 E.11083
G1 X73.592 Y124.993 E.11083
G1 X72.397 Y122.165 E.11083
G1 X72.027 Y120.169 E.0733
G1 X71.927 Y119.149 E.03701
G1 X71.87 Y117.995 E.04171
G1 X71.87 Y104.482 E.48791
M73 P2 R35
G1 X72.269 Y101.438 E.11083
G1 X72.991 Y99.456 E.07618
G1 X74.633 Y95.959 E.13948
G1 X76.286 Y93.373 E.11083
G1 X78.374 Y91.461 E.10221
G1 X78.686 Y91.807 F12000
G1 F900
G1 X78.909 Y91.606 E.01083
G1 X81.595 Y90.248 E.10866
G1 X85.34 Y89.613 E.13715
G1 X134.66 Y89.613 E1.78075
G1 X137.643 Y90.012 E.10866
G1 X140.417 Y91.179 E.10866
G1 X142.788 Y93.032 E.10866
G1 X144.954 Y96.153 E.13715
G1 X146.595 Y99.65 E.13948
G1 X147.502 Y102.52 E.10866
G1 X147.673 Y104.482 E.07111
G1 X147.673 Y117.995 E.48791
G1 X147.518 Y120.125 E.07709
G1 X146.831 Y123.055 E.10866
G1 X145.399 Y125.702 E.10866
G1 X143.323 Y127.88 E.10866
G1 X140.748 Y129.438 E.10866
G1 X137.855 Y130.266 E.10866
G1 X136.201 Y130.387 E.05985
G1 X83.799 Y130.387 E1.89206
G1 X80.816 Y129.988 E.10866
G1 X78.041 Y128.821 E.10866
G1 X75.671 Y126.968 E.10866
G1 X73.869 Y124.557 E.10866
G1 X72.763 Y121.758 E.10866
G1 X72.382 Y119.104 E.09681
G1 X72.327 Y117.995 E.0401
G1 X72.327 Y104.482 E.48791
G1 X72.726 Y101.499 E.10866
G1 X73.405 Y99.65 E.07111
G1 X75.046 Y96.153 E.13948
G1 X76.674 Y93.622 E.10866
G1 X78.657 Y91.834 E.09638
G1 X78.966 Y92.183 F12000
G1 F900
G1 X79.267 Y91.916 E.01453
G1 X81.916 Y90.621 E.10644
G1 X85.34 Y90.071 E.12521
G1 X134.66 Y90.071 E1.78075
G1 X137.581 Y90.469 E.10644
G1 X140.289 Y91.634 E.10644
G1 X142.586 Y93.482 E.10644
G1 X144.54 Y96.347 E.12521
G1 X146.181 Y99.844 E.13948
G1 X147.062 Y102.658 E.10644
G1 X147.216 Y104.482 E.06609
G1 X147.216 Y117.995 E.48791
G1 X147.064 Y120.08 E.07548
G1 X146.382 Y122.948 E.10644
G1 X144.958 Y125.53 E.10644
M73 P3 R35
G1 X142.895 Y127.636 E.10644
G1 X140.344 Y129.113 E.10644
G1 X136.201 Y129.929 E.15245
G1 X83.799 Y129.929 E1.89206
G1 X80.877 Y129.531 E.10644
G1 X78.169 Y128.366 E.10644
G1 X75.872 Y126.518 E.10644
G1 X74.153 Y124.123 E.10644
G1 X72.936 Y120.08 E.15245
G1 X72.784 Y117.995 E.07548
G1 X72.784 Y104.482 E.48791
M73 P3 R34
G1 X73.183 Y101.561 E.10644
G1 X73.819 Y99.844 E.06609
G1 X75.46 Y96.347 E.13948
G1 X77.062 Y93.872 E.10644
G1 X78.936 Y92.21 E.09047
G1 X79.242 Y92.561 F12000
G1 F900
G1 X79.624 Y92.228 E.01828
G1 X82.235 Y90.999 E.10418
G1 X85.34 Y90.528 E.1134
G1 X134.66 Y90.528 E1.78075
G1 X137.518 Y90.926 E.10418
G1 X140.158 Y92.09 E.10418
G1 X142.38 Y93.931 E.10418
G1 X144.126 Y96.541 E.1134
G1 X145.768 Y100.038 E.13948
G1 X146.622 Y102.795 E.10418
G1 X146.759 Y104.482 E.06112
G1 X146.759 Y117.995 E.48791
G1 X146.609 Y120.035 E.07387
G1 X145.934 Y122.841 E.10418
G1 X144.518 Y125.355 E.10418
G1 X142.469 Y127.386 E.10418
G1 X139.942 Y128.78 E.10418
G1 X136.201 Y129.472 E.13736
G1 X83.799 Y129.472 E1.89206
G1 X80.941 Y129.074 E.10418
G1 X78.3 Y127.91 E.10418
G1 X76.079 Y126.069 E.10418
G1 X74.445 Y123.691 E.10418
G1 X73.391 Y120.035 E.13736
G1 X73.241 Y117.995 E.07387
G1 X73.241 Y104.482 E.48791
G1 X73.64 Y101.624 E.10418
G1 X74.232 Y100.038 E.06112
G1 X75.874 Y96.541 E.13948
G1 X77.449 Y94.124 E.10418
G1 X79.212 Y92.587 E.08445
; printing object cableChain_link_v3.stl id:0 copy 0
G1 E-6 F3600
EXCLUDE_OBJECT_START NAME=cableChain_link_v3.stl_id_0_copy_0
G17
G3 Z.6 I-.279 J1.184 P1  F12000
G1 X134.464 Y105.612 Z.6
M73 P4 R34
G1 Z.2
G1 E6 F3600
;TYPE:Inner wall
;WIDTH:0.499999
G1 F900
G1 X134.639 Y105.646 E.00642
G1 X135.137 Y105.646 E.01801
G1 X135.137 Y106.145 E.01801
G1 X135.137 Y113.272 E.25735
G1 X134.881 Y113.187 E.00974
G1 X114.119 Y113.187 E.74967
G1 X113.863 Y113.272 E.00974
G1 X113.863 Y105.646 E.27536
G1 X114.361 Y105.646 E.01801
G1 X114.792 Y105.562 E.01585
G1 X115.037 Y105.425 E.01013
G1 X115.273 Y105.192 E.01198
G1 X115.458 Y104.825 E.01481
G1 X115.504 Y104.503 E.01175
G1 X115.504 Y103.057 E.05221
G1 X115.959 Y103.209 E.01729
G1 X133.041 Y103.209 E.6168
G1 X133.496 Y103.057 E.01729
G1 X133.496 Y104.503 E.05221
G1 X133.542 Y104.825 E.01175
G1 X133.632 Y105.044 E.00853
G1 X133.82 Y105.3 E.01149
G1 X134.208 Y105.562 E.01688
G1 X134.425 Y105.604 E.00799
G1 X134.551 Y105.172 F12000
G1 F900
G1 X134.639 Y105.189 E.00321
G1 X135.594 Y105.189 E.03451
G1 X135.594 Y106.145 E.03451
G1 X135.594 Y113.63 E.27028
;WIDTH:0.527314
G1 X135.581 Y114.33 E.02676
G1 X135.293 Y113.781 E.0237
;WIDTH:0.499999
G1 X134.881 Y113.644 E.01566
G1 X114.119 Y113.644 E.74967
G1 X113.707 Y113.781 E.01566
;WIDTH:0.527314
G1 X113.419 Y114.33 E.0237
G1 X113.406 Y113.63 E.02676
;WIDTH:0.499999
G1 X113.406 Y105.189 E.30479
G1 X114.361 Y105.189 E.03451
G1 X114.62 Y105.138 E.00951
G1 X114.767 Y105.056 E.00608
G1 X114.966 Y104.828 E.01093
G1 X115.047 Y104.503 E.01207
G1 X115.047 Y102.864 E.05917
G1 X115.027 Y102.637 E.00825
;WIDTH:0.460612
G1 X115.008 Y102.409 E.00754
;WIDTH:0.421224
G1 X114.989 Y101.634 E.02317
;WIDTH:0.38438
G1 X115.331 Y101.634 E.00921
G1 X115.331 Y101.805 E.00461
;WIDTH:0.421224
G1 X115.369 Y102.331 E.01578
;WIDTH:0.460612
G1 X115.458 Y102.473 E.00552
;WIDTH:0.499999
G1 X115.547 Y102.614 E.00604
G1 X115.959 Y102.752 E.01566
G1 X133.041 Y102.752 E.6168
G1 X133.453 Y102.614 E.01566
G1 X133.542 Y102.473 E.00604
;WIDTH:0.460611
G1 X133.631 Y102.331 E.00552
;WIDTH:0.421222
G1 X133.669 Y101.634 E.02087
;WIDTH:0.384379
G1 X134.011 Y101.634 E.00921
G1 X134.011 Y102.066 E.01165
;WIDTH:0.422919
G1 X133.991 Y102.332 E.00801
;WIDTH:0.461459
G1 X133.972 Y102.598 E.00882
;WIDTH:0.499999
G1 X133.953 Y102.864 E.00964
G1 X133.953 Y103.663 E.02883
G1 X133.981 Y104.696 E.03733
G1 X134.147 Y104.982 E.01192
G1 X134.38 Y105.138 E.01013
G1 X134.512 Y105.164 E.00486
G1 X134.639 Y104.732 F12000
;TYPE:Outer wall
G1 F900
G1 X136.051 Y104.732 E.05102
G1 X136.051 Y106.145 E.05102
G1 X136.051 Y117.983 E.42743
G1 X135.975 Y118.765 E.02839
G1 X135.11 Y118.765 E.03122
G1 X135.11 Y114.33 E.16015
G1 X135.019 Y114.147 E.00738
G1 X134.881 Y114.101 E.00522
G1 X114.119 Y114.101 E.74967
G1 X113.981 Y114.147 E.00522
G1 X113.89 Y114.33 E.00738
G1 X113.89 Y118.765 E.16015
G1 X113.025 Y118.765 E.03122
G1 X112.949 Y117.983 E.02839
G1 X112.949 Y104.732 E.47845
G1 X114.361 Y104.732 E.05102
G1 X114.525 Y104.663 E.00642
G1 X114.59 Y104.503 E.00621
G1 X114.59 Y101.235 E.11801
G1 X115.73 Y101.235 E.04116
G1 X115.73 Y102.066 E.03001
G1 X115.821 Y102.249 E.00738
G1 X115.959 Y102.294 E.00522
G1 X133.041 Y102.294 E.6168
G1 X133.179 Y102.249 E.00522
G1 X133.27 Y102.066 E.00738
G1 X133.27 Y101.235 E.03001
G1 X134.41 Y101.235 E.04116
G1 X134.41 Y104.503 E.11801
G1 X134.475 Y104.663 E.00621
G1 X134.602 Y104.716 E.00497
G1 E-6 F3600
G17
G3 Z.6 I-1.214 J.086 P1  F12000
G1 X135.564 Y118.312 Z.6
G1 Z.2
G1 E6 F3600
;TYPE:Inner wall
;WIDTH:0.527314
G1 F900
G1 X135.581 Y117.96 E.01348
G1 X135.581 Y114.33 E.1389
G1 E-6 F3600
G17
G3 Z.6 I.377 J-1.157 P1  F12000
G1 X133.54 Y113.665 Z.6
G1 X115.46 Y113.665
G1 X114.971 Y113.898
G1 X114.105 Y114.316
G1 X113.436 Y118.312
G1 Z.2
G1 E6 F3600
G1 F900
G1 X113.419 Y117.96 E.01348
G1 X113.419 Y114.33 E.1389
G1 E-6 F3600
G17
G3 Z.6 I.554 J1.084 P1  F12000
G1 X133.244 Y104.2 Z.6
G1 Z.2
G1 E6 F3600
;TYPE:Bottom surface
;WIDTH:0.5
G1 F1200
G1 X132.504 Y103.46 E.0378
G1 X131.858 Y103.46
G1 X133.306 Y104.908 E.07394
G1 X134.212 Y105.814
G1 X134.886 Y106.488 E.03442
G1 X134.886 Y107.135
G1 X131.211 Y103.46 E.18763
G1 X130.565 Y103.46
G1 X134.886 Y107.781 E.22064
G1 X134.886 Y108.427
G1 X129.918 Y103.46 E.25365
G1 X129.272 Y103.46
G1 X134.886 Y109.074 E.28665
M73 P5 R34
G1 X134.886 Y109.72
G1 X128.626 Y103.46 E.31966
G1 X127.979 Y103.46
G1 X134.886 Y110.367 E.35267
G1 X134.886 Y111.013
G1 X127.333 Y103.46 E.38567
G1 X126.686 Y103.46
G1 X134.886 Y111.659 E.41868
G1 X134.886 Y112.306
G1 X126.04 Y103.46 E.45169
G1 X125.394 Y103.46
G1 X134.878 Y112.945 E.48431
G1 X134.232 Y112.945
G1 X124.747 Y103.46 E.48431
G1 X124.101 Y103.46
G1 X133.586 Y112.945 E.48431
G1 X132.939 Y112.945
G1 X123.454 Y103.46 E.48431
G1 X122.808 Y103.46
G1 X132.293 Y112.945 E.48431
G1 X131.646 Y112.945
G1 X122.162 Y103.46 E.48431
G1 X121.515 Y103.46
G1 X131 Y112.945 E.48431
G1 X130.354 Y112.945
G1 X120.869 Y103.46 E.48431
G1 X120.222 Y103.46
G1 X129.707 Y112.945 E.48431
G1 X129.061 Y112.945
G1 X119.576 Y103.46 E.48431
G1 X118.93 Y103.46
G1 X128.414 Y112.945 E.48431
G1 X127.768 Y112.945
G1 X118.283 Y103.46 E.48431
G1 X117.637 Y103.46
G1 X127.121 Y112.945 E.48431
G1 X126.475 Y112.945
G1 X116.99 Y103.46 E.48431
G1 X116.344 Y103.46
G1 X125.829 Y112.945 E.48431
G1 X125.182 Y112.945
G1 X115.756 Y103.518 E.48134
G1 X115.756 Y104.164
G1 X124.536 Y112.945 E.44834
G1 X123.889 Y112.945
G1 X115.717 Y104.772 E.41729
G1 X115.539 Y105.241
G1 X123.243 Y112.945 E.39336
G1 X122.597 Y112.945
G1 X115.236 Y105.584 E.37585
G1 X114.815 Y105.809
G1 X121.95 Y112.945 E.36436
G1 X121.304 Y112.945
G1 X114.256 Y105.897 E.35986
G1 X114.114 Y106.401
G1 X120.657 Y112.945 E.33411
G1 X120.011 Y112.945
G1 X114.114 Y107.048 E.30111
G1 X114.114 Y107.694
G1 X119.365 Y112.945 E.2681
G1 X118.718 Y112.945
G1 X114.114 Y108.341 E.23509
G1 X114.114 Y108.987
G1 X118.072 Y112.945 E.20209
G1 X117.425 Y112.945
G1 X114.114 Y109.633 E.16908
G1 X114.114 Y110.28
G1 X116.779 Y112.945 E.13607
G1 X116.133 Y112.945
G1 X114.114 Y110.926 E.10307
G1 X114.114 Y111.573
G1 X115.486 Y112.945 E.07006
G1 X114.84 Y112.945
G1 X114.114 Y112.219 E.03705
; stop printing object cableChain_link_v3.stl id:0 copy 0
; printing object cableChain_link_v3.stl id:1 copy 0
G1 E-6 F3600
EXCLUDE_OBJECT_END NAME=cableChain_link_v3.stl_id_0_copy_0
EXCLUDE_OBJECT_START NAME=cableChain_link_v3.stl_id_1_copy_0
G17
G3 Z.6 I.739 J-.967 P1  F12000
M73 P6 R34
G1 X105.464 Y105.612 Z.6
G1 Z.2
G1 E6 F3600
;TYPE:Inner wall
;WIDTH:0.499999
G1 F900
G1 X105.639 Y105.646 E.00642
G1 X106.137 Y105.646 E.01801
G1 X106.137 Y106.145 E.01801
G1 X106.137 Y113.272 E.25735
M73 P6 R33
G1 X105.881 Y113.187 E.00974
G1 X85.119 Y113.187 E.74967
G1 X84.863 Y113.272 E.00974
G1 X84.863 Y105.646 E.27536
G1 X85.361 Y105.646 E.01801
G1 X85.792 Y105.562 E.01585
G1 X86.037 Y105.425 E.01013
G1 X86.273 Y105.192 E.01198
G1 X86.458 Y104.825 E.01481
G1 X86.504 Y104.503 E.01175
G1 X86.504 Y103.057 E.05221
G1 X86.959 Y103.209 E.01729
G1 X104.041 Y103.209 E.6168
G1 X104.496 Y103.057 E.01729
G1 X104.496 Y104.503 E.05221
G1 X104.542 Y104.825 E.01175
G1 X104.632 Y105.044 E.00853
G1 X104.82 Y105.3 E.01149
G1 X105.208 Y105.562 E.01688
G1 X105.425 Y105.604 E.00799
G1 X105.551 Y105.172 F12000
G1 F900
G1 X105.639 Y105.189 E.00321
G1 X106.594 Y105.189 E.03451
G1 X106.594 Y106.145 E.03451
G1 X106.594 Y113.63 E.27028
;WIDTH:0.527314
G1 X106.581 Y114.33 E.02676
G1 X106.293 Y113.781 E.0237
;WIDTH:0.499999
G1 X105.881 Y113.644 E.01566
G1 X85.119 Y113.644 E.74967
G1 X84.707 Y113.781 E.01566
;WIDTH:0.527314
G1 X84.419 Y114.33 E.0237
G1 X84.406 Y113.63 E.02676
;WIDTH:0.499999
G1 X84.406 Y105.189 E.30479
G1 X85.361 Y105.189 E.03451
G1 X85.62 Y105.138 E.00951
G1 X85.767 Y105.056 E.00608
G1 X85.966 Y104.828 E.01093
G1 X86.047 Y104.503 E.01207
G1 X86.047 Y102.864 E.05917
G1 X86.027 Y102.637 E.00825
;WIDTH:0.460612
G1 X86.008 Y102.409 E.00754
;WIDTH:0.421224
G1 X85.989 Y101.634 E.02317
;WIDTH:0.38438
G1 X86.331 Y101.634 E.00921
G1 X86.331 Y101.805 E.00461
;WIDTH:0.421224
G1 X86.369 Y102.331 E.01578
;WIDTH:0.460612
G1 X86.458 Y102.473 E.00552
;WIDTH:0.499999
G1 X86.547 Y102.614 E.00604
G1 X86.959 Y102.752 E.01566
G1 X104.041 Y102.752 E.6168
G1 X104.453 Y102.614 E.01566
G1 X104.542 Y102.473 E.00604
;WIDTH:0.460611
G1 X104.631 Y102.331 E.00552
;WIDTH:0.421222
G1 X104.669 Y101.634 E.02087
;WIDTH:0.384379
G1 X105.011 Y101.634 E.00921
G1 X105.011 Y102.066 E.01165
;WIDTH:0.422919
G1 X104.991 Y102.332 E.00801
;WIDTH:0.461459
G1 X104.972 Y102.598 E.00882
;WIDTH:0.499999
G1 X104.953 Y102.864 E.00964
G1 X104.953 Y103.663 E.02883
G1 X104.981 Y104.696 E.03733
G1 X105.147 Y104.982 E.01192
G1 X105.38 Y105.138 E.01013
G1 X105.512 Y105.164 E.00486
G1 X105.639 Y104.732 F12000
;TYPE:Outer wall
G1 F900
G1 X107.051 Y104.732 E.05102
G1 X107.051 Y106.145 E.05102
