; HEADER_BLOCK_START
; generated by OrcaSlicer 1.7.0 on 2023-11-18 at 14:53:17
; total layer number: 350
; HEADER_BLOCK_END

; THUMBNAIL_BLOCK_START
; THUMBNAIL_BLOCK_END

; external perimeters extrusion width = 0.40mm
; perimeters extrusion width = 0.45mm
; infill extrusion width = 0.45mm
; solid infill extrusion width = 0.40mm
; top infill extrusion width = 0.40mm
; first layer extrusion width = 0.50mm

; external perimeters extrusion width = 0.40mm
; perimeters extrusion width = 0.45mm
; infill extrusion width = 0.45mm
; solid infill extrusion width = 0.40mm
; top infill extrusion width = 0.40mm
; first layer extrusion width = 0.50mm

; external perimeters extrusion width = 0.40mm
; perimeters extrusion width = 0.45mm
; infill extrusion width = 0.45mm
; solid infill extrusion width = 0.40mm
; top infill extrusion width = 0.40mm
; first layer extrusion width = 0.50mm

; external perimeters extrusion width = 0.40mm
; perimeters extrusion width = 0.45mm
; infill extrusion width = 0.45mm
; solid infill extrusion width = 0.40mm
; top infill extrusion width = 0.40mm
; first layer extrusion width = 0.50mm

; external perimeters extrusion width = 0.40mm
; perimeters extrusion width = 0.45mm
; infill extrusion width = 0.45mm
; solid infill extrusion width = 0.40mm
; top infill extrusion width = 0.40mm
; first layer extrusion width = 0.50mm

; external perimeters extrusion width = 0.40mm
; perimeters extrusion width = 0.45mm
; infill extrusion width = 0.45mm
; solid infill extrusion width = 0.40mm
; top infill extrusion width = 0.40mm
; first layer extrusion width = 0.50mm

; external perimeters extrusion width = 0.40mm
; perimeters extrusion width = 0.45mm
; infill extrusion width = 0.45mm
; solid infill extrusion width = 0.40mm
; top infill extrusion width = 0.40mm
; first layer extrusion width = 0.50mm

; external perimeters extrusion width = 0.40mm
; perimeters extrusion width = 0.45mm
; infill extrusion width = 0.45mm
; solid infill extrusion width = 0.40mm
; top infill extrusion width = 0.40mm
; first layer extrusion width = 0.50mm

; external perimeters extrusion width = 0.40mm
; perimeters extrusion width = 0.45mm
; infill extrusion width = 0.45mm
; solid infill extrusion width = 0.40mm
; top infill extrusion width = 0.40mm
; first layer extrusion width = 0.50mm

; external perimeters extrusion width = 0.40mm
; perimeters extrusion width = 0.45mm
; infill extrusion width = 0.45mm
; solid infill extrusion width = 0.40mm
; top infill extrusion width = 0.40mm
; first layer extrusion width = 0.50mm

; EXECUTABLE_BLOCK_START
EXCLUDE_OBJECT_DEFINE NAME=cableChain_linkCover_v2.stl_id_0_copy_0 CENTER=38.999,30.7986 POLYGON=[[26.999,27.8986],[50.999,27.8986],[50.999,33.6985],[26.999,33.6985],[26.999,27.8986]]
EXCLUDE_OBJECT_DEFINE NAME=cableChain_linkCover_v2.stl_id_1_copy_0 CENTER=38.999,83.5995 POLYGON=[[26.999,80.6995],[50.999,80.6995],[50.999,86.4995],[26.999,86.4995],[26.999,80.6995]]
EXCLUDE_OBJECT_DEFINE NAME=cableChain_linkCover_v2.stl_id_2_copy_0 CENTER=110,30.7986 POLYGON=[[98,27.8986],[122,27.8986],[122,33.6985],[98,33.6985],[98,27.8986]]
EXCLUDE_OBJECT_DEFINE NAME=cableChain_linkCover_v2.stl_id_3_copy_0 CENTER=38.999,136.4 POLYGON=[[26.999,133.501],[50.999,133.501],[50.999,139.3],[26.999,139.3],[26.999,133.501]]
EXCLUDE_OBJECT_DEFINE NAME=cableChain_linkCover_v2.stl_id_4_copy_0 CENTER=110,83.5995 POLYGON=[[98,80.6995],[122,80.6995],[122,86.4995],[98,86.4995],[98,80.6995]]
EXCLUDE_OBJECT_DEFINE NAME=cableChain_linkCover_v2.stl_id_5_copy_0 CENTER=181.001,30.7986 POLYGON=[[169.001,27.8986],[193.001,27.8986],[193.001,33.6985],[169.001,33.6985],[169.001,27.8986]]
EXCLUDE_OBJECT_DEFINE NAME=cableChain_linkCover_v2.stl_id_6_copy_0 CENTER=38.999,189.201 POLYGON=[[26.999,186.301],[50.999,186.301],[50.999,192.101],[26.999,192.101],[26.999,186.301]]
EXCLUDE_OBJECT_DEFINE NAME=cableChain_linkCover_v2.stl_id_7_copy_0 CENTER=110,136.4 POLYGON=[[98,133.5],[122,133.5],[122,139.3],[98,139.3],[98,133.5]]
EXCLUDE_OBJECT_DEFINE NAME=cableChain_linkCover_v2.stl_id_8_copy_0 CENTER=181.001,83.5995 POLYGON=[[169.001,80.6995],[193.001,80.6995],[193.001,86.4995],[169.001,86.4995],[169.001,80.6995]]
EXCLUDE_OBJECT_DEFINE NAME=cableChain_linkCover_v2.stl_id_9_copy_0 CENTER=110,189.201 POLYGON=[[98,186.301],[122,186.301],[122,192.101],[98,192.101],[98,186.301]]
M73 P0 R39
;TYPE:Custom
START_PRINT EXTRUDER_TEMP=235  BED_TEMP=80
G90
G21
M83 ; use relative distances for extrusion
; filament start gcode
M106 S0
;LAYER_CHANGE
;Z:0.2
;HEIGHT:0.2
;BEFORE_LAYER_CHANGE
;0.2
G92 E0

G1 E-4 F1800
;_SET_FAN_SPEED_CHANGING_LAYER
SET_VELOCITY_LIMIT SQUARE_CORNER_VELOCITY=8
G1 X17.694 Y19.192 F12000
G1 Z.4
G1 Z.2
G1 E4 F1800
;TYPE:Skirt
;WIDTH:0.5
G1 F900
G1 X20.145 Y17.156 E.11505
G1 X23.025 Y15.792 E.11505
G1 X26.999 Y15.156 E.14531
G1 X193.001 Y15.156 E5.99367
G1 X196.163 Y15.555 E.11505
G1 X199.126 Y16.725 E.11505
G1 X201.707 Y18.594 E.11505
G1 X203.743 Y21.045 E.11505
G1 X205.108 Y23.925 E.11505
G1 X205.743 Y27.899 E.14531
G1 X205.743 Y86.499 E2.11585
G1 X205.345 Y89.661 E.11505
G1 X203.576 Y93.609 E.15622
G1 X132.575 Y199.211 E4.59454
M73 P1 R39
G1 X130.48 Y201.613 E.11505
G1 X127.855 Y203.419 E.11505
G1 X124.864 Y204.518 E.11505
G1 X122 Y204.844 E.10407
G1 X26.999 Y204.844 E3.43011
G1 X23.837 Y204.445 E.11505
G1 X20.874 Y203.275 E.11505
G1 X18.293 Y201.406 E.11505
G1 X16.257 Y198.955 E.11505
G1 X14.892 Y196.075 E.11505
G1 X14.257 Y192.101 E.14531
G1 X14.257 Y27.899 E5.92871
G1 X14.655 Y24.737 E.11505
G1 X15.825 Y21.773 E.11505
G1 X17.671 Y19.225 E.11361
G1 X18.052 Y19.507 F12000
G1 F900
G1 X18.146 Y19.381 E.00568
G1 X20.584 Y17.421 E.11296
G1 X23.439 Y16.14 E.11296
G1 X26.999 Y15.613 E.12995
G1 X193.001 Y15.613 E5.99367
M73 P2 R38
G1 X196.104 Y16.012 E.11296
G1 X199.006 Y17.181 E.11296
G1 X201.519 Y19.045 E.11296
G1 X203.479 Y21.484 E.11296
G1 X204.759 Y24.338 E.11296
G1 X205.286 Y27.899 E.12995
G1 X205.286 Y86.499 E2.11585
G1 X204.888 Y89.603 E.11296
G1 X203.196 Y93.354 E.14859
G1 X132.195 Y198.956 E4.59454
M73 P3 R38
G1 X130.133 Y201.309 E.11296
G1 X127.544 Y203.065 E.11296
G1 X124.595 Y204.11 E.11296
G1 X122 Y204.387 E.09422
G1 X26.999 Y204.387 E3.43011
G1 X23.896 Y203.988 E.11296
G1 X20.994 Y202.819 E.11296
G1 X18.481 Y200.955 E.11296
G1 X16.521 Y198.516 E.11296
G1 X15.241 Y195.662 E.11296
G1 X14.714 Y192.101 E.12995
G1 X14.714 Y27.899 E5.92871
G1 X15.112 Y24.795 E.11296
G1 X16.281 Y21.894 E.11296
G1 X18.028 Y19.54 E.10583
G1 X18.404 Y19.826 F12000
G1 F900
G1 X18.596 Y19.574 E.01145
G1 X21.021 Y17.692 E.11083
G1 X23.849 Y16.497 E.11083
G1 X26.999 Y16.07 E.11477
G1 X193.001 Y16.07 E5.99367
M73 P4 R38
G1 X196.045 Y16.469 E.11083
G1 X198.883 Y17.637 E.11083
G1 X201.326 Y19.496 E.11083
G1 X203.208 Y21.921 E.11083
G1 X204.402 Y24.749 E.11083
G1 X204.829 Y27.899 E.11477
G1 X204.829 Y86.499 E2.11585
G1 X204.431 Y89.543 E.11083
G1 X202.817 Y93.099 E.141
G1 X131.816 Y198.701 E4.59454
M73 P4 R37
G1 X129.787 Y201.005 E.11083
G1 X127.234 Y202.709 E.11083
G1 X124.328 Y203.698 E.11083
G1 X122 Y203.93 E.08448
G1 X26.999 Y203.93 E3.43011
M73 P5 R37
G1 X23.955 Y203.531 E.11083
G1 X21.117 Y202.363 E.11083
G1 X18.674 Y200.504 E.11083
G1 X16.792 Y198.079 E.11083
G1 X15.598 Y195.251 E.11083
G1 X15.171 Y192.101 E.11477
G1 X15.171 Y27.899 E5.92871
G1 X15.569 Y24.855 E.11083
G1 X16.737 Y22.016 E.11083
G1 X18.38 Y19.858 E.09794
G1 X18.751 Y20.148 F12000
G1 F900
G1 X19.047 Y19.771 E.0173
G1 X21.457 Y17.969 E.10866
G1 X24.256 Y16.863 E.10866
G1 X26.999 Y16.527 E.09977
G1 X193.001 Y16.527 E5.99367
M73 P6 R37
G1 X195.984 Y16.926 E.10866
G1 X198.758 Y18.092 E.10866
G1 X201.129 Y19.946 E.10866
G1 X202.93 Y22.357 E.10866
G1 X204.036 Y25.156 E.10866
G1 X204.372 Y27.899 E.09977
G1 X204.372 Y86.499 E2.11585
G1 X203.974 Y89.483 E.10866
G1 X202.438 Y92.844 E.13345
G1 X131.437 Y198.446 E4.59454
G1 X129.442 Y200.699 E.10866
G1 X126.926 Y202.35 E.10866
G1 X124.064 Y203.284 E.10866
G1 X122 Y203.473 E.07485
G1 X26.999 Y203.473 E3.43011
M73 P7 R37
G1 X24.016 Y203.074 E.10866
G1 X21.242 Y201.908 E.10866
G1 X18.871 Y200.054 E.10866
G1 X17.07 Y197.643 E.10866
G1 X15.964 Y194.844 E.10866
G1 X15.628 Y192.101 E.09977
G1 X15.628 Y27.899 E5.92871
M73 P7 R36
G1 X16.026 Y24.916 E.10866
G1 X17.193 Y22.141 E.10866
G1 X18.727 Y20.18 E.08991
G1 X19.093 Y20.474 F12000
G1 F900
G1 X19.496 Y19.972 E.02325
G1 X21.891 Y18.253 E.10644
G1 X24.659 Y17.238 E.10644
G1 X26.999 Y16.984 E.08498
G1 X193.001 Y16.984 E5.99367
M73 P8 R36
G1 X195.922 Y17.383 E.10644
G1 X198.63 Y18.548 E.10644
G1 X200.927 Y20.396 E.10644
G1 X202.646 Y22.791 E.10644
G1 X203.661 Y25.559 E.10644
G1 X203.915 Y27.899 E.08498
G1 X203.915 Y86.499 E2.11585
G1 X203.517 Y89.421 E.10644
G1 X202.058 Y92.589 E.12594
G1 X131.057 Y198.191 E4.59454
G1 X129.097 Y200.393 E.10644
G1 X126.619 Y201.99 E.10644
G1 X123.804 Y202.865 E.10644
G1 X122 Y203.016 E.06535
G1 X26.999 Y203.016 E3.43011
M73 P9 R36
G1 X24.078 Y202.617 E.10644
G1 X21.37 Y201.452 E.10644
G1 X19.073 Y199.604 E.10644
G1 X17.354 Y197.209 E.10644
G1 X16.339 Y194.441 E.10644
G1 X16.085 Y192.101 E.08498
G1 X16.085 Y27.899 E5.92871
G1 X16.483 Y24.977 E.10644
G1 X17.648 Y22.27 E.10644
G1 X19.068 Y20.505 E.08175
G1 X19.428 Y20.803 F12000
G1 F900
G1 X19.945 Y20.179 E.02929
G1 X22.323 Y18.545 E.10418
G1 X25.058 Y17.623 E.10418
G1 X26.999 Y17.442 E.0704
G1 X193.001 Y17.441 E5.99367
M73 P10 R35
G1 X195.859 Y17.84 E.10418
G1 X198.499 Y19.004 E.10418
G1 X200.721 Y20.845 E.10418
G1 X202.355 Y23.223 E.10418
G1 X203.276 Y25.957 E.10418
G1 X203.458 Y27.899 E.0704
G1 X203.458 Y86.499 E2.11585
G1 X203.06 Y89.357 E.10418
G1 X201.679 Y92.334 E.11848
G1 X130.678 Y197.936 E4.59454
G1 X128.753 Y200.086 E.10418
G1 X126.314 Y201.627 E.10418
G1 X123.546 Y202.444 E.10418
G1 X122 Y202.558 E.05599
G1 X26.999 Y202.559 E3.43011
G1 X24.141 Y202.16 E.10418
G1 X21.501 Y200.996 E.10418
G1 X19.279 Y199.155 E.10418
G1 X17.645 Y196.777 E.10418
G1 X16.724 Y194.043 E.10418
G1 X16.542 Y192.101 E.0704
G1 X16.542 Y27.899 E5.92871
M73 P11 R35
G1 X16.94 Y25.041 E.10418
G1 X18.104 Y22.401 E.10418
G1 X19.402 Y20.834 E.07345
; printing object cableChain_linkCover_v2.stl id:0 copy 0
G1 E-2.8 F1800
;WIPE_START
G1 F900
G1 X19.945 Y20.179 E-1.02145
G1 X20.068 Y20.095 E-.17855
;WIPE_END
EXCLUDE_OBJECT_START NAME=cableChain_linkCover_v2.stl_id_0_copy_0
G17
G3 Z.6 I-.381 J1.156 P1  F12000
G1 X49.675 Y29.863 Z.6
G1 Z.2
G1 E4 F1800
;TYPE:Inner wall
;WIDTH:0.504838
G1 F900
G1 X50.29 Y29.274 E.03106
G1 X50.29 Y30.407 E.04133
G1 X50.12 Y30.116 E.01226
G1 X49.71 Y29.883 E.01723
G1 E-2.8 F1800
;WIPE_START
G1 F900
G1 X50.29 Y29.274 E-1.00878
G1 X50.29 Y29.433 E-.19122
;WIPE_END
G17
G3 Z.6 I-1.199 J-.21 P1  F12000
G1 X49.759 Y32.459 Z.6
G1 X28.239 Y32.459
G1 X27.709 Y30.407
G1 Z.2
G1 E4 F1800
;WIDTH:0.504839
G1 F900
G1 X27.709 Y29.274 E.04133
G1 X28.323 Y29.863 E.03106
G1 X27.878 Y30.116 E.01869
G1 X27.729 Y30.372 E.0108
G1 E-4 F1800
G17
G3 Z.6 I-1.205 J.172 P1  F12000
G1 X28.069 Y32.748 Z.6
G1 Z.2
G1 E4 F1800
;TYPE:Outer wall
;WIDTH:0.709922
G1 F900
G1 X28.135 Y32.762 E.00357
;WIDTH:0.675691
G1 X28.218 Y32.779 E.00422
;WIDTH:0.64146
G1 X49.78 Y32.779 E1.0195
;WIDTH:0.675691
G1 X49.863 Y32.762 E.00422
;WIDTH:0.709922
G1 X49.946 Y32.745 E.00445
;WIDTH:0.744153
G1 X50.028 Y32.728 E.00467
G1 X50.046 Y32.645 E.00467
;WIDTH:0.709922
G1 X50.063 Y32.563 E.00445
;WIDTH:0.675691
G1 X50.08 Y32.48 E.00422
;WIDTH:0.641459
G1 X50.08 Y30.715 E.08347
G1 X50.018 Y30.648 E.00429
;WIDTH:0.594306
G1 X49.956 Y30.582 E.00395
;WIDTH:0.547153
G1 X49.893 Y30.516 E.00362
;WIDTH:0.499999
G1 X49.009 Y30.013 E.03673
G1 X49.009 Y29.865 E.00534
G1 X50.749 Y28.197 E.08703
G1 X50.749 Y30.018 E.06575
;WIDTH:0.547153
G1 X50.725 Y30.25 E.00929
;WIDTH:0.594306
G1 X50.702 Y30.482 E.01016
;WIDTH:0.641459
G1 X50.678 Y30.715 E.01103
G1 X50.678 Y32.48 E.08347
;WIDTH:0.669075
G1 X50.664 Y32.737 E.01274
;WIDTH:0.706614
G1 X50.646 Y33.032 E.01548
;WIDTH:0.744153
G1 X50.627 Y33.326 E.01636
G1 X50.345 Y33.344 E.01566
;WIDTH:0.709922
G1 X50.063 Y33.361 E.01489
;WIDTH:0.675691
G1 X49.78 Y33.378 E.01413
;WIDTH:0.64146
G1 X28.218 Y33.378 E1.0195
;WIDTH:0.675691
G1 X27.935 Y33.361 E.01413
;WIDTH:0.709922
G1 X27.653 Y33.344 E.01489
;WIDTH:0.744152
G1 X27.371 Y33.326 E.01566
G1 X27.354 Y33.044 E.01566
;WIDTH:0.709922
G1 X27.337 Y32.762 E.01489
;WIDTH:0.675691
G1 X27.32 Y32.48 E.01413
;WIDTH:0.64146
G1 X27.32 Y30.715 E.08347
G1 X27.296 Y30.482 E.01103
;WIDTH:0.594307
G1 X27.273 Y30.25 E.01016
;WIDTH:0.547153
G1 X27.249 Y30.018 E.00929
;WIDTH:0.499999
G1 X27.249 Y28.197 E.06575
G1 X28.989 Y29.865 E.08703
G1 X28.989 Y30.013 E.00534
G1 X28.105 Y30.516 E.03673
;WIDTH:0.547153
G1 X28.042 Y30.582 E.00362
;WIDTH:0.594307
G1 X27.98 Y30.648 E.00395
;WIDTH:0.64146
G1 X27.918 Y30.715 E.00429
G1 X27.918 Y32.48 E.08347
;WIDTH:0.675691
G1 X27.935 Y32.563 E.00422
;WIDTH:0.709922
G1 X27.953 Y32.645 E.00445
;WIDTH:0.744152
G1 X27.97 Y32.728 E.00467
G1 X28.029 Y32.74 E.00338
; stop printing object cableChain_linkCover_v2.stl id:0 copy 0
;LAYER_CHANGE
;Z:0.4
;HEIGHT:0.2
;BEFORE_LAYER_CHANGE
;0.4
G92 E0

G1 E-2.8 F1800
;WIPE_START
G1 F900
G1 X28.135 Y32.762 E-.12931
G1 X28.218 Y32.779 E-.10127
G1 X29.025 Y32.779 E-.96942
;WIPE_END
EXCLUDE_OBJECT_END NAME=cableChain_linkCover_v2.stl_id_0_copy_0
;_SET_FAN_SPEED_CHANGING_LAYER
SET_VELOCITY_LIMIT SQUARE_CORNER_VELOCITY=1
; printing object cableChain_linkCover_v2.stl id:0 copy 0
SET_VELOCITY_LIMIT SQUARE_CORNER_VELOCITY=8
EXCLUDE_OBJECT_START NAME=cableChain_linkCover_v2.stl_id_0_copy_0
G17
G3 Z.6 I.018 J1.217 P1  F12000
G1 X50.99 Y32.45 Z.6
G1 X49.464 Y29.889
G1 Z.4
G1 E4 F1800
SET_VELOCITY_LIMIT SQUARE_CORNER_VELOCITY=1
;TYPE:Inner wall
;WIDTH:0.449999
G1 F6000
G1 X50.417 Y28.975 E.04247
G1 X50.417 Y30.018 E.03353
;WIDTH:0.48792
G1 X50.398 Y30.366 E.01226
;WIDTH:0.52584
G1 X50.379 Y30.715 E.0133
G1 X50.218 Y30.471 E.01114
;WIDTH:0.48792
G1 X50.058 Y30.227 E.01026
;WIDTH:0.449999
G1 X49.498 Y29.909 E.02068
SET_VELOCITY_LIMIT SQUARE_CORNER_VELOCITY=8
G1 X50.078 Y29.782 F12000
SET_VELOCITY_LIMIT SQUARE_CORNER_VELOCITY=1
;WIDTH:0.352598
G1 F6000
G1 X50.02 Y29.815 E.00164
G1 X50.078 Y29.849 E.00164
G1 X50.097 Y29.815 E.00095
SET_VELOCITY_LIMIT SQUARE_CORNER_VELOCITY=8
G1 E-2.8 F1800
;WIPE_START
G1 F6000
G1 X50.078 Y29.849 E-.26881
G1 X50.02 Y29.815 E-.46559
G1 X50.078 Y29.782 E-.46559
;WIPE_END
G17
G3 Z.8 I-1.209 J-.139 P1  F12000
G1 X49.768 Y32.468 Z.8
G1 X28.23 Y32.468
G1 X27.619 Y30.715
G1 Z.4
G1 E4 F1800
SET_VELOCITY_LIMIT SQUARE_CORNER_VELOCITY=1
;WIDTH:0.525842
G1 F6000
G1 X27.6 Y30.366 E.0133
;WIDTH:0.487921
G1 X27.581 Y30.018 E.01226
;WIDTH:0.449999
G1 X27.581 Y28.975 E.03353
G1 X28.534 Y29.889 E.04247
G1 X27.94 Y30.227 E.02197
;WIDTH:0.487921
G1 X27.78 Y30.471 E.01026
;WIDTH:0.525842
G1 X27.641 Y30.681 E.00961
SET_VELOCITY_LIMIT SQUARE_CORNER_VELOCITY=8
G1 X27.978 Y29.815 F12000
SET_VELOCITY_LIMIT SQUARE_CORNER_VELOCITY=1
;WIDTH:0.3526
G1 F6000
G1 X27.959 Y29.849 E.00095
G1 X27.901 Y29.815 E.00164
G1 X27.959 Y29.782 E.00164
SET_VELOCITY_LIMIT SQUARE_CORNER_VELOCITY=8
G1 E-4 F1800
G17
G3 Z.8 I-1.212 J.109 P1  F12000
G1 X28.218 Y32.659 Z.8
G1 Z.4
G1 E4 F1800
SET_VELOCITY_LIMIT SQUARE_CORNER_VELOCITY=1
;TYPE:Outer wall
;WIDTH:0.399999
G1 F6000
G1 X49.78 Y32.659 E.60822
M73 P12 R35
G1 X49.907 Y32.606 E.00385
G1 X49.959 Y32.48 E.00385
G1 X49.959 Y30.715 E.0498
G1 X49.869 Y30.559 E.00507
G1 X48.959 Y30.042 E.02952
G1 X48.959 Y29.844 E.00559
G1 X50.775 Y28.102 E.07097
G1 X50.799 Y28.113 E.00073
G1 X50.799 Y33.499 E.15192
G1 X27.199 Y33.499 E.66568
G1 X27.199 Y28.113 E.15192
G1 X27.219 Y28.099 E.00068
G1 X29.039 Y29.844 E.07113
G1 X29.039 Y30.042 E.00559
G1 X28.129 Y30.559 E.02952
G1 X28.039 Y30.715 E.00507
G1 X28.039 Y32.48 E.0498
G1 X28.055 Y32.553 E.00212
G1 X28.184 Y32.637 E.00434
SET_VELOCITY_LIMIT SQUARE_CORNER_VELOCITY=8
G1 E-2.8 F1800
;WIPE_START
G1 F6000
G1 X29.184 Y32.638 E-1.2
;WIPE_END
G17
G3 Z.8 I-.016 J1.217 P1  F12000
G1 X50.948 Y32.921 Z.8
G1 X50.379 Y30.715
G1 Z.4
G1 E4 F1800
SET_VELOCITY_LIMIT SQUARE_CORNER_VELOCITY=1
;TYPE:Inner wall
;WIDTH:0.52584
G1 F6000
G1 X50.379 Y32.48 E.06735
;WIDTH:0.553456
G1 F5876.177
G1 X50.365 Y32.609 E.00523
