; HEADER_BLOCK_START
; generated by OrcaSlicer 1.7.0 on 2023-12-09 at 17:42:17
; total layer number: 23
; HEADER_BLOCK_END

; THUMBNAIL_BLOCK_START
; THUMBNAIL_BLOCK_END

; external perimeters extrusion width = 0.40mm
; perimeters extrusion width = 0.45mm
; infill extrusion width = 0.45mm
; solid infill extrusion width = 0.40mm
; top infill extrusion width = 0.40mm
; first layer extrusion width = 0.50mm

; EXECUTABLE_BLOCK_START
EXCLUDE_OBJECT_DEFINE NAME=Caliper_Holder.stl_id_0_copy_0 CENTER=95.8232,95.3914 POLYGON=[[54.0732,78.3914],[54.0912,78.0238],[54.1452,77.6598],[54.2346,77.3028],[54.3586,76.9563],[54.516,76.6236],[54.7052,76.308],[54.9244,76.0124],[55.1715,75.7397],[55.4442,75.4926],[55.7398,75.2733],[56.0554,75.0842],[56.3881,74.9268],[56.7346,74.8028],[57.0916,74.7134],[57.4556,74.6594],[57.8232,74.6414],[133.823,74.6414],[134.191,74.6594],[134.555,74.7134],[134.912,74.8028],[135.258,74.9268],[135.591,75.0842],[135.907,75.2733],[136.202,75.4926],[136.475,75.7397],[136.722,76.0124],[136.941,76.308],[137.13,76.6236],[137.288,76.9563],[137.412,77.3028],[137.501,77.6598],[137.555,78.0238],[137.573,78.3914],[137.573,112.391],[137.555,112.759],[137.501,113.123],[137.412,113.48],[137.288,113.826],[137.13,114.159],[136.941,114.475],[136.722,114.77],[136.475,115.043],[136.202,115.29],[135.907,115.509],[135.591,115.699],[135.258,115.856],[134.912,115.98],[134.555,116.069],[134.191,116.123],[133.823,116.141],[57.8232,116.141],[57.4556,116.123],[57.0916,116.069],[56.7346,115.98],[56.3881,115.856],[56.0554,115.699],[55.7398,115.509],[55.4442,115.29],[55.1715,115.043],[54.9244,114.77],[54.7052,114.475],[54.516,114.159],[54.3586,113.826],[54.2346,113.48],[54.1452,113.123],[54.0912,112.759],[54.0732,112.391],[54.0732,78.3914]]
M73 P0 R19
;TYPE:Custom
START_PRINT EXTRUDER_TEMP=255  BED_TEMP=80
G90
G21
M83 ; use relative distances for extrusion
; filament start gcode
M106 S0
;LAYER_CHANGE
;Z:0.2
;HEIGHT:0.2
;BEFORE_LAYER_CHANGE
;0.2
G92 E0

G1 E-5 F1800
;_SET_FAN_SPEED_CHANGING_LAYER
; printing object Caliper Holder.stl id:0 copy 0
EXCLUDE_OBJECT_START NAME=Caliper_Holder.stl_id_0_copy_0
G1 X136.44 Y100.714 F9000
G1 Z.4
G1 Z.2
G1 E5 F1800
;TYPE:Inner wall
;WIDTH:0.469202
G1 F900
G1 X136.424 Y101.07 E.012
;WIDTH:0.499999
G1 X136.409 Y101.426 E.01287
G1 X136.409 Y112.335 E.39385
G1 X136.354 Y112.895 E.02032
G1 X136.207 Y113.379 E.01826
G1 X135.969 Y113.825 E.01826
G1 X135.648 Y114.216 E.01826
G1 X135.257 Y114.537 E.01826
G1 X134.8 Y114.781 E.0187
G1 X134.343 Y114.911 E.01716
G1 X133.795 Y114.977 E.01994
G1 X57.992 Y114.977 E2.73693
G1 X57.65 Y114.96 E.01236
G1 X57.053 Y114.857 E.02188
G1 X56.669 Y114.693 E.01509
G1 X56.191 Y114.391 E.0204
G1 X55.829 Y114.028 E.01851
G1 X55.548 Y113.608 E.01826
G1 X55.308 Y112.944 E.02548
G1 X55.237 Y112.342 E.02189
G1 X55.237 Y104.426 E.28578
G1 X55.222 Y104.07 E.01287
;WIDTH:0.469203
G1 X55.207 Y103.714 E.012
G1 X55.347 Y104.019 E.0113
;WIDTH:0.499999
G1 X55.488 Y104.324 E.01212
G1 X56.077 Y104.643 E.0242
G1 X56.453 Y104.695 E.01372
G1 X102.382 Y104.692 E1.65828
M73 P1 R19
G1 X102.521 Y104.684 E.00503
G1 X102.908 Y104.564 E.01466
G1 X103.207 Y104.339 E.0135
G1 X103.43 Y104.004 E.01452
G1 X103.524 Y103.55 E.01676
G1 X103.524 Y101.692 E.06706
G1 X135.193 Y101.695 E1.14343
G1 X135.569 Y101.643 E.01372
G1 X136.159 Y101.324 E.0242
G1 X136.299 Y101.019 E.01212
;WIDTH:0.469202
G1 X136.423 Y100.751 E.00996
G1 E-3.5 F1800
;WIPE_START
G1 F900
G1 X136.424 Y101.07 E-.31976
G1 X136.409 Y101.426 E-.35642
G1 X136.409 Y102.25 E-.82382
;WIPE_END
G17
G3 Z.6 I1.212 J-.114 P1  F9000
G1 X135.767 Y95.447 Z.6
G1 Z.2
G1 E5 F1800
;WIDTH:0.499999
G1 F900
G1 X135.569 Y95.34 E.00811
G1 X135.193 Y95.287 E.01372
G1 X109.524 Y95.29 E.92679
G1 X109.524 Y84.933 E.37396
G1 X109.451 Y84.531 E.01476
G1 X109.251 Y84.192 E.01422
G1 X109.024 Y83.988 E.01102
G1 X108.725 Y83.843 E.01199
G1 X108.382 Y83.79 E.01254
G1 X71.265 Y83.79 E1.34013
G1 X71.094 Y83.803 E.0062
G1 X70.773 Y83.901 E.01209
G1 X70.511 Y84.074 E.01135
G1 X70.322 Y84.288 E.01029
G1 X70.167 Y84.618 E.01317
G1 X70.122 Y84.933 E.0115
G1 X70.122 Y95.29 E.37395
G1 X56.454 Y95.287 E.49352
G1 X56.077 Y95.34 E.01372
G1 X55.488 Y95.659 E.0242
G1 X55.343 Y96.06 E.01539
;WIDTH:0.460842
G1 X55.198 Y96.461 E.01407
G1 X55.218 Y96.008 E.01494
;WIDTH:0.499999
G1 X55.237 Y95.556 E.01634
G1 X55.237 Y78.541 E.61436
M73 P2 R19
G1 X55.254 Y78.216 E.01173
G1 X55.351 Y77.649 E.02079
G1 X55.548 Y77.175 E.01851
G1 X55.829 Y76.754 E.01826
G1 X56.186 Y76.397 E.01826
G1 X56.607 Y76.116 E.01826
G1 X57.074 Y75.922 E.01826
G1 X57.339 Y75.869 E.00976
G1 X57.852 Y75.806 E.01865
G1 X133.731 Y75.811 E2.73969
G1 X134.322 Y75.859 E.0214
G1 X134.811 Y76.007 E.01845
G1 X135.257 Y76.246 E.01826
G1 X135.648 Y76.567 E.01826
G1 X135.969 Y76.958 E.01826
G1 X136.207 Y77.404 E.01826
G1 X136.354 Y77.888 E.01826
G1 X136.409 Y78.584 E.02522
G1 X136.409 Y95.556 E.61279
G1 X136.429 Y96.008 E.01634
;WIDTH:0.460841
G1 X136.448 Y96.461 E.01494
G1 X136.303 Y96.06 E.01407
;WIDTH:0.499999
G1 X136.159 Y95.659 E.01539
G1 X135.802 Y95.466 E.01464
G1 E-3.5 F1800
;WIPE_START
G1 F900
G1 X135.569 Y95.34 E-.26466
G1 X135.193 Y95.287 E-.37999
G1 X134.338 Y95.288 E-.85535
;WIPE_END
G17
G3 Z.6 I.274 J-1.186 P1  F9000
G1 X55.131 Y76.986 Z.6
G1 Z.2
G1 E5 F1800
G1 F900
G1 X55.142 Y76.959 E.00109
G1 X55.474 Y76.463 E.02151
G1 X55.895 Y76.042 E.02151
G1 X56.39 Y75.711 E.02151
G1 X56.941 Y75.483 E.02151
G1 X57.322 Y75.407 E.01403
G1 X57.841 Y75.348 E.01884
G1 X133.898 Y75.354 E2.74614
M73 P3 R19
G1 X134.413 Y75.409 E.0187
G1 X134.986 Y75.583 E.02162
G1 X135.512 Y75.864 E.02151
G1 X135.972 Y76.242 E.02151
G1 X136.35 Y76.703 E.02151
G1 X136.631 Y77.228 E.02151
G1 X136.804 Y77.798 E.02151
G1 X136.866 Y78.584 E.02846
G1 X136.866 Y112.357 E1.2194
G1 X136.804 Y112.984 E.02276
G1 X136.631 Y113.555 E.02151
G1 X136.35 Y114.08 E.02151
G1 X135.972 Y114.541 E.02151
G1 X135.512 Y114.919 E.02151
G1 X134.98 Y115.203 E.02177
G1 X134.316 Y115.381 E.02483
G1 X133.806 Y115.434 E.01851
G1 X57.992 Y115.434 E2.73733
M73 P3 R18
G1 X57.615 Y115.416 E.01362
G1 X56.928 Y115.298 E.02517
G1 X56.462 Y115.101 E.01828
G1 X55.898 Y114.744 E.0241
G1 X55.474 Y114.32 E.02166
G1 X55.142 Y113.824 E.02151
G1 X54.912 Y113.267 E.02177
G1 X54.825 Y112.873 E.01456
G1 X54.78 Y112.361 E.01856
G1 X54.78 Y78.541 E1.22112
M73 P4 R18
G1 X54.798 Y78.181 E.01299
G1 X54.913 Y77.513 E.02449
G1 X55.116 Y77.023 E.01913
G1 X54.709 Y76.811 F9000
;TYPE:Outer wall
G1 F900
G1 X54.737 Y76.742 E.00271
G1 X55.119 Y76.172 E.02477
G1 X55.604 Y75.687 E.02476
G1 X56.174 Y75.306 E.02477
G1 X56.808 Y75.043 E.02476
G1 X57.233 Y74.959 E.01565
G1 X57.829 Y74.891 E.02168
G1 X133.923 Y74.897 E2.74743
G1 X134.505 Y74.959 E.02114
G1 X135.162 Y75.159 E.0248
G1 X135.767 Y75.482 E.02477
G1 X136.297 Y75.917 E.02476
G1 X136.732 Y76.447 E.02476
G1 X137.056 Y77.052 E.02477
G1 X137.255 Y77.709 E.02476
G1 X137.323 Y78.584 E.03171
G1 X137.323 Y112.38 E1.22021
G1 X137.255 Y113.074 E.02519
G1 X137.056 Y113.73 E.02476
G1 X136.732 Y114.335 E.02477
G1 X136.297 Y114.865 E.02476
G1 X135.767 Y115.301 E.02476
G1 X135.398 Y115.498 E.01509
G1 X134.904 Y115.709 E.01943
G1 X134.399 Y115.83 E.01872
G1 X133.817 Y115.891 E.02115
G1 X57.972 Y115.891 E2.73844
M73 P5 R18
G1 X57.349 Y115.854 E.02255
G1 X56.639 Y115.68 E.02638
G1 X56.06 Y115.409 E.02309
G1 X55.604 Y115.097 E.01994
G1 X55.119 Y114.611 E.02481
G1 X54.737 Y114.041 E.02477
G1 X54.474 Y113.405 E.02484
G1 X54.372 Y112.943 E.01709
G1 X54.323 Y112.381 E.02036
G1 X54.323 Y78.541 E1.22184
G1 X54.36 Y77.917 E.02255
G1 X54.474 Y77.377 E.01994
G1 X54.693 Y76.848 E.02066
G1 E-3.5 F1800
;WIPE_START
G1 F900
G1 X54.737 Y76.742 E-.11514
G1 X55.119 Y76.172 E-.68591
G1 X55.604 Y75.687 E-.6859
G1 X55.614 Y75.679 E-.01306
;WIPE_END
G17
G3 Z.6 I-.298 J1.18 P1  F9000
G1 X135.578 Y95.842 Z.6
G1 Z.2
G1 E5 F1800
;TYPE:Inner wall
G1 F900
G1 X135.833 Y95.979 E.01046
G1 X136.03 Y96.461 E.01877
G1 X136.03 Y100.522 E.14665
G1 X136.02 Y100.641 E.00429
G1 X135.833 Y101.003 E.01473
G1 X135.479 Y101.194 E.01452
G1 X135.193 Y101.238 E.01046
G1 X103.067 Y101.235 E1.15993
G1 X103.067 Y103.55 E.08356
G1 X103.011 Y103.822 E.01006
G1 X102.824 Y104.073 E.01127
G1 X102.547 Y104.215 E.01127
G1 X102.382 Y104.235 E.006
G1 X56.453 Y104.238 E1.65828
M73 P6 R18
G1 X56.167 Y104.194 E.01046
G1 X55.813 Y104.003 E.01452
G1 X55.626 Y103.641 E.01473
G1 X55.616 Y96.461 E.25925
G1 X55.813 Y95.979 E.01877
G1 X56.167 Y95.788 E.01452
G1 X56.453 Y95.745 E.01046
G1 X70.579 Y95.747 E.51002
G1 X70.579 Y84.933 E.39046
G1 X70.628 Y84.679 E.00933
G1 X70.813 Y84.418 E.01156
G1 X71.063 Y84.278 E.01035
G1 X71.265 Y84.247 E.00738
G1 X108.382 Y84.247 E1.34013
G1 X108.682 Y84.317 E.01113
G1 X108.903 Y84.488 E.01011
G1 X109.044 Y84.757 E.01096
G1 X109.067 Y85.55 E.02862
G1 X109.067 Y95.747 E.3682
G1 X135.193 Y95.745 E.9433
G1 X135.479 Y95.788 E.01046
G1 X135.543 Y95.823 E.00261
G1 X135.39 Y96.236 F9000
;TYPE:Outer wall
G1 F900
G1 X135.507 Y96.3 E.00484
G1 X135.573 Y96.461 E.00626
G1 X135.573 Y100.522 E.14665
G1 X135.507 Y100.683 E.00626
G1 X135.193 Y100.781 E.0119
G1 X102.61 Y100.778 E1.17644
G1 X102.61 Y103.55 E.10007
G1 X102.547 Y103.708 E.00614
G1 X102.381 Y103.778 E.00649
G1 X56.453 Y103.781 E1.65828
M73 P7 R18
G1 X56.257 Y103.746 E.00721
G1 X56.139 Y103.683 E.00484
G1 X56.073 Y103.522 E.00626
G1 X56.073 Y96.461 E.25497
G1 X56.139 Y96.3 E.00626
G1 X56.453 Y96.202 E.0119
G1 X71.036 Y96.204 E.52653
G1 X71.036 Y84.933 E.40696
G1 X71.093 Y84.782 E.00583
G1 X71.231 Y84.707 E.00565
G1 X108.381 Y84.705 E1.34137
G1 X108.535 Y84.763 E.00592
G1 X108.609 Y84.915 E.00609
G1 X108.61 Y96.204 E.40763
G1 X135.193 Y96.202 E.9598
G1 X135.35 Y96.229 E.00576
G1 X136.448 Y96.461 F9000
;TYPE:Inner wall
;WIDTH:0.421682
G1 F900
G1 X136.448 Y100.522 E.12152
;WIDTH:0.438404
G1 X136.44 Y100.714 E.00601
G1 E-3.5 F1800
;WIPE_START
G1 F900
G1 X136.448 Y100.522 E-.1923
G1 X136.448 Y99.214 E-1.3077
;WIPE_END
G17
G3 Z.6 I-.067 J-1.215 P1  F9000
G1 X55.207 Y103.714 Z.6
G1 Z.2
G1 E5 F1800
;WIDTH:0.438406
M73 P8 R18
G1 F900
G1 X55.198 Y103.522 E.00601
;WIDTH:0.421684
G1 X55.198 Y96.461 E.21128
G1 E-3.5 F1800
;WIPE_START
G1 F900
G1 X55.198 Y97.961 E-1.5
;WIPE_END
G17
G3 Z.6 I-.102 J1.213 P1  F9000
G1 X103.876 Y102.044 Z.6
G1 Z.2
G1 E5 F1800
;TYPE:Bottom surface
;WIDTH:0.499999
G1 F1200
G1 X103.876 Y103.544 E.05413
G1 X103.83 Y103.912 E.0134
G1 X103.74 Y104.168 E.0098
G1 X103.544 Y104.487 E.01352
G1 X103.313 Y104.715 E.01171
G1 X102.868 Y104.959 E.01833
G1 X102.375 Y105.044 E.01806
G1 X56.461 Y105.047 E1.65779
G1 X55.957 Y104.966 E.01843
G1 X55.589 Y104.768 E.01508
G1 X55.589 Y112.32 E.27269
G1 X55.69 Y113.031 E.02593
G1 X55.859 Y113.441 E.01601
G1 X56.102 Y113.804 E.01576
G1 X56.412 Y114.114 E.01583
G1 X56.987 Y114.458 E.0242
G1 X57.534 Y114.599 E.0204
G1 X58.069 Y114.625 E.01932
G1 X133.786 Y114.625 E2.73385
M73 P8 R17
G1 X134.243 Y114.557 E.01667
G1 X134.669 Y114.452 E.01585
G1 X135.06 Y114.243 E.01602
G1 X135.398 Y113.966 E.01576
G1 X135.675 Y113.628 E.01576
G1 X135.88 Y113.243 E.01576
G1 X136.007 Y112.826 E.01576
G1 X136.057 Y112.317 E.01844
G1 X136.057 Y101.768 E.38091
G1 X135.612 Y101.992 E.018
G1 X135.186 Y102.047 E.01551
G1 X103.916 Y102.044 E1.12902
G1 X104.333 Y102.502 F9000
G1 F1200
G1 X104.333 Y103.544 E.03762
G1 X104.264 Y104.056 E.01865
G1 X104.133 Y104.401 E.01335
G1 X103.873 Y104.803 E.01728
G1 X103.544 Y105.109 E.01622
G1 X103.067 Y105.377 E.01974
G1 X102.375 Y105.501 E.02538
G1 X56.461 Y105.504 E1.65779
M73 P9 R17
G1 X56.046 Y105.454 E.01506
G1 X56.046 Y112.288 E.24673
G1 X56.134 Y112.91 E.02268
G1 X56.361 Y113.369 E.01848
G1 X56.695 Y113.751 E.01832
G1 X57.165 Y114.032 E.01977
G1 X57.771 Y114.158 E.02234
G1 X58.069 Y114.168 E.01076
G1 X133.775 Y114.168 E2.73344
G1 X134.504 Y114.022 E.02686
G1 X134.946 Y113.745 E.01883
G1 X135.293 Y113.373 E.01836
G1 X135.505 Y112.905 E.01857
G1 X135.591 Y112.391 E.0188
G1 X135.6 Y112.198 E.00698
G1 X135.6 Y102.454 E.35181
G1 X135.186 Y102.504 E.01507
G1 X104.373 Y102.502 E1.11252
G1 X104.79 Y102.959 F9000
G1 F1200
G1 X104.79 Y103.544 E.02112
G1 X104.698 Y104.199 E.02391
G1 X104.526 Y104.634 E.0169
G1 X104.203 Y105.12 E.02106
G1 X103.908 Y105.412 E.015
G1 X103.405 Y105.72 E.02128
G1 X103.03 Y105.859 E.01444
G1 X102.375 Y105.958 E.02392
G1 X56.503 Y105.961 E1.65625
G1 X56.503 Y112.256 E.22727
G1 X56.579 Y112.789 E.01942
G1 X56.812 Y113.221 E.01775
G1 X57.111 Y113.467 E.01397
G1 X57.343 Y113.605 E.00976
G1 X57.861 Y113.707 E.01905
G1 X58.069 Y113.711 E.00751
G1 X133.763 Y113.711 E2.73303
M73 P10 R17
G1 X134.339 Y113.592 E.02123
G1 X134.748 Y113.316 E.0178
G1 X134.973 Y113.002 E.01394
G1 X135.106 Y112.647 E.01371
G1 X135.143 Y112.198 E.01624
G1 X135.143 Y102.961 E.33351
G1 X104.83 Y102.959 E1.09447
G1 X105.247 Y103.416 F9000
G1 F1200
G1 X105.202 Y104.024 E.02202
G1 X105.062 Y104.554 E.0198
G1 X104.755 Y105.145 E.02404
G1 X104.351 Y105.626 E.02266
G1 X104.006 Y105.898 E.01586
G1 X103.386 Y106.233 E.02544
G1 X102.659 Y106.39 E.02687
G1 X102.375 Y106.416 E.01028
G1 X56.96 Y106.418 E1.63974
G1 X56.96 Y112.224 E.20961
G1 X57.052 Y112.737 E.01883
G1 X57.209 Y112.972 E.01018
G1 X57.521 Y113.179 E.01353
G1 X57.972 Y113.254 E.01651
G1 X133.752 Y113.254 E2.73612
M73 P11 R17
G1 X134.174 Y113.161 E.0156
G1 X134.423 Y112.992 E.01088
G1 X134.607 Y112.716 E.01196
G1 X134.686 Y112.25 E.01707
G1 X134.686 Y103.418 E.31888
G1 X105.287 Y103.416 E1.06146
G1 X105.68 Y103.873 F9000
G1 F1200
G1 X105.566 Y104.487 E.02254
G1 X105.312 Y105.101 E.024
G1 X105.001 Y105.593 E.021
G1 X104.476 Y106.128 E.02708
G1 X103.867 Y106.509 E.02593
G1 X103.546 Y106.661 E.01284
G1 X102.74 Y106.84 E.02981
G1 X102.375 Y106.873 E.01322
G1 X57.418 Y106.875 E1.62324
G1 X57.418 Y112.192 E.19195
G1 X57.501 Y112.607 E.0153
G1 X57.699 Y112.753 E.00887
G1 X58.069 Y112.797 E.01345
G1 X133.741 Y112.797 E2.73223
G1 X134.076 Y112.685 E.01275
G1 X134.195 Y112.502 E.00788
G1 X134.229 Y112.198 E.01103
G1 X134.229 Y103.875 E.3005
G1 X105.72 Y103.873 E1.02933
G1 X106.066 Y104.33 F9000
G1 F1200
G1 X105.93 Y104.842 E.01912
G1 X105.705 Y105.334 E.01955
G1 X105.362 Y105.874 E.02309
G1 X105.01 Y106.259 E.01883
G1 X104.468 Y106.686 E.02493
G1 X103.706 Y107.09 E.03114
G1 X102.821 Y107.29 E.03275
G1 X102.375 Y107.33 E.01616
G1 X57.875 Y107.333 E1.60674
M73 P12 R17
G1 X57.875 Y112.16 E.17428
G1 X57.91 Y112.335 E.00648
G1 X58.069 Y112.34 E.00571
G1 X133.687 Y112.34 E2.73026
G1 X133.76 Y112.322 E.00273
G1 X133.772 Y104.332 E.28846
G1 X106.106 Y104.33 E.99889
G1 X106.429 Y104.787 F9000
G1 F1200
G1 X106.098 Y105.568 E.03061
G1 X105.722 Y106.155 E.02517
G1 X105.34 Y106.576 E.02053
G1 X105.045 Y106.844 E.01441
G1 X104.33 Y107.298 E.03058
G1 X103.866 Y107.518 E.01854
G1 X103.355 Y107.658 E.01914
G1 X102.375 Y107.787 E.03566
G1 X58.332 Y107.79 E1.59024
G1 X58.332 Y111.883 E.14779
G1 X133.315 Y111.883 E2.70733
M73 P13 R17
G1 X133.315 Y104.79 E.25611
G1 X106.469 Y104.787 E.96927
G1 X106.745 Y105.244 F9000
G1 F1200
G1 X106.491 Y105.801 E.02208
G1 X106.083 Y106.435 E.02725
G1 X105.67 Y106.892 E.02224
G1 X105.329 Y107.202 E.01663
G1 X104.561 Y107.692 E.0329
G1 X104.025 Y107.946 E.0214
G1 X103.436 Y108.108 E.02208
G1 X102.375 Y108.244 E.03859
G1 X58.789 Y108.247 E1.57374
G1 X58.789 Y111.426 E.11478
G1 X132.858 Y111.426 E2.67432
M73 P13 R16
G1 X132.858 Y105.247 E.2231
G1 X106.785 Y105.244 E.94137
M73 P14 R16
G1 X107.036 Y105.701 F9000
G1 F1200
G1 X106.72 Y106.311 E.0248
G1 X106.444 Y106.716 E.01771
G1 X105.999 Y107.209 E.02394
G1 X105.613 Y107.56 E.01885
G1 X105.162 Y107.87 E.01977
G1 X104.185 Y108.374 E.03969
G1 X103.517 Y108.558 E.02503
G1 X103.046 Y108.643 E.01725
G1 X102.375 Y108.701 E.02432
G1 X59.246 Y108.704 E1.55723
G1 X59.246 Y110.969 E.08178
G1 X132.4 Y110.969 E2.64132
G1 X132.4 Y105.704 E.1901
G1 X107.076 Y105.701 E.91436
G1 X107.327 Y106.158 F9000
G1 F1200
G1 X107.113 Y106.545 E.01594
G1 X106.804 Y106.997 E.01979
G1 X106.329 Y107.525 E.02564
G1 X105.898 Y107.918 E.02106
G1 X105.393 Y108.264 E.0221
G1 X104.345 Y108.803 E.04254
G1 X103.598 Y109.008 E.02797
G1 X103.125 Y109.093 E.01733
G1 X102.375 Y109.158 E.02718
G1 X59.703 Y109.161 E1.54073
G1 X59.703 Y110.512 E.04877
