; HEADER_BLOCK_START
; generated by OrcaSlicer 1.7.0 on 2023-12-19 at 14:34:55
; total layer number: 75
; HEADER_BLOCK_END

; THUMBNAIL_BLOCK_START
; THUMBNAIL_BLOCK_END

; external perimeters extrusion width = 0.40mm
; perimeters extrusion width = 0.45mm
; infill extrusion width = 0.45mm
; solid infill extrusion width = 0.40mm
; top infill extrusion width = 0.40mm
; first layer extrusion width = 0.50mm

; external perimeters extrusion width = 0.40mm
; perimeters extrusion width = 0.45mm
; infill extrusion width = 0.45mm
; solid infill extrusion width = 0.40mm
; top infill extrusion width = 0.40mm
; first layer extrusion width = 0.50mm

; external perimeters extrusion width = 0.40mm
; perimeters extrusion width = 0.45mm
; infill extrusion width = 0.45mm
; solid infill extrusion width = 0.40mm
; top infill extrusion width = 0.40mm
; first layer extrusion width = 0.50mm

; external perimeters extrusion width = 0.40mm
; perimeters extrusion width = 0.45mm
; infill extrusion width = 0.45mm
; solid infill extrusion width = 0.40mm
; top infill extrusion width = 0.40mm
; first layer extrusion width = 0.50mm

; external perimeters extrusion width = 0.40mm
; perimeters extrusion width = 0.45mm
; infill extrusion width = 0.45mm
; solid infill extrusion width = 0.40mm
; top infill extrusion width = 0.40mm
; first layer extrusion width = 0.50mm

; external perimeters extrusion width = 0.40mm
; perimeters extrusion width = 0.45mm
; infill extrusion width = 0.45mm
; solid infill extrusion width = 0.40mm
; top infill extrusion width = 0.40mm
; first layer extrusion width = 0.50mm

; EXECUTABLE_BLOCK_START
EXCLUDE_OBJECT_DEFINE NAME=Ender_3_Cable_Chain_Link_v2~recovered_-_Ender_3_Cable_Chain_Link_v2~recovered_.stl_id_0_copy_0 CENTER=131.9,125.5 POLYGON=[[117.9,113],[118.402,112.5],[136.67,112.5],[140.898,113.5],[145.9,115.34],[145.9,135.66],[140.898,137.5],[136.67,138.5],[118.402,138.5],[117.9,138],[117.9,113]]
EXCLUDE_OBJECT_DEFINE NAME=Ender_3_Cable_Chain_Link_v2~recovered_-_Ender_3_Cable_Chain_Link_v2~recovered_.stl_id_1_copy_0 CENTER=131.9,94.5 POLYGON=[[117.9,82],[118.402,81.5],[136.67,81.5],[140.898,82.5002],[145.9,84.34],[145.9,104.66],[140.898,106.5],[136.67,107.5],[118.402,107.5],[117.9,107],[117.9,82]]
EXCLUDE_OBJECT_DEFINE NAME=Ender_3_Cable_Chain_Link_v2~recovered_-_Ender_3_Cable_Chain_Link_v2~recovered_.stl_id_2_copy_0 CENTER=98.9,94.5 POLYGON=[[84.9,82],[85.4024,81.5],[103.67,81.5],[107.898,82.5002],[112.9,84.34],[112.9,104.66],[107.898,106.5],[103.67,107.5],[85.4024,107.5],[84.9,107],[84.9,82]]
EXCLUDE_OBJECT_DEFINE NAME=Ender_3_Cable_Chain_Clip_-_Unsaved_.stl_id_3_copy_0 CENTER=99.9,115.4 POLYGON=[[86.9,112.5],[112.9,112.5],[112.9,118.3],[86.9,118.3],[86.9,112.5]]
EXCLUDE_OBJECT_DEFINE NAME=Ender_3_Cable_Chain_Clip_-_Unsaved_.stl_id_4_copy_0 CENTER=99.9,126.2 POLYGON=[[86.9,123.3],[112.9,123.3],[112.9,129.1],[86.9,129.1],[86.9,123.3]]
EXCLUDE_OBJECT_DEFINE NAME=Ender_3_Cable_Chain_Clip_-_Unsaved_.stl_id_5_copy_0 CENTER=77,110.643 POLYGON=[[74.1,97.6425],[79.9,97.6425],[79.9,123.643],[74.1,123.643],[74.1,97.6425]]
M73 P0 R75
;TYPE:Custom
START_PRINT EXTRUDER_TEMP=255  BED_TEMP=80
G90
G21
M83 ; use relative distances for extrusion
; filament start gcode
M106 S0
;LAYER_CHANGE
;Z:0.3
;HEIGHT:0.3
;BEFORE_LAYER_CHANGE
;0.3
G92 E0

G1 E-5 F1800
;_SET_FAN_SPEED_CHANGING_LAYER
; printing object Ender 3 Cable Chain Link (v2~recovered) - Ender 3 Cable Chain Link (v2~recovered).stl id:1 copy 0
EXCLUDE_OBJECT_START NAME=Ender_3_Cable_Chain_Link_v2~recovered_-_Ender_3_Cable_Chain_Link_v2~recovered_.stl_id_1_copy_0
G1 X137.257 Y85.429 F9000
G1 Z.4
G1 Z.3
G1 E5 F1800
;TYPE:Inner wall
;WIDTH:0.5
G1 F900
G1 X137.417 Y85.461 E.00845
G1 X138.779 Y85.461 E.07029
G1 X138.734 Y85.948 E.02522
G1 X138.734 Y103.052 E.88286
G1 X138.779 Y103.345 E.01528
G1 X138.779 Y103.539 E.01001
G1 X137.177 Y103.566 E.08271
G1 X136.761 Y103.758 E.02363
G1 X136.719 Y103.844 E.00492
G1 X128.67 Y103.844 E.41544
G1 X128.67 Y85.156 E.96458
G1 X136.719 Y85.156 E.41544
G1 X136.761 Y85.242 E.00492
G1 X136.996 Y85.377 E.01398
G1 X137.217 Y85.421 E.01165
G1 X137.337 Y85.009 F9000
G1 F900
G1 X137.417 Y85.026 E.00423
G1 X139.214 Y85.026 E.09277
G1 X139.214 Y85.618 E.03058
G1 X139.17 Y85.948 E.01718
G1 X139.17 Y103.052 E.88286
G1 X139.214 Y103.241 E.01003
G1 X139.214 Y103.974 E.03784
G1 X137.273 Y103.991 E.10022
G1 X137.024 Y104.106 E.01418
G1 X136.937 Y104.279 E.00999
G1 X128.234 Y104.279 E.44921
G1 X128.234 Y84.721 E1.00955
G1 X136.937 Y84.721 E.44921
G1 X137.024 Y84.894 E.00999
G1 X137.164 Y84.975 E.00839
G1 X137.298 Y85.002 E.00701
G1 X137.417 Y84.59 F9000
;TYPE:Outer wall
G1 F900
G1 X139.65 Y84.59 E.11526
G1 X139.65 Y85.862 E.06566
G1 X139.606 Y85.948 E.00498
G1 X139.606 Y103.052 E.88286
G1 X139.65 Y103.138 E.00498
G1 X139.65 Y104.41 E.06566
G1 X137.333 Y104.427 E.1196
G1 X137.199 Y104.628 E.01245
G1 X137.199 Y104.715 E.0045
G1 X127.799 Y104.715 E.48522
M73 P0 R74
G1 X127.799 Y84.285 E1.05452
G1 X137.199 Y84.285 E.48522
G1 X137.199 Y84.372 E.0045
G1 X137.286 Y84.546 E.01003
G1 X137.379 Y84.577 E.00508
G1 X137.158 Y85.768 F9000
;TYPE:Bottom surface
;WIDTH:0.5
G1 F1200
G1 X137.265 Y85.875 E.00779
G1 X137.35 Y85.79 E.00623
G1 X137.959 Y85.797 F9000
G1 F1200
G1 X137.881 Y85.875 E.00573
G1 X138.189 Y86.183 E.02249
G1 X138.399 Y85.973 E.01533
G1 X138.399 Y86.589 F9000
G1 F1200
G1 X137.881 Y87.107 E.03782
G1 X138.189 Y87.415 E.02248
G1 X138.399 Y87.205 E.01533
G1 X138.399 Y89.053 F9000
G1 F1200
G1 X137.881 Y89.572 E.03782
G1 X138.189 Y89.88 E.02248
G1 X138.399 Y89.669 E.01533
G1 X138.399 Y91.518 F9000
G1 F1200
G1 X138.189 Y91.728 E.01533
G1 X138.399 Y91.938 E.01533
G1 X138.399 Y92.134 F9000
G1 F1200
G1 X138.189 Y92.344 E.01533
G1 X137.265 Y91.42 E.06746
G1 X137.573 Y91.112 E.02249
G1 X137.881 Y91.42 E.02248
G1 X138.399 Y90.902 E.03782
G1 X138.399 Y90.706 F9000
G1 F1200
G1 X138.189 Y90.496 E.01533
G1 X137.881 Y90.804 E.02248
G1 X137.573 Y90.496 E.02249
G1 X137.881 Y90.188 E.02248
G1 X137.573 Y89.88 E.02248
G1 X136.957 Y90.496 E.04497
G1 X137.265 Y90.804 E.02248
G1 X136.957 Y91.112 E.02249
G1 X136.649 Y90.804 E.02248
G1 X136.033 Y91.42 E.04497
G1 X136.341 Y91.728 E.02248
G1 X136.649 Y91.42 E.02249
G1 X137.265 Y92.036 E.04497
G1 X136.957 Y92.344 E.02249
G1 X136.649 Y92.036 E.02248
G1 X136.341 Y92.344 E.02248
G1 X136.649 Y92.652 E.02248
G1 X136.341 Y92.96 E.02249
G1 X135.725 Y92.344 E.04497
G1 X136.033 Y92.036 E.02249
G1 X135.725 Y91.728 E.02248
G1 X135.417 Y92.036 E.02249
G1 X134.8 Y91.42 E.04497
G1 X135.109 Y91.112 E.02249
G1 X135.417 Y91.42 E.02248
G1 X136.033 Y90.804 E.04497
G1 X135.725 Y90.496 E.02248
G1 X135.417 Y90.804 E.02249
G1 X135.109 Y90.496 E.02249
G1 X135.417 Y90.188 E.02249
G1 X135.109 Y89.88 E.02248
G1 X134.492 Y90.496 E.04497
G1 X134.8 Y90.804 E.02248
G1 X134.492 Y91.112 E.02249
G1 X133.876 Y90.496 E.04497
G1 X134.184 Y90.188 E.02249
G1 X133.876 Y89.88 E.02249
G1 X133.568 Y90.188 E.02249
G1 X132.952 Y89.572 E.04497
G1 X133.26 Y89.263 E.02249
G1 X133.568 Y89.572 E.02249
G1 X133.876 Y89.264 E.02248
G1 X133.568 Y88.955 E.02249
G1 X133.876 Y88.647 E.02249
G1 X134.492 Y89.263 E.04497
G1 X134.184 Y89.572 E.02249
G1 X134.492 Y89.88 E.02249
G1 X135.417 Y88.955 E.06746
G1 X135.109 Y88.647 E.02249
G1 X134.8 Y88.955 E.02249
G1 X134.184 Y88.339 E.04497
G1 X134.492 Y88.031 E.02249
G1 X134.8 Y88.339 E.02249
G1 X135.109 Y88.031 E.02248
G1 X134.8 Y87.723 E.02249
G1 X135.109 Y87.415 E.02248
G1 X135.725 Y88.031 E.04497
G1 X135.417 Y88.339 E.02248
G1 X135.725 Y88.647 E.02249
G1 X136.033 Y88.339 E.02249
G1 X136.649 Y88.955 E.04497
G1 X136.341 Y89.263 E.02248
G1 X136.033 Y88.955 E.02248
G1 X135.417 Y89.572 E.04497
G1 X135.725 Y89.88 E.02248
G1 X136.033 Y89.572 E.02249
G1 X136.341 Y89.88 E.02249
G1 X136.033 Y90.188 E.02249
G1 X136.341 Y90.496 E.02248
G1 X136.957 Y89.88 E.04497
G1 X136.649 Y89.572 E.02248
G1 X136.957 Y89.264 E.02248
G1 X137.265 Y89.572 E.02248
G1 X137.573 Y89.263 E.02249
G1 X137.265 Y88.955 E.02248
G1 X137.573 Y88.647 E.02248
G1 X137.881 Y88.955 E.02248
G1 X138.399 Y88.437 E.03782
G1 X138.399 Y88.241 F9000
G1 F1200
G1 X138.189 Y88.031 E.01533
G1 X137.881 Y88.339 E.02248
G1 X137.573 Y88.031 E.02249
G1 X137.881 Y87.723 E.02248
G1 X137.573 Y87.415 E.02248
G1 X136.957 Y88.031 E.04497
G1 X137.265 Y88.339 E.02248
G1 X136.957 Y88.647 E.02248
G1 X136.341 Y88.031 E.04497
G1 X136.649 Y87.723 E.02249
G1 X136.341 Y87.415 E.02249
G1 X136.033 Y87.723 E.02248
G1 X135.417 Y87.107 E.04497
G1 X135.725 Y86.799 E.02248
G1 X136.033 Y87.107 E.02249
G1 X136.341 Y86.799 E.02249
G1 X136.033 Y86.491 E.02249
G1 X136.341 Y86.183 E.02248
G1 X136.957 Y86.799 E.04497
G1 X136.649 Y87.107 E.02248
G1 X136.957 Y87.415 E.02249
G1 X137.881 Y86.491 E.06746
G1 X137.573 Y86.183 E.02249
G1 X137.265 Y86.491 E.02248
G1 X136.649 Y85.875 E.04497
G1 X136.848 Y85.676 E.01452
G1 X136.416 Y85.492 F9000
G1 F1200
G1 X136.341 Y85.567 E.00551
G1 X136.265 Y85.492 E.00551
G1 X135.033 Y85.492 F9000
G1 F1200
G1 X135.109 Y85.567 E.00551
G1 X135.184 Y85.492 E.00551
G1 X135.649 Y85.492 F9000
G1 F1200
G1 X136.033 Y85.875 E.028
G1 X135.725 Y86.183 E.02249
G1 X135.417 Y85.875 E.02249
G1 X135.109 Y86.183 E.02249
G1 X135.417 Y86.491 E.02249
G1 X135.109 Y86.799 E.02249
G1 X134.492 Y86.183 E.04497
G1 X134.8 Y85.875 E.02249
G1 X134.492 Y85.567 E.02249
G1 X134.184 Y85.875 E.02248
G1 X133.801 Y85.492 E.028
G1 X132.72 Y85.492 F9000
G1 F1200
G1 X132.644 Y85.567 E.00551
G1 X132.569 Y85.492 E.00551
G1 X132.104 Y85.492 F9000
G1 F1200
G1 X131.72 Y85.875 E.028
G1 X132.028 Y86.183 E.02248
G1 X132.336 Y85.875 E.02249
G1 X132.644 Y86.183 E.02249
G1 X132.336 Y86.491 E.02249
G1 X132.644 Y86.799 E.02249
G1 X133.26 Y86.183 E.04497
G1 X132.952 Y85.875 E.02249
G1 X133.26 Y85.567 E.02248
G1 X133.876 Y86.183 E.04497
G1 X133.568 Y86.491 E.02248
G1 X133.876 Y86.799 E.02249
G1 X134.184 Y86.491 E.02249
G1 X134.8 Y87.107 E.04497
G1 X134.492 Y87.415 E.02249
G1 X134.184 Y87.107 E.02249
G1 X133.876 Y87.415 E.02248
G1 X134.184 Y87.723 E.02249
G1 X133.876 Y88.031 E.02249
G1 X133.26 Y87.415 E.04497
G1 X133.568 Y87.107 E.02249
G1 X133.26 Y86.799 E.02249
G1 X132.336 Y87.723 E.06746
G1 X132.644 Y88.031 E.02249
G1 X132.952 Y87.723 E.02249
G1 X133.568 Y88.339 E.04497
G1 X133.26 Y88.647 E.02249
G1 X132.952 Y88.339 E.02249
G1 X132.644 Y88.647 E.02248
G1 X132.952 Y88.955 E.02249
G1 X132.644 Y89.264 E.02249
G1 X132.028 Y88.647 E.04497
G1 X132.336 Y88.339 E.02249
G1 X132.028 Y88.031 E.02249
G1 X131.72 Y88.339 E.02249
G1 X131.104 Y87.723 E.04497
G1 X131.412 Y87.415 E.02249
G1 X131.72 Y87.723 E.02248
G1 X132.336 Y87.107 E.04497
G1 X132.028 Y86.799 E.02249
G1 X131.72 Y87.107 E.02249
G1 X131.412 Y86.799 E.02249
G1 X131.72 Y86.491 E.02249
G1 X131.412 Y86.183 E.02249
G1 X130.796 Y86.799 E.04497
G1 X131.104 Y87.107 E.02249
G1 X130.796 Y87.415 E.02249
G1 X130.18 Y86.799 E.04497
G1 X130.488 Y86.491 E.02249
G1 X130.18 Y86.183 E.02249
G1 X129.872 Y86.491 E.02249
G1 X129.256 Y85.875 E.04497
G1 X129.564 Y85.567 E.02249
G1 X129.872 Y85.875 E.02249
G1 X130.18 Y85.567 E.02249
G1 X130.105 Y85.492 E.00551
G1 X130.721 Y85.492 F9000
G1 F1200
G1 X130.796 Y85.567 E.00551
G1 X130.488 Y85.875 E.02249
G1 X130.796 Y86.183 E.02248
G1 X131.412 Y85.567 E.04497
G1 X131.337 Y85.492 E.00551
G1 E-3.5 F1800
;WIPE_START
G1 F1200
G1 X131.412 Y85.567 E-.32029
G1 X131.134 Y85.845 E-1.17971
;WIPE_END
G17
G3 Z.7 I.201 J-1.2 P1  F9000
G1 X129.023 Y85.492 Z.7
G1 Z.3
G1 E5 F1800
G1 F1200
G1 X129.005 Y85.51 E.00131
G1 X129.005 Y86.241 F9000
G1 F1200
G1 X129.564 Y86.799 E.04077
G1 X129.256 Y87.107 E.02249
G1 X129.564 Y87.415 E.02248
G1 X129.872 Y87.107 E.02249
G1 X130.488 Y87.723 E.04497
G1 X130.18 Y88.031 E.02249
G1 X129.872 Y87.723 E.02248
G1 X129.256 Y88.339 E.04497
G1 X129.564 Y88.647 E.02249
G1 X129.872 Y88.339 E.02248
G1 X130.18 Y88.647 E.02249
G1 X129.872 Y88.955 E.02249
G1 X130.18 Y89.263 E.02249
G1 X130.796 Y88.647 E.04497
G1 X130.488 Y88.339 E.02249
G1 X130.796 Y88.031 E.02249
G1 X131.412 Y88.647 E.04497
G1 X131.104 Y88.955 E.02249
G1 X131.412 Y89.264 E.02249
G1 X131.72 Y88.955 E.02249
G1 X132.336 Y89.572 E.04497
G1 X132.028 Y89.88 E.02249
G1 X131.72 Y89.572 E.02249
G1 X131.412 Y89.88 E.02248
G1 X131.72 Y90.188 E.02249
G1 X131.412 Y90.496 E.02248
G1 X130.796 Y89.88 E.04497
G1 X131.104 Y89.572 E.02248
G1 X130.796 Y89.263 E.02249
G1 X129.872 Y90.188 E.06746
G1 X130.18 Y90.496 E.02249
G1 X130.488 Y90.188 E.02248
G1 X131.104 Y90.804 E.04497
G1 X130.796 Y91.112 E.02248
G1 X130.488 Y90.804 E.02249
G1 X130.18 Y91.112 E.02249
G1 X130.488 Y91.42 E.02249
G1 X130.18 Y91.728 E.02248
G1 X129.564 Y91.112 E.04497
G1 X129.872 Y90.804 E.02248
G1 X129.564 Y90.496 E.02249
G1 X129.256 Y90.804 E.02248
G1 X129.005 Y90.553 E.01829
G1 X129.005 Y89.937 F9000
G1 F1200
G1 X129.256 Y90.188 E.01829
G1 X129.872 Y89.572 E.04497
G1 X129.564 Y89.264 E.02248
G1 X129.256 Y89.572 E.02249
G1 X129.005 Y89.321 E.01829
G1 X129.005 Y89.206 F9000
G1 F1200
G1 X129.256 Y88.955 E.01829
G1 X129.005 Y88.705 E.01829
G1 X129.005 Y87.974 F9000
G1 F1200
G1 X129.256 Y87.723 E.01829
G1 X129.005 Y87.473 E.01829
G1 E-3.5 F1800
;WIPE_START
G1 F1200
G1 X129.256 Y87.723 E-1.06293
G1 X129.153 Y87.826 E-.43707
;WIPE_END
G17
G3 Z.7 I-1.216 J-.047 P1  F9000
G1 X129.005 Y91.67 Z.7
G1 Z.3
G1 E5 F1800
G1 F1200
G1 X129.256 Y91.42 E.01829
G1 X129.872 Y92.036 E.04497
G1 X129.564 Y92.344 E.02248
G1 X129.256 Y92.036 E.02249
G1 X129.005 Y92.286 E.01829
G1 X129.005 Y92.401 F9000
G1 F1200
G1 X129.256 Y92.652 E.01829
G1 X129.005 Y92.902 E.01829
G1 X129.005 Y93.633 F9000
G1 F1200
G1 X129.564 Y94.192 E.04077
G1 X129.256 Y94.5 E.02249
G1 X129.564 Y94.808 E.02249
G1 X130.488 Y93.884 E.06746
G1 X130.18 Y93.576 E.02249
G1 X129.872 Y93.884 E.02248
G1 X129.256 Y93.268 E.04497
G1 X129.564 Y92.96 E.02248
G1 X129.872 Y93.268 E.02249
G1 X130.18 Y92.96 E.02249
G1 X129.872 Y92.652 E.02249
G1 X130.18 Y92.344 E.02248
G1 X130.796 Y92.96 E.04497
G1 X130.488 Y93.268 E.02248
G1 X130.796 Y93.576 E.02249
G1 X131.104 Y93.268 E.02248
G1 X131.72 Y93.884 E.04497
G1 X131.412 Y94.192 E.02248
G1 X131.104 Y93.884 E.02248
G1 X130.488 Y94.5 E.04497
G1 X130.796 Y94.808 E.02248
G1 X131.104 Y94.5 E.02248
G1 X131.412 Y94.808 E.02249
G1 X131.104 Y95.116 E.02248
G1 X131.412 Y95.424 E.02248
G1 X132.028 Y94.808 E.04497
G1 X131.72 Y94.5 E.02248
G1 X132.028 Y94.192 E.02248
G1 X132.336 Y94.5 E.02248
G1 X132.644 Y94.192 E.02249
G1 X132.336 Y93.884 E.02248
G1 X132.644 Y93.576 E.02248
G1 X132.952 Y93.884 E.02248
G1 X133.568 Y93.268 E.04497
G1 X133.26 Y92.96 E.02248
G1 X132.952 Y93.268 E.02248
G1 X132.644 Y92.96 E.02249
G1 X132.952 Y92.652 E.02248
G1 X132.644 Y92.344 E.02248
G1 X132.028 Y92.96 E.04497
G1 X132.336 Y93.268 E.02248
G1 X132.028 Y93.576 E.02248
G1 X131.412 Y92.96 E.04497
G1 X131.72 Y92.652 E.02248
G1 X131.412 Y92.344 E.02249
G1 X131.104 Y92.652 E.02248
G1 X130.488 Y92.036 E.04497
G1 X130.796 Y91.728 E.02248
G1 X131.104 Y92.036 E.02249
G1 X131.412 Y91.728 E.02249
G1 X131.104 Y91.42 E.02249
G1 X131.412 Y91.112 E.02248
G1 X132.028 Y91.728 E.04497
G1 X131.72 Y92.036 E.02248
G1 X132.028 Y92.344 E.02249
G1 X132.952 Y91.42 E.06746
G1 X132.644 Y91.112 E.02249
G1 X132.336 Y91.42 E.02248
G1 X131.72 Y90.804 E.04497
G1 X132.028 Y90.496 E.02248
G1 X132.336 Y90.804 E.02249
G1 X132.644 Y90.496 E.02248
G1 X132.336 Y90.188 E.02249
G1 X132.644 Y89.88 E.02249
G1 X133.26 Y90.496 E.04497
G1 X132.952 Y90.804 E.02249
G1 X133.26 Y91.112 E.02249
G1 X133.568 Y90.804 E.02249
G1 X134.184 Y91.42 E.04497
G1 X133.876 Y91.728 E.02249
G1 X133.568 Y91.42 E.02248
G1 X132.952 Y92.036 E.04497
G1 X133.26 Y92.344 E.02248
G1 X133.568 Y92.036 E.02248
G1 X133.876 Y92.344 E.02249
G1 X133.568 Y92.652 E.02248
G1 X133.876 Y92.96 E.02248
G1 X134.492 Y92.344 E.04497
G1 X134.184 Y92.036 E.02248
G1 X134.492 Y91.728 E.02249
G1 X135.109 Y92.344 E.04497
G1 X134.8 Y92.652 E.02249
G1 X135.109 Y92.96 E.02248
G1 X135.417 Y92.652 E.02249
G1 X136.033 Y93.268 E.04497
G1 X135.725 Y93.576 E.02249
G1 X135.417 Y93.268 E.02248
G1 X135.109 Y93.576 E.02248
G1 X135.417 Y93.884 E.02248
G1 X135.109 Y94.192 E.02248
G1 X134.492 Y93.576 E.04497
G1 X134.8 Y93.268 E.02248
G1 X134.492 Y92.96 E.02248
G1 X133.876 Y93.576 E.04497
G1 X134.184 Y93.884 E.02248
