; HEADER_BLOCK_START
; generated by OrcaSlicer 1.7.0 on 2023-11-11 at 22:52:02
; total layer number: 70
; HEADER_BLOCK_END

; THUMBNAIL_BLOCK_START
; THUMBNAIL_BLOCK_END

; external perimeters extrusion width = 0.40mm
; perimeters extrusion width = 0.45mm
; infill extrusion width = 0.45mm
; solid infill extrusion width = 0.40mm
; top infill extrusion width = 0.40mm
; first layer extrusion width = 0.50mm

; external perimeters extrusion width = 0.40mm
; perimeters extrusion width = 0.45mm
; infill extrusion width = 0.45mm
; solid infill extrusion width = 0.40mm
; top infill extrusion width = 0.40mm
; first layer extrusion width = 0.50mm

; external perimeters extrusion width = 0.40mm
; perimeters extrusion width = 0.45mm
; infill extrusion width = 0.45mm
; solid infill extrusion width = 0.40mm
; top infill extrusion width = 0.40mm
; first layer extrusion width = 0.50mm

; external perimeters extrusion width = 0.40mm
; perimeters extrusion width = 0.45mm
; infill extrusion width = 0.45mm
; solid infill extrusion width = 0.40mm
; top infill extrusion width = 0.40mm
; first layer extrusion width = 0.50mm

; EXECUTABLE_BLOCK_START
EXCLUDE_OBJECT_DEFINE NAME=Ender_3_Cable_Chain_Link_v2_id_0_copy_0 CENTER=127,129.251 POLYGON=[[114.5,121.606],[116.84,115.502],[137.16,115.502],[139.5,121.606],[139.5,143],[114.5,143],[114.5,121.606]]
EXCLUDE_OBJECT_DEFINE NAME=cableChain_link_v3.stl_id_1_copy_0 CENTER=92.5,129 POLYGON=[[80.5,120.003],[82.34,115],[102.66,115],[104.5,120.003],[104.5,142.7],[104.201,143],[80.7985,143],[80.5,142.7],[80.5,120.003]]
EXCLUDE_OBJECT_DEFINE NAME=cableChain_link_v3.stl_id_2_copy_0 CENTER=92.5,91 POLYGON=[[80.5,82.0025],[82.34,77],[102.66,77],[104.5,82.0025],[104.5,104.7],[104.201,105],[80.7985,105],[80.5,104.7],[80.5,82.0025]]
EXCLUDE_OBJECT_DEFINE NAME=Ender_3_Cable_Chain_Link_v2_id_3_copy_0 CENTER=127,91.7526 POLYGON=[[114.5,84.1081],[116.84,78.0035],[137.16,78.0035],[139.5,84.1081],[139.5,105.502],[114.5,105.502],[114.5,84.1081]]
M73 P0 R64
;TYPE:Custom
START_PRINT EXTRUDER_TEMP=250  BED_TEMP=80
G90
G21
M83 ; use relative distances for extrusion
; filament start gcode
M106 S0
;LAYER_CHANGE
;Z:0.2
;HEIGHT:0.2
;BEFORE_LAYER_CHANGE
;0.2
G92 E0

G1 E-4 F1800
;_SET_FAN_SPEED_CHANGING_LAYER
G1 Z.4 F12000
G1 X72.509 Y73.878
G1 Z.4
G1 Z.2
G1 E4 F1800
;TYPE:Skirt
;WIDTH:0.5
G1 F900
G1 X74.828 Y71.692 E.12111
G1 X77.616 Y70.15 E.12111
G1 X80.7 Y69.348 E.12111
G1 X82.34 Y69.242 E.06244
G1 X102.928 Y69.245 E.78247
G1 X137.428 Y69.971 E1.31151
G1 X140.58 Y70.435 E.12111
G1 X143.519 Y71.668 E.12111
G1 X146.06 Y73.591 E.12111
G1 X148.044 Y76.084 E.12111
G1 X149.339 Y78.964 E.12001
G1 X151.679 Y86.571 E.30249
G1 X152.242 Y90.317 E.14399
G1 X152.242 Y137.085 E1.77748
G1 X151.844 Y140.247 E.12111
G1 X150.674 Y143.211 E.12111
G1 X148.805 Y145.791 E.12111
G1 X146.354 Y147.828 E.12111
G1 X143.474 Y149.192 E.12111
G1 X139.836 Y149.823 E.14035
G1 X104.537 Y150.753 E1.34203
G1 X80.799 Y150.758 E.90221
G1 X77.637 Y150.359 E.12111
G1 X74.673 Y149.189 E.12111
G1 X72.092 Y147.32 E.12111
G1 X70.056 Y144.869 E.12111
G1 X68.692 Y141.989 E.12111
G1 X68.117 Y139.258 E.10607
G1 X67.956 Y136.995 E.08623
G1 X67.956 Y85.482 E1.95783
G1 X68.354 Y82.32 E.12111
G1 X69.164 Y80.067 E.09098
G1 X70.805 Y76.57 E.14682
G1 X72.488 Y73.911 E.11959
G1 X72.876 Y74.159 F12000
G1 F900
G1 X72.898 Y74.125 E.00153
G1 X75.189 Y71.995 E.11891
G1 X77.945 Y70.512 E.11891
G1 X82.34 Y69.699 E.16988
M73 P0 R63
G1 X102.918 Y69.702 E.78211
G1 X137.418 Y70.428 E1.31151
G1 X140.512 Y70.891 E.11891
G1 X143.389 Y72.121 E.11891
G1 X145.862 Y74.038 E.11891
G1 X147.77 Y76.517 E.11891
G1 X148.902 Y79.098 E.10712
G1 X151.242 Y86.705 E.30249
G1 X151.785 Y90.317 E.13882
G1 X151.785 Y137.085 E1.77748
G1 X151.387 Y140.189 E.11891
G1 X150.218 Y143.09 E.11891
G1 X148.353 Y145.603 E.11891
G1 X145.915 Y147.563 E.11891
G1 X143.06 Y148.844 E.11891
G1 X139.824 Y149.367 E.12461
G1 X104.525 Y150.296 E1.34203
G1 X80.799 Y150.301 E.90176
G1 X77.695 Y149.902 E.11891
G1 X74.793 Y148.733 E.11891
G1 X72.281 Y146.869 E.11891
G1 X70.321 Y144.43 E.11891
G1 X69.04 Y141.576 E.11891
G1 X68.572 Y139.214 E.09152
G1 X68.413 Y136.995 E.08454
G1 X68.413 Y85.482 E1.95783
M73 P1 R63
G1 X68.811 Y82.379 E.11891
G1 X69.577 Y80.262 E.08556
G1 X71.219 Y76.765 E.14682
G1 X72.855 Y74.192 E.11586
G1 X73.243 Y74.441 F12000
G1 F900
G1 X73.286 Y74.373 E.00306
G1 X75.55 Y72.299 E.11667
G1 X78.271 Y70.878 E.11667
G1 X82.34 Y70.156 E.15707
G1 X102.909 Y70.159 E.78174
G1 X137.409 Y70.885 E1.31151
G1 X140.443 Y71.347 E.11667
G1 X143.257 Y72.574 E.11667
G1 X145.66 Y74.485 E.11667
G1 X147.49 Y76.949 E.11667
G1 X148.466 Y79.233 E.09439
G1 X150.806 Y86.84 E.30249
G1 X151.328 Y90.317 E.13366
G1 X151.328 Y137.085 E1.77748
G1 X150.93 Y140.129 E.11667
G1 X149.762 Y142.968 E.11667
G1 X147.903 Y145.41 E.11667
G1 X145.478 Y147.292 E.11667
G1 X142.65 Y148.487 E.11667
G1 X139.812 Y148.91 E.10907
G1 X104.513 Y149.84 E1.34203
G1 X80.799 Y149.844 E.9013
G1 X77.755 Y149.445 E.11667
G1 X74.916 Y148.277 E.11667
G1 X72.474 Y146.418 E.11667
G1 X70.592 Y143.993 E.11667
G1 X69.397 Y141.165 E.11667
G1 X69.027 Y139.169 E.07716
G1 X68.87 Y136.995 E.08284
G1 X68.87 Y85.482 E1.95783
G1 X69.269 Y82.438 E.11667
G1 X69.991 Y80.456 E.08019
G1 X71.633 Y76.959 E.14682
G1 X73.221 Y74.474 E.11208
G1 X73.609 Y74.724 F12000
G1 F900
G1 X73.674 Y74.622 E.0046
G1 X75.909 Y72.606 E.11438
G1 X78.595 Y71.248 E.11438
G1 X82.34 Y70.613 E.14437
G1 X102.899 Y70.616 E.78138
G1 X137.399 Y71.342 E1.31151
G1 X140.373 Y71.802 E.11438
G1 X143.122 Y73.027 E.11438
G1 X145.453 Y74.931 E.11438
G1 X147.204 Y77.379 E.11438
G1 X148.029 Y79.367 E.08182
G1 X150.369 Y86.974 E.30249
G1 X150.871 Y90.317 E.12849
G1 X150.871 Y137.085 E1.77748
G1 X150.473 Y140.068 E.11438
G1 X149.306 Y142.842 E.11438
G1 X147.452 Y145.213 E.11438
G1 X145.042 Y147.015 E.11438
G1 X142.243 Y148.121 E.11438
G1 X139.799 Y148.453 E.09372
G1 X104.501 Y149.383 E1.34203
G1 X80.799 Y149.387 E.90084
G1 X77.816 Y148.988 E.11438
G1 X75.041 Y147.821 E.11438
G1 X72.671 Y145.968 E.11438
G1 X70.869 Y143.557 E.11438
G1 X69.763 Y140.758 E.11438
G1 X69.482 Y139.125 E.063
G1 X69.327 Y136.995 E.08115
M73 P2 R63
G1 X69.327 Y85.482 E1.95783
G1 X69.726 Y82.499 E.11438
G1 X70.405 Y80.65 E.07486
G1 X72.046 Y77.153 E.14682
G1 X73.587 Y74.757 E.10826
G1 X73.974 Y75.008 F12000
G1 F900
G1 X74.062 Y74.872 E.00613
G1 X76.267 Y72.916 E.11205
G1 X78.916 Y71.621 E.11205
G1 X82.34 Y71.071 E.1318
G1 X102.89 Y71.073 E.78101
M73 P2 R62
G1 X137.39 Y71.799 E1.31151
G1 X140.302 Y72.258 E.11205
G1 X142.984 Y73.48 E.11205
G1 X145.242 Y75.376 E.11205
G1 X146.91 Y77.807 E.11205
G1 X147.592 Y79.501 E.06942
G1 X149.932 Y87.108 E.30249
G1 X150.414 Y90.317 E.12333
G1 X150.414 Y137.085 E1.77748
G1 X150.016 Y140.006 E.11205
G1 X148.851 Y142.714 E.11205
G1 X147.003 Y145.012 E.11205
G1 X144.608 Y146.731 E.11205
G1 X141.84 Y147.746 E.11205
G1 X139.787 Y147.996 E.07858
G1 X104.489 Y148.926 E1.34203
G1 X80.799 Y148.929 E.90038
G1 X77.877 Y148.531 E.11205
G1 X75.169 Y147.366 E.11205
G1 X72.872 Y145.518 E.11205
G1 X71.153 Y143.123 E.11205
G1 X69.936 Y139.08 E.16047
G1 X69.784 Y136.995 E.07945
G1 X69.784 Y85.482 E1.95783
G1 X70.183 Y82.561 E.11205
G1 X70.819 Y80.844 E.06957
G1 X72.46 Y77.347 E.14682
G1 X73.952 Y75.041 E.10439
G1 X74.338 Y75.293 F12000
G1 F900
G1 X74.449 Y75.124 E.00767
G1 X76.624 Y73.228 E.10966
G1 X79.235 Y71.999 E.10966
G1 X82.34 Y71.528 E.11937
G1 X102.88 Y71.53 E.78065
G1 X137.38 Y72.256 E1.31151
G1 X140.229 Y72.714 E.10966
G1 X142.844 Y73.933 E.10966
G1 X145.026 Y75.82 E.10966
G1 X146.61 Y78.232 E.10966
G1 X147.155 Y79.636 E.05722
G1 X149.495 Y87.243 E.30249
G1 X149.957 Y90.317 E.11816
G1 X149.957 Y137.085 E1.77748
G1 X149.559 Y139.943 E.10966
G1 X148.395 Y142.583 E.10966
G1 X146.554 Y144.805 E.10966
G1 X144.176 Y146.439 E.10966
G1 X141.441 Y147.361 E.10966
G1 X139.775 Y147.539 E.06368
G1 X104.477 Y148.469 E1.34203
G1 X80.799 Y148.472 E.89993
G1 X77.941 Y148.074 E.10966
G1 X75.3 Y146.91 E.10966
G1 X73.079 Y145.069 E.10966
G1 X71.445 Y142.691 E.10966
M73 P3 R62
G1 X70.391 Y139.035 E.14459
G1 X70.241 Y136.995 E.07775
G1 X70.241 Y85.482 E1.95783
G1 X70.64 Y82.624 E.10966
G1 X71.232 Y81.038 E.06433
G1 X72.874 Y77.541 E.14682
G1 X74.317 Y75.326 E.10048
; printing object cableChain_link_v3.stl id:2 copy 0
G1 E-2.8 F1800
;WIPE_START
G1 F900
G1 X74.449 Y75.124 E-.29007
G1 X75.02 Y74.625 E-.90993
;WIPE_END
EXCLUDE_OBJECT_START NAME=cableChain_link_v3.stl_id_2_copy_0
G1 Z.6 F12000
G1 X102.464 Y86.612 Z.6
G1 Z.2
G1 E4 F1800
;TYPE:Inner wall
;WIDTH:0.499999
G1 F900
G1 X102.639 Y86.646 E.00676
G1 X103.137 Y86.646 E.01896
G1 X103.137 Y87.145 E.01896
G1 X103.137 Y94.272 E.2709
G1 X102.881 Y94.187 E.01025
G1 X82.119 Y94.187 E.78912
G1 X81.863 Y94.272 E.01025
G1 X81.863 Y86.646 E.28985
G1 X82.361 Y86.646 E.01896
G1 X82.792 Y86.562 E.01668
G1 X83.037 Y86.425 E.01067
G1 X83.273 Y86.192 E.01261
G1 X83.458 Y85.825 E.01559
G1 X83.504 Y85.503 E.01237
G1 X83.504 Y84.057 E.05496
G1 X83.959 Y84.209 E.0182
G1 X101.041 Y84.209 E.64926
G1 X101.496 Y84.057 E.0182
G1 X101.496 Y85.503 E.05496
G1 X101.542 Y85.825 E.01237
G1 X101.632 Y86.044 E.00898
G1 X101.82 Y86.3 E.0121
G1 X102.208 Y86.562 E.01777
G1 X102.425 Y86.604 E.00841
G1 X102.551 Y86.172 F12000
G1 F900
G1 X102.639 Y86.189 E.00338
G1 X103.594 Y86.189 E.03633
G1 X103.594 Y87.145 E.03633
G1 X103.594 Y94.63 E.28451
;WIDTH:0.527314
G1 X103.581 Y95.33 E.02817
G1 X103.293 Y94.781 E.02495
;WIDTH:0.499999
G1 X102.881 Y94.644 E.01648
G1 X82.119 Y94.644 E.78912
G1 X81.707 Y94.781 E.01648
;WIDTH:0.527314
G1 X81.419 Y95.33 E.02495
G1 X81.406 Y94.63 E.02817
;WIDTH:0.499999
G1 X81.406 Y86.189 E.32084
G1 X82.361 Y86.189 E.03633
G1 X82.62 Y86.138 E.01001
G1 X82.767 Y86.056 E.0064
G1 X82.966 Y85.828 E.01151
G1 X83.047 Y85.503 E.01271
G1 X83.047 Y83.864 E.06228
G1 X83.029 Y83.645 E.00838
;WIDTH:0.463477
G1 X83.011 Y83.425 E.00771
;WIDTH:0.426954
G1 X82.992 Y83.205 E.00704
;WIDTH:0.390431
G1 X82.989 Y82.634 E.0165
;WIDTH:0.38438
G1 X83.331 Y82.634 E.00969
;WIDTH:0.390431
G1 X83.337 Y83.175 E.01563
;WIDTH:0.426954
G1 X83.407 Y83.321 E.00518
;WIDTH:0.463477
G1 X83.477 Y83.468 E.00568
;WIDTH:0.499999
G1 X83.547 Y83.614 E.00617
G1 X83.959 Y83.752 E.01648
G1 X101.041 Y83.752 E.64926
G1 X101.453 Y83.614 E.01648
G1 X101.523 Y83.468 E.00617
;WIDTH:0.463476
G1 X101.593 Y83.321 E.00568
;WIDTH:0.426953
G1 X101.663 Y83.175 E.00518
;WIDTH:0.390429
G1 X101.669 Y82.634 E.01563
;WIDTH:0.384379
G1 X102.011 Y82.634 E.00969
;WIDTH:0.390429
G1 X102.008 Y83.205 E.0165
;WIDTH:0.426953
G1 X101.989 Y83.425 E.00704
;WIDTH:0.463476
G1 X101.971 Y83.645 E.00771
;WIDTH:0.499999
G1 X101.953 Y83.864 E.00838
G1 X101.953 Y84.663 E.03035
G1 X101.981 Y85.696 E.03929
G1 X102.147 Y85.982 E.01255
G1 X102.38 Y86.138 E.01066
G1 X102.512 Y86.164 E.00511
G1 X102.639 Y85.732 F12000
;TYPE:Outer wall
G1 F900
G1 X104.051 Y85.732 E.0537
G1 X104.051 Y87.145 E.0537
G1 X104.051 Y98.983 E.44993
G1 X103.975 Y99.765 E.02988
G1 X103.11 Y99.765 E.03287
G1 X103.11 Y95.33 E.16858
G1 X103.019 Y95.147 E.00777
G1 X102.881 Y95.101 E.00549
G1 X82.119 Y95.101 E.78912
G1 X81.981 Y95.147 E.00549
G1 X81.89 Y95.33 E.00777
G1 X81.89 Y99.765 E.16858
G1 X81.025 Y99.765 E.03287
G1 X80.949 Y98.983 E.02988
G1 X80.949 Y85.732 E.50363
G1 X82.361 Y85.732 E.0537
G1 X82.525 Y85.663 E.00675
G1 X82.59 Y85.503 E.00654
G1 X82.59 Y82.235 E.12422
G1 X83.73 Y82.235 E.04333
G1 X83.73 Y83.066 E.03159
G1 X83.821 Y83.249 E.00777
G1 X83.959 Y83.294 E.00549
G1 X101.041 Y83.294 E.64926
G1 X101.179 Y83.249 E.00549
G1 X101.27 Y83.066 E.00777
G1 X101.27 Y82.235 E.03159
G1 X102.41 Y82.235 E.04333
G1 X102.41 Y85.503 E.12422
G1 X102.475 Y85.663 E.00654
G1 X102.602 Y85.716 E.00523
G1 E-4 F1800
G1 Z.6 F12000
G1 X103.564 Y99.312 Z.6
G1 Z.2
G1 E4 F1800
;TYPE:Inner wall
;WIDTH:0.527314
G1 F900
G1 X103.581 Y98.96 E.01419
G1 X103.581 Y95.33 E.14621
G1 E-2.8 F1800
;WIPE_START
G1 F900
G1 X103.581 Y96.33 E-1.2
;WIPE_END
G1 Z.6 F12000
G1 X102.895 Y95.316 Z.6
G1 X102.029 Y94.898
G1 X101.54 Y94.665
G1 X83.46 Y94.665
G1 X82.971 Y94.898
G1 X82.105 Y95.316
G1 X81.436 Y99.312
G1 Z.2
G1 E4 F1800
G1 F900
G1 X81.419 Y98.96 E.01419
G1 X81.419 Y95.33 E.14621
G1 E-4 F1800
G1 Z.6 F12000
G1 X101.244 Y85.2 Z.6
G1 Z.2
G1 E4 F1800
;TYPE:Bottom surface
;WIDTH:0.5
G1 F1200
G1 X100.504 Y84.46 E.03979
G1 X99.858 Y84.46
G1 X101.306 Y85.908 E.07783
G1 X102.212 Y86.814
G1 X102.886 Y87.488 E.03623
G1 X102.886 Y88.135
G1 X99.211 Y84.46 E.19751
G1 X98.565 Y84.46
G1 X102.886 Y88.781 E.23225
G1 X102.886 Y89.427
G1 X97.918 Y84.46 E.267
G1 X97.272 Y84.46
G1 X102.886 Y90.074 E.30174
G1 X102.886 Y90.72
G1 X96.626 Y84.46 E.33648
M73 P3 R61
G1 X95.979 Y84.46
G1 X102.886 Y91.367 E.37123
G1 X102.886 Y92.013
G1 X95.333 Y84.46 E.40597
G1 X94.686 Y84.46
G1 X102.886 Y92.66 E.44072
G1 X102.886 Y93.306
G1 X94.04 Y84.46 E.47546
G1 X93.394 Y84.46
G1 X102.878 Y93.945 E.5098
G1 X102.232 Y93.945
G1 X92.747 Y84.46 E.5098
G1 X92.101 Y84.46
G1 X101.586 Y93.945 E.5098
G1 X100.939 Y93.945
G1 X91.454 Y84.46 E.5098
G1 X90.808 Y84.46
G1 X100.293 Y93.945 E.5098
G1 X99.646 Y93.945
G1 X90.162 Y84.46 E.5098
G1 X89.515 Y84.46
G1 X99 Y93.945 E.5098
G1 X98.354 Y93.945
G1 X88.869 Y84.46 E.5098
G1 X88.222 Y84.46
G1 X97.707 Y93.945 E.5098
G1 X97.061 Y93.945
G1 X87.576 Y84.46 E.5098
G1 X86.93 Y84.46
G1 X96.414 Y93.945 E.5098
G1 X95.768 Y93.945
G1 X86.283 Y84.46 E.5098
G1 X85.637 Y84.46
G1 X95.121 Y93.945 E.5098
G1 X94.475 Y93.945
G1 X84.99 Y84.46 E.5098
M73 P4 R61
G1 X84.344 Y84.46
G1 X93.829 Y93.945 E.5098
G1 X93.182 Y93.945
G1 X83.756 Y84.518 E.50668
G1 X83.756 Y85.164
G1 X92.536 Y93.945 E.47193
G1 X91.889 Y93.945
G1 X83.717 Y85.772 E.43926
G1 X83.539 Y86.241
G1 X91.243 Y93.945 E.41406
G1 X90.597 Y93.945
G1 X83.236 Y86.584 E.39563
G1 X82.815 Y86.809
G1 X89.95 Y93.945 E.38354
G1 X89.304 Y93.945
G1 X82.256 Y86.897 E.3788
G1 X82.114 Y87.401
G1 X88.657 Y93.945 E.3517
G1 X88.011 Y93.945
G1 X82.114 Y88.048 E.31695
G1 X82.114 Y88.694
G1 X87.365 Y93.945 E.28221
G1 X86.718 Y93.945
G1 X82.114 Y89.341 E.24747
G1 X82.114 Y89.987
G1 X86.072 Y93.945 E.21272
G1 X85.425 Y93.945
G1 X82.114 Y90.633 E.17798
G1 X82.114 Y91.28
G1 X84.779 Y93.945 E.14324
G1 X84.133 Y93.945
G1 X82.114 Y91.926 E.10849
G1 X82.114 Y92.573
G1 X83.486 Y93.945 E.07375
G1 X82.84 Y93.945
G1 X82.114 Y93.219 E.039
; stop printing object cableChain_link_v3.stl id:2 copy 0
; printing object Ender 3 Cable Chain Link v2 id:3 copy 0
G1 E-2.8 F1800
;WIPE_START
G1 F1200
G1 X82.821 Y93.926 E-1.2
;WIPE_END
EXCLUDE_OBJECT_END NAME=cableChain_link_v3.stl_id_2_copy_0
EXCLUDE_OBJECT_START NAME=Ender_3_Cable_Chain_Link_v2_id_3_copy_0
G1 Z.6 F12000
G1 X115.664 Y95.768 Z.6
G1 Z.2
G1 E4 F1800
;TYPE:Inner wall
;WIDTH:0.499999
G1 F900
G1 X115.664 Y91.482 E.16292
G1 X116.861 Y91.482 E.0455
G1 X117.124 Y91.451 E.01004
G1 X117.385 Y91.354 E.01058
G1 X117.603 Y91.208 E.01
G1 X117.77 Y91.032 E.00922
G1 X117.957 Y90.662 E.01574
G1 X118.004 Y90.339 E.01242
G1 X118.004 Y85.061 E.20061
G1 X118.459 Y85.212 E.0182
G1 X135.541 Y85.212 E.64926
G1 X135.996 Y85.061 E.0182
G1 X135.996 Y90.201 E.19538
G1 X136.006 Y90.492 E.01106
G1 X136.114 Y90.845 E.01403
G1 X136.397 Y91.208 E.01747
G1 X136.615 Y91.354 E.01
G1 X136.876 Y91.451 E.01058
G1 X137.139 Y91.482 E.01004
G1 X138.336 Y91.482 E.04551
G1 X138.336 Y92.679 E.04551
G1 X138.336 Y95.768 E.11742
G1 X138.296 Y95.648 E.00483
G1 X137.821 Y95.278 E.02285
G1 X137.381 Y95.19 E.01703
G1 X116.619 Y95.19 E.78912
G1 X116.179 Y95.278 E.01703
G1 X115.704 Y95.648 E.02285
G1 X115.677 Y95.73 E.00331
G1 X115.95 Y96.164 F12000
;WIDTH:0.589587
G1 F900
G1 X115.934 Y96.196 E.00163
;WIDTH:0.63438
G1 X115.866 Y96.333 E.00753
G1 X115.866 Y98.813 E.12195
G1 X115.274 Y98.813 E.02909
G1 X115.274 Y96.333 E.12195
G1 X115.252 Y96.1 E.01151
;WIDTH:0.589587
G1 X115.229 Y95.867 E.01064
;WIDTH:0.544793
G1 X115.207 Y95.634 E.00977
;WIDTH:0.499999
G1 X115.207 Y91.024 E.1752
G1 X116.861 Y91.024 E.06288
G1 X117.019 Y91.006 E.00603
G1 X117.307 Y90.86 E.01226
G1 X117.476 Y90.643 E.01048
G1 X117.547 Y90.339 E.01185
G1 X117.547 Y84.868 E.20793
G1 X117.528 Y84.602 E.01014
;WIDTH:0.46146
G1 X117.509 Y84.336 E.00929
;WIDTH:0.42292
