; HEADER_BLOCK_START
; generated by OrcaSlicer 1.7.0 on 2023-11-11 at 20:10:59
; total layer number: 80
; HEADER_BLOCK_END

; THUMBNAIL_BLOCK_START
; THUMBNAIL_BLOCK_END

; external perimeters extrusion width = 0.40mm
; perimeters extrusion width = 0.45mm
; infill extrusion width = 0.45mm
; solid infill extrusion width = 0.40mm
; top infill extrusion width = 0.40mm
; first layer extrusion width = 0.50mm

; EXECUTABLE_BLOCK_START
EXCLUDE_OBJECT_DEFINE NAME=ender3v2_cable_plate_revision_1_1_id_0_copy_0 CENTER=110,110 POLYGON=[[72,77.5],[136,77.5],[137.12,77.5629],[138.225,77.7507],[139.303,78.0612],[140.339,78.4903],[141.32,79.0328],[142.235,79.6817],[143.071,80.4289],[143.818,81.2651],[144.467,82.1797],[145.01,83.1612],[145.439,84.1972],[145.749,85.2748],[145.937,86.3804],[146,87.5],[148,135.52],[148,137.48],[146,142.5],[125.7,142.5],[72,107.5],[72,77.5]]
M73 P0 R45
;TYPE:Custom
START_PRINT EXTRUDER_TEMP=245  BED_TEMP=80
G90
G21
M83 ; use relative distances for extrusion
; filament start gcode
M106 S0
;LAYER_CHANGE
;Z:0.2
;HEIGHT:0.2
;BEFORE_LAYER_CHANGE
;0.2
G92 E0

G1 E-4 F1800
;_SET_FAN_SPEED_CHANGING_LAYER
G1 Z.4 F12000
G1 X62.695 Y68.794
G1 Z.4
G1 Z.2
G1 E4 F1800
;TYPE:Skirt
;WIDTH:0.5
G1 F900
G1 X65.146 Y66.758 E.12111
G1 X68.026 Y65.393 E.12111
G1 X72 Y64.758 E.15295
G1 X136.715 Y64.778 E2.45956
G1 X139.254 Y65 E.09689
G1 X140.36 Y65.188 E.04262
G1 X141.753 Y65.506 E.05431
G1 X144.179 Y66.289 E.09689
G1 X145.215 Y66.718 E.04262
G1 X147.484 Y67.88 E.09689
G1 X148.694 Y68.641 E.05431
G1 X150.726 Y70.18 E.09689
G1 X152.572 Y71.938 E.09689
G1 X153.32 Y72.774 E.04262
G1 X154.859 Y74.806 E.09689
G1 X155.62 Y76.016 E.05431
G1 X156.162 Y76.997 E.04262
G1 X157.211 Y79.321 E.09689
G1 X157.994 Y81.747 E.0969
G1 X158.5 Y84.246 E.09689
G1 X158.66 Y85.666 E.05431
G1 X158.742 Y87.5 E.06978
G1 X158.742 Y142.5 E2.09035
G1 X158.344 Y145.662 E.12111
G1 X157.174 Y148.625 E.12111
G1 X155.305 Y151.206 E.12111
G1 X152.854 Y153.242 E.12111
G1 X149.974 Y154.607 E.12111
G1 X146 Y155.242 E.15295
G1 X125.7 Y155.242 E.77153
G1 X122.538 Y154.844 E.12111
G1 X118.742 Y153.175 E.15761
G1 X65.042 Y118.175 E2.43617
G1 X62.611 Y116.115 E.12111
G1 X60.767 Y113.516 E.12111
G1 X59.626 Y110.541 E.12111
G1 X59.258 Y107.5 E.11643
G1 X59.258 Y77.5 E1.14019
G1 X59.656 Y74.338 E.12111
G1 X60.826 Y71.375 E.12111
G1 X62.672 Y68.826 E.11959
G1 X63.053 Y69.109 F12000
G1 F900
G1 X63.147 Y68.982 E.00598
G1 X65.585 Y67.022 E.11891
G1 X68.44 Y65.742 E.11891
G1 X72 Y65.215 E.13679
G1 X136.689 Y65.234 E2.45859
M73 P1 R45
G1 X139.177 Y65.451 E.09494
G1 X140.283 Y65.639 E.04262
G1 X141.626 Y65.945 E.05236
G1 X144.004 Y66.711 E.09495
G1 X146.281 Y67.738 E.09494
G1 X147.263 Y68.28 E.04262
G1 X148.43 Y69.013 E.05236
G1 X150.421 Y70.521 E.09494
G1 X152.232 Y72.243 E.09495
G1 X152.979 Y73.079 E.04262
G1 X154.487 Y75.07 E.09494
G1 X155.22 Y76.237 E.05236
G1 X155.762 Y77.219 E.04262
G1 X156.789 Y79.496 E.09494
G1 X157.555 Y81.874 E.09495
G1 X158.049 Y84.322 E.09494
G1 X158.203 Y85.692 E.05236
G1 X158.285 Y87.5 E.0688
G1 X158.285 Y142.5 E2.09035
G1 X157.887 Y145.603 E.11891
G1 X156.718 Y148.505 E.11891
G1 X154.853 Y151.018 E.11891
G1 X152.415 Y152.978 E.11891
G1 X149.56 Y154.258 E.11891
G1 X146 Y154.785 E.13679
G1 X125.7 Y154.785 E.77153
G1 X122.597 Y154.387 E.11891
G1 X118.992 Y152.792 E.14982
G1 X65.292 Y117.792 E2.43617
G1 X62.91 Y115.764 E.11891
G1 X61.117 Y113.2 E.11891
G1 X60.03 Y110.266 E.11891
G1 X59.715 Y107.5 E.10582
G1 X59.715 Y77.5 E1.14019
G1 X60.113 Y74.397 E.11891
G1 X61.282 Y71.495 E.11891
G1 X63.029 Y69.141 E.1114
G1 X63.405 Y69.427 F12000
G1 F900
G1 X63.597 Y69.175 E.01205
G1 X66.022 Y67.293 E.11667
G1 X68.85 Y66.099 E.11667
G1 X72 Y65.672 E.12081
G1 X136.663 Y65.69 E2.45761
G1 X139.101 Y65.902 E.09299
G1 X140.206 Y66.09 E.04262
G1 X141.5 Y66.385 E.05042
G1 X143.829 Y67.133 E.093
G1 X144.865 Y67.562 E.04262
G1 X147.042 Y68.68 E.093
G1 X148.165 Y69.386 E.05041
G1 X150.117 Y70.862 E.093
G1 X151.891 Y72.547 E.093
G1 X152.638 Y73.383 E.04262
G1 X154.114 Y75.335 E.09299
G1 X154.82 Y76.458 E.05042
G1 X155.362 Y77.44 E.04262
G1 X156.367 Y79.671 E.09299
G1 X157.115 Y82 E.093
G1 X157.598 Y84.399 E.093
G1 X157.747 Y85.717 E.05041
G1 X157.828 Y87.5 E.06783
G1 X157.828 Y142.5 E2.09035
M73 P2 R45
G1 X157.43 Y145.544 E.11667
G1 X156.262 Y148.382 E.11667
G1 X154.403 Y150.825 E.11667
G1 X151.978 Y152.707 E.11667
G1 X149.15 Y153.901 E.11667
G1 X146 Y154.328 E.12081
G1 X125.7 Y154.328 E.77153
G1 X122.656 Y153.93 E.11667
G1 X119.241 Y152.409 E.14208
M73 P2 R44
G1 X65.541 Y117.409 E2.43617
G1 X63.209 Y115.414 E.11667
G1 X61.469 Y112.885 E.11667
G1 X60.438 Y109.994 E.11667
G1 X60.172 Y107.5 E.09532
G1 X60.172 Y77.5 E1.14019
G1 X60.57 Y74.456 E.11667
G1 X61.738 Y71.618 E.11667
G1 X63.381 Y69.459 E.10309
G1 X63.752 Y69.75 F12000
G1 F900
G1 X64.048 Y69.372 E.01821
G1 X66.458 Y67.571 E.11438
G1 X69.257 Y66.465 E.11438
G1 X72 Y66.129 E.10503
G1 X136.638 Y66.147 E2.45664
G1 X137.757 Y66.21 E.04262
G1 X140.13 Y66.54 E.09105
G1 X141.373 Y66.824 E.04847
G1 X143.654 Y67.556 E.09105
G1 X145.839 Y68.538 E.09105
G1 X146.821 Y69.08 E.04262
G1 X147.901 Y69.759 E.04847
G1 X149.812 Y71.203 E.09105
G1 X151.55 Y72.852 E.09105
G1 X152.297 Y73.688 E.04262
G1 X153.741 Y75.599 E.09105
G1 X154.42 Y76.679 E.04847
G1 X154.962 Y77.661 E.04262
G1 X155.944 Y79.846 E.09105
G1 X156.676 Y82.127 E.09105
G1 X157.148 Y84.476 E.09105
G1 X157.371 Y87.5 E.11526
G1 X157.371 Y142.5 E2.09035
G1 X156.973 Y145.483 E.11438
G1 X155.806 Y148.257 E.11438
G1 X153.952 Y150.628 E.11438
G1 X151.542 Y152.429 E.11438
G1 X148.743 Y153.535 E.11438
G1 X146 Y153.871 E.10503
G1 X125.7 Y153.871 E.77153
G1 X122.717 Y153.473 E.11438
G1 X119.491 Y152.026 E.13437
G1 X65.791 Y117.026 E2.43617
M73 P3 R44
G1 X63.509 Y115.064 E.11438
G1 X61.822 Y112.572 E.11438
G1 X60.848 Y109.724 E.11438
G1 X60.629 Y107.5 E.08495
G1 X60.629 Y77.5 E1.14019
G1 X61.027 Y74.517 E.11438
G1 X62.194 Y71.743 E.11438
G1 X63.728 Y69.781 E.09465
G1 X64.094 Y70.075 F12000
G1 F900
G1 X64.497 Y69.574 E.02447
G1 X66.892 Y67.855 E.11205
G1 X69.66 Y66.84 E.11205
G1 X72 Y66.586 E.08945
G1 X136.612 Y66.603 E2.45566
G1 X137.732 Y66.666 E.04262
G1 X140.053 Y66.991 E.0891
G1 X142.324 Y67.574 E.08911
G1 X143.479 Y67.978 E.04652
G1 X145.618 Y68.938 E.0891
G1 X147.636 Y70.132 E.0891
G1 X148.551 Y70.781 E.04262
G1 X150.344 Y72.291 E.0891
G1 X151.209 Y73.156 E.04652
G1 X151.956 Y73.993 E.04262
G1 X153.368 Y75.864 E.0891
G1 X154.02 Y76.9 E.04652
G1 X155.093 Y78.984 E.0891
G1 X155.522 Y80.021 E.04262
G1 X156.237 Y82.253 E.0891
G1 X156.697 Y84.552 E.0891
G1 X156.914 Y87.5 E.11234
G1 X156.914 Y142.5 E2.09035
G1 X156.516 Y145.421 E.11205
G1 X155.351 Y148.129 E.11205
G1 X153.503 Y150.426 E.11205
G1 X151.108 Y152.145 E.11205
G1 X148.34 Y153.16 E.11205
G1 X146 Y153.414 E.08945
G1 X125.7 Y153.414 E.77153
G1 X122.779 Y153.016 E.11205
G1 X119.741 Y151.644 E.12671
G1 X66.041 Y116.644 E2.43617
G1 X63.811 Y114.715 E.11205
G1 X62.178 Y112.26 E.11205
G1 X61.263 Y109.458 E.11205
G1 X61.086 Y107.5 E.07471
G1 X61.086 Y77.5 E1.14019
G1 X61.484 Y74.579 E.11205
G1 X62.649 Y71.871 E.11205
G1 X64.069 Y70.107 E.08606
G1 X64.429 Y70.405 F12000
G1 F900
G1 X64.946 Y69.78 E.03083
G1 X67.324 Y68.146 E.10966
G1 X70.059 Y67.225 E.10966
G1 X72 Y67.043 E.07411
G1 X136.586 Y67.059 E2.45469
M73 P4 R44
G1 X137.706 Y67.122 E.04262
G1 X139.977 Y67.441 E.08715
G1 X141.12 Y67.702 E.04457
G1 X143.305 Y68.4 E.08716
G1 X144.341 Y68.829 E.04262
G1 X146.379 Y69.88 E.08715
G1 X148.286 Y71.153 E.08716
G1 X150.039 Y72.632 E.08715
G1 X150.868 Y73.461 E.04457
G1 X151.616 Y74.297 E.04262
G1 X152.996 Y76.128 E.08715
G1 X153.62 Y77.121 E.04457
G1 X154.671 Y79.159 E.08715
G1 X155.487 Y81.302 E.08716
G1 X155.798 Y82.38 E.04262
G1 X156.246 Y84.629 E.08715
G1 X156.457 Y87.5 E.10942
G1 X156.457 Y142.5 E2.09035
M73 P4 R43
G1 X156.059 Y145.358 E.10966
G1 X154.895 Y147.998 E.10966
G1 X153.054 Y150.22 E.10966
G1 X150.676 Y151.854 E.10966
G1 X147.941 Y152.775 E.10966
G1 X146 Y152.957 E.07411
G1 X125.7 Y152.957 E.77153
G1 X122.842 Y152.559 E.10966
G1 X119.99 Y151.261 E.1191
G1 X66.29 Y116.261 E2.43617
G1 X64.113 Y114.367 E.10966
G1 X62.537 Y111.95 E.10966
G1 X61.681 Y109.194 E.10966
G1 X61.543 Y107.5 E.06461
G1 X61.543 Y77.5 E1.14019
G1 X61.941 Y74.642 E.10966
G1 X63.105 Y72.002 E.10966
G1 X64.403 Y70.436 E.07731
; printing object ender3v2_cable_plate_revision_1 (1) id:0 copy 0
G1 E-2.8 F1800
;WIPE_START
G1 F900
G1 X64.946 Y69.78 E-1.02145
G1 X65.069 Y69.696 E-.17855
;WIPE_END
EXCLUDE_OBJECT_START NAME=ender3v2_cable_plate_revision_1_1_id_0_copy_0
G1 Z.6 F12000
G1 X112.664 Y106.336 Z.6
G1 Z.2
G1 E4 F1800
;TYPE:Inner wall
;WIDTH:0.499999
G1 F900
G1 X112.661 Y101.41 E.18723
G1 X112.583 Y100.604 E.03075
G1 X112.38 Y99.82 E.03078
G1 X112.074 Y99.114 E.02927
G1 X111.622 Y98.394 E.03228
G1 X111.086 Y97.787 E.03079
G1 X110.492 Y97.297 E.02927
G1 X109.763 Y96.861 E.03228
G1 X109.009 Y96.564 E.03079
G1 X108.219 Y96.389 E.03078
G1 X107.501 Y96.336 E.02736
G1 X100.307 Y96.347 E.27342
G1 X99.604 Y96.417 E.02683
G1 X98.917 Y96.585 E.0269
G1 X98.412 Y96.789 E.02068
G1 X97.881 Y97.063 E.02274
G1 X97.394 Y97.378 E.02202
G1 X96.787 Y97.914 E.03078
G1 X96.272 Y98.539 E.03078
G1 X95.881 Y99.202 E.02927
G1 X95.564 Y99.99 E.03228
G1 X95.389 Y100.781 E.03079
G1 X95.336 Y101.499 E.02736
G1 X95.336 Y106.336 E.18382
G1 X73.164 Y106.336 E.84266
G1 X73.164 Y78.664 E1.0517
G1 X136.023 Y78.667 E2.38904
M73 P5 R43
G1 X136.989 Y78.722 E.03676
G1 X137.966 Y78.887 E.03765
G1 X138.918 Y79.162 E.03765
G1 X139.833 Y79.541 E.03765
G1 X140.7 Y80.02 E.03765
G1 X141.508 Y80.593 E.03765
G1 X142.247 Y81.253 E.03765
G1 X142.907 Y81.992 E.03765
G1 X143.48 Y82.8 E.03765
G1 X143.959 Y83.667 E.03765
G1 X144.338 Y84.582 E.03765
G1 X144.613 Y85.534 E.03765
G1 X144.778 Y86.511 E.03765
G1 X144.836 Y87.789 E.04861
G1 X144.836 Y134.925 E1.79149
G1 X144.856 Y135.767 E.03198
;WIDTH:0.45907
G1 X144.87 Y136.499 E.02535
;WIDTH:0.432305
G1 X144.87 Y141.37 E.1577
G1 X144.48 Y141.37 E.01261
G1 X144.48 Y136.499 E.1577
;WIDTH:0.434316
G1 X144.478 Y136.412 E.00283
;WIDTH:0.47563
G1 X144.421 Y135.607 E.02904
;WIDTH:0.499999
G1 X144.23 Y134.82 E.03078
G1 X143.908 Y134.077 E.03078
G1 X143.472 Y133.394 E.03078
G1 X142.936 Y132.787 E.03078
G1 X142.311 Y132.272 E.03078
G1 X141.613 Y131.861 E.03078
G1 X140.859 Y131.564 E.03078
G1 X140.069 Y131.389 E.03078
G1 X139.351 Y131.336 E.02736
G1 X132.349 Y131.336 E.26611
G1 X131.454 Y131.417 E.03416
G1 X130.67 Y131.62 E.03078
G1 X129.927 Y131.942 E.03078
G1 X129.244 Y132.378 E.03078
G1 X128.637 Y132.914 E.03078
G1 X128.122 Y133.539 E.03078
G1 X127.731 Y134.202 E.02927
G1 X127.414 Y134.99 E.03228
G1 X127.259 Y135.783 E.03069
;WIDTH:0.459074
G1 X127.22 Y136.499 E.02482
;WIDTH:0.432303
G1 X127.22 Y141.37 E.15769
G1 X126.83 Y141.37 E.01261
G1 X126.83 Y136.499 E.15769
;WIDTH:0.434313
G1 X126.831 Y136.397 E.00333
;WIDTH:0.475631
G1 X126.852 Y135.556 E.03024
;WIDTH:0.499999
G1 X126.864 Y113.499 E.83832
G1 X126.759 Y112.291 E.04608
G1 X126.483 Y111.202 E.04271
G1 X126.04 Y110.169 E.04271
G1 X125.44 Y109.219 E.04271
G1 X124.7 Y108.373 E.04271
G1 X123.836 Y107.654 E.04271
G1 X122.919 Y107.107 E.0406
G1 X121.948 Y106.698 E.04004
G1 X120.732 Y106.413 E.04748
G1 X119.701 Y106.336 E.03929
G1 X112.704 Y106.336 E.26592
G1 X112.207 Y106.793 F12000
G1 F900
G1 X112.207 Y101.499 E.2012
G1 X112.139 Y100.711 E.03007
G1 X111.958 Y99.995 E.02806
G1 X111.682 Y99.349 E.02667
G1 X111.275 Y98.691 E.02943
G1 X110.789 Y98.135 E.02807
G1 X110.25 Y97.685 E.02667
G1 X109.588 Y97.283 E.02943
G1 X108.903 Y97.009 E.02806
G1 X108.183 Y96.844 E.02806
G1 X107.501 Y96.793 E.026
G1 X100.343 Y96.803 E.27206
G1 X99.711 Y96.861 E.02411
G1 X99.053 Y97.021 E.02573
G1 X98.587 Y97.211 E.01912
G1 X98.119 Y97.453 E.02001
G1 X97.691 Y97.725 E.0193
G1 X97.135 Y98.211 E.02806
G1 X96.662 Y98.778 E.02806
G1 X96.302 Y99.38 E.02667
G1 X96.009 Y100.097 E.02943
G1 X95.844 Y100.817 E.02806
G1 X95.793 Y101.499 E.026
G1 X95.793 Y106.793 E.2012
G1 X72.707 Y106.793 E.87741
G1 X72.707 Y78.207 E1.08644
G1 X136.036 Y78.21 E2.4069
G1 X137.04 Y78.267 E.03823
G1 X138.068 Y78.441 E.0396
G1 X139.069 Y78.73 E.0396
G1 X140.032 Y79.128 E.0396
G1 X140.944 Y79.632 E.0396
G1 X141.793 Y80.235 E.0396
G1 X142.57 Y80.93 E.0396
G1 X143.265 Y81.707 E.0396
G1 X143.868 Y82.556 E.0396
G1 X144.372 Y83.468 E.0396
G1 X144.77 Y84.431 E.0396
G1 X145.059 Y85.432 E.0396
G1 X145.233 Y86.46 E.0396
G1 X145.293 Y87.789 E.05056
G1 X145.293 Y141.793 E2.0525
G1 X144.057 Y141.793 E.04697
M73 P6 R43
G1 X144.055 Y136.445 E.20324
G1 X143.989 Y135.711 E.02803
G1 X143.808 Y134.995 E.02806
G1 X143.518 Y134.316 E.02806
G1 X143.125 Y133.691 E.02806
G1 X142.639 Y133.135 E.02806
G1 X142.072 Y132.662 E.02806
G1 X141.438 Y132.283 E.02806
G1 X140.753 Y132.009 E.02806
G1 X140.033 Y131.844 E.02806
G1 X139.351 Y131.793 E.026
G1 X132.349 Y131.793 E.26611
G1 X131.561 Y131.861 E.03007
G1 X130.845 Y132.042 E.02806
G1 X130.166 Y132.332 E.02806
G1 X129.541 Y132.725 E.02806
G1 X128.985 Y133.211 E.02806
G1 X128.512 Y133.778 E.02806
G1 X128.152 Y134.38 E.02667
G1 X127.859 Y135.097 E.02943
G1 X127.694 Y135.817 E.02807
G1 X127.643 Y136.499 E.026
G1 X127.643 Y141.793 E.2012
G1 X126.407 Y141.793 E.04697
G1 X126.407 Y113.499 E1.07534
G1 X126.314 Y112.398 E.042
G1 X126.06 Y111.377 E.03999
G1 X125.65 Y110.408 E.03999
G1 X125.093 Y109.515 E.03999
G1 X124.403 Y108.721 E.03999
G1 X123.598 Y108.044 E.03999
G1 X122.741 Y107.528 E.03801
G1 X121.828 Y107.142 E.03768
G1 X120.696 Y106.869 E.04426
G1 X119.701 Y106.793 E.03792
G1 X112.247 Y106.793 E.28329
G1 X111.75 Y107.25 F12000
;TYPE:Outer wall
G1 F900
G1 X111.75 Y101.499 E.21857
G1 X111.694 Y100.818 E.02599
G1 X111.536 Y100.17 E.02534
G1 X111.291 Y99.585 E.02408
G1 X110.927 Y98.988 E.02659
G1 X110.492 Y98.483 E.02535
G1 X110.009 Y98.073 E.02408
G1 X109.413 Y97.706 E.02659
G1 X108.796 Y97.453 E.02535
G1 X108.147 Y97.3 E.02534
G1 X107.501 Y97.25 E.02463
G1 X100.378 Y97.259 E.27069
G1 X99.818 Y97.306 E.02139
G1 X99.17 Y97.464 E.02534
G1 X98.555 Y97.722 E.02534
G1 X97.988 Y98.073 E.02534
G1 X97.483 Y98.508 E.02534
G1 X97.052 Y99.017 E.02534
G1 X96.723 Y99.558 E.02408
G1 X96.453 Y100.204 E.02659
G1 X96.3 Y100.853 E.02535
G1 X96.25 Y101.499 E.02463
G1 X96.25 Y107.25 E.21857
G1 X72.25 Y107.25 E.91215
G1 X72.25 Y77.75 E1.12118
G1 X136.049 Y77.753 E2.42476
M73 P6 R42
G1 X137.092 Y77.812 E.03969
G1 X138.169 Y77.995 E.04155
G1 X139.22 Y78.298 E.04155
G1 X140.23 Y78.716 E.04155
G1 X141.187 Y79.245 E.04155
G1 X142.079 Y79.877 E.04155
G1 X142.894 Y80.606 E.04155
G1 X143.623 Y81.421 E.04155
G1 X144.255 Y82.313 E.04155
G1 X144.784 Y83.27 E.04155
G1 X145.202 Y84.28 E.04155
G1 X145.505 Y85.331 E.04155
G1 X145.688 Y86.408 E.04155
G1 X145.75 Y87.789 E.05251
G1 X145.75 Y142.25 E2.06988
G1 X143.6 Y142.25 E.08171
G1 X143.6 Y136.499 E.21857
G1 X143.544 Y135.818 E.02599
G1 X143.386 Y135.17 E.02534
G1 X143.128 Y134.555 E.02534
G1 X142.777 Y133.988 E.02534
G1 X142.342 Y133.483 E.02534
G1 X141.833 Y133.052 E.02534
G1 X141.263 Y132.706 E.02534
G1 X140.646 Y132.453 E.02534
G1 X139.997 Y132.3 E.02534
G1 X139.351 Y132.25 E.02463
G1 X132.349 Y132.25 E.26611
G1 X131.668 Y132.306 E.02599
G1 X131.02 Y132.464 E.02534
G1 X130.405 Y132.722 E.02534
G1 X129.838 Y133.073 E.02534
G1 X129.333 Y133.508 E.02534
G1 X128.902 Y134.017 E.02534
G1 X128.573 Y134.558 E.02408
G1 X128.303 Y135.204 E.02659
G1 X128.15 Y135.853 E.02535
G1 X128.1 Y136.499 E.02463
G1 X128.1 Y142.25 E.21857
G1 X125.95 Y142.25 E.08171
G1 X125.95 Y113.499 E1.09271
G1 X125.87 Y112.505 E.03792
G1 X125.638 Y111.552 E.03727
G1 X125.26 Y110.647 E.03727
G1 X124.745 Y109.812 E.03727
G1 X124.106 Y109.068 E.03727
G1 X123.359 Y108.434 E.03727
G1 X122.563 Y107.949 E.03541
G1 X121.65 Y107.563 E.03768
G1 X120.66 Y107.325 E.0387
G1 X119.701 Y107.25 E.03656
G1 X111.79 Y107.25 E.30066
G1 E-2.8 F1800
;WIPE_START
G1 F900
G1 X111.783 Y106.25 E-1.2
;WIPE_END
G1 Z.6 F12000
G1 X112.186 Y106.25 Z.6
G1 X112.186 Y101.473
G1 X112.13 Y100.767
G1 X111.958 Y100.051
G1 X111.677 Y99.372
G1 X111.293 Y98.745
G1 X103.394 Y87.529
G1 Z.2
G1 E4 F1800
;TYPE:Inner wall
G1 F900
G1 X103.345 Y88.157 E.02391
G1 X103.104 Y88.91 E.03008
