; HEADER_BLOCK_START
; generated by OrcaSlicer 1.7.0 on 2023-11-12 at 13:08:34
; total layer number: 253
; HEADER_BLOCK_END

; THUMBNAIL_BLOCK_START
; THUMBNAIL_BLOCK_END

; external perimeters extrusion width = 0.40mm
; perimeters extrusion width = 0.45mm
; infill extrusion width = 0.45mm
; solid infill extrusion width = 0.40mm
; top infill extrusion width = 0.40mm
; first layer extrusion width = 0.50mm

; EXECUTABLE_BLOCK_START
EXCLUDE_OBJECT_DEFINE NAME=Ender_3_C270_Camera_Mount_-_Part_1_1_.stl_id_0_copy_0 CENTER=109.381,97.9554 POLYGON=[[71.6157,118.815],[117.578,72.8531],[121.401,74.2018],[121.567,74.3676],[145.796,98.597],[147.147,102.422],[144.318,105.251],[75.8583,123.058],[71.6157,118.815]]
M73 P0 R70
;TYPE:Custom
START_PRINT EXTRUDER_TEMP=250  BED_TEMP=80
G90
G21
M83 ; use relative distances for extrusion
; filament start gcode
M106 S0
;LAYER_CHANGE
;Z:0.2
;HEIGHT:0.2
;BEFORE_LAYER_CHANGE
;0.2
G92 E0

G1 E-4 F1800
;_SET_FAN_SPEED_CHANGING_LAYER
G1 Z.4 F12000
G1 X86.205 Y86.205
G1 Z.4
G1 Z.2
G1 E4 F1800
;TYPE:Skirt
;WIDTH:0.5
G1 F900
G1 X108.567 Y63.843 E1.20195
M73 P0 R69
G1 X111.085 Y61.889 E.12111
G1 X114.008 Y60.621 E.12111
G1 X117.154 Y60.118 E.12111
G1 X120.327 Y60.411 E.12111
G1 X123.328 Y61.482 E.12111
G1 X126.588 Y63.843 E.15295
G1 X156.157 Y93.412 E1.58932
G1 X158.111 Y95.929 E.12111
G1 X159.379 Y98.853 E.12111
G1 X159.882 Y101.999 E.12111
G1 X159.589 Y105.172 E.12111
G1 X158.518 Y108.173 E.12111
G1 X156.157 Y111.433 E.15295
G1 X153.329 Y114.261 E.15203
G1 X150.812 Y116.215 E.12111
G1 X147.526 Y117.583 E.13527
G1 X79.069 Y135.387 E2.68835
G1 X75.909 Y135.797 E.12111
G1 X72.746 Y135.41 E.12111
G1 X69.778 Y134.251 E.12111
G1 X66.851 Y132.065 E.13883
G1 X62.609 Y127.822 E.22804
G1 X60.655 Y125.305 E.12111
G1 X59.387 Y122.382 E.12111
G1 X58.883 Y119.235 E.12111
G1 X59.177 Y116.062 E.12111
G1 X60.248 Y113.061 E.12111
G1 X62.609 Y109.802 E.15295
G1 X86.177 Y86.233 E1.26677
G1 X86.5 Y86.557 F12000
G1 F900
G1 X108.891 Y64.166 E1.20347
G1 X111.366 Y62.253 E.11891
G1 X114.245 Y61.028 E.11891
G1 X117.34 Y60.57 E.11891
G1 X120.45 Y60.908 E.11891
G1 X123.374 Y62.021 E.11891
G1 X126.265 Y64.166 E.13679
G1 X155.834 Y93.735 E1.58932
G1 X157.747 Y96.211 E.11891
G1 X158.972 Y99.09 E.11891
G1 X159.43 Y102.185 E.11891
G1 X159.092 Y105.295 E.11891
G1 X157.979 Y108.219 E.11891
G1 X155.834 Y111.109 E.13679
G1 X153.006 Y113.938 E.15203
G1 X150.53 Y115.85 E.11891
G1 X147.411 Y117.141 E.12828
G1 X78.954 Y134.944 E2.68835
G1 X75.85 Y135.34 E.11891
G1 X72.747 Y134.939 E.11891
G1 X69.847 Y133.767 E.11891
G1 X67.174 Y131.742 E.12743
G1 X62.932 Y127.499 E.22804
G1 X61.019 Y125.023 E.11891
G1 X59.794 Y122.144 E.11891
G1 X59.336 Y119.049 E.11891
G1 X59.674 Y115.939 E.11891
G1 X60.787 Y113.015 E.11891
G1 X62.932 Y110.125 E.13679
G1 X86.472 Y86.585 E1.26525
G1 X86.795 Y86.908 F12000
G1 F900
G1 X109.214 Y64.489 E1.20499
G1 X111.648 Y62.619 E.11667
G1 X114.481 Y61.437 E.11667
G1 X117.523 Y61.025 E.11667
G1 X120.568 Y61.409 E.11667
G1 X123.412 Y62.564 E.11667
G1 X125.941 Y64.489 E.12081
G1 X155.511 Y94.059 E1.58932
M73 P1 R69
G1 X157.381 Y96.492 E.11667
G1 X158.563 Y99.326 E.11667
G1 X158.975 Y102.367 E.11667
G1 X158.591 Y105.413 E.11667
G1 X157.436 Y108.257 E.11667
G1 X155.511 Y110.786 E.12081
G1 X152.682 Y113.615 E.15203
G1 X150.249 Y115.485 E.11667
G1 X147.296 Y116.698 E.12133
G1 X78.839 Y134.502 E2.68835
G1 X75.793 Y134.883 E.11667
G1 X72.751 Y134.467 E.11667
G1 X69.92 Y133.282 E.11667
G1 X67.498 Y131.418 E.11615
G1 X63.255 Y127.176 E.22804
G1 X61.384 Y124.742 E.11667
G1 X60.203 Y121.909 E.11667
G1 X59.791 Y118.867 E.11667
G1 X60.175 Y115.821 E.11667
G1 X61.33 Y112.977 E.11667
G1 X63.255 Y110.448 E.12081
G1 X86.767 Y86.936 E1.26373
G1 X87.09 Y87.26 F12000
G1 F900
G1 X109.537 Y64.812 E1.20651
G1 X111.928 Y62.985 E.11438
G1 X114.714 Y61.848 E.11438
G1 X117.702 Y61.483 E.11438
G1 X120.68 Y61.913 E.11438
G1 X123.441 Y63.11 E.11438
G1 X125.618 Y64.812 E.10503
G1 X155.188 Y94.382 E1.58932
G1 X157.015 Y96.773 E.11438
G1 X158.152 Y99.559 E.11438
G1 X158.517 Y102.546 E.11438
G1 X158.087 Y105.525 E.11438
G1 X156.89 Y108.286 E.11438
G1 X155.188 Y110.463 E.10503
G1 X152.359 Y113.292 E.15203
G1 X149.968 Y115.119 E.11438
G1 X147.181 Y116.256 E.11442
G1 X78.724 Y134.06 E2.68835
M73 P1 R68
G1 X75.736 Y134.425 E.11438
G1 X72.758 Y133.994 E.11438
G1 X69.997 Y132.797 E.11438
G1 X67.821 Y131.095 E.10499
G1 X63.578 Y126.853 E.22804
G1 X61.75 Y124.462 E.11438
G1 X60.614 Y121.675 E.11438
G1 X60.248 Y118.688 E.11438
G1 X60.679 Y115.709 E.11438
G1 X61.876 Y112.948 E.11438
G1 X63.578 Y110.771 E.10503
G1 X87.062 Y87.288 E1.26221
G1 X87.385 Y87.611 F12000
G1 F900
G1 X109.86 Y65.136 E1.20803
G1 X112.207 Y63.352 E.11205
G1 X114.946 Y62.261 E.11205
G1 X117.877 Y61.943 E.11205
G1 X120.786 Y62.421 E.11205
G1 X123.461 Y63.661 E.11205
G1 X125.295 Y65.136 E.08945
G1 X154.864 Y94.705 E1.58932
G1 X156.648 Y97.052 E.11205
G1 X157.739 Y99.791 E.11205
G1 X158.057 Y102.722 E.11205
G1 X157.579 Y105.631 E.11205
G1 X156.339 Y108.306 E.11205
G1 X154.864 Y110.14 E.08945
G1 X152.036 Y112.968 E.15203
G1 X149.689 Y114.752 E.11205
G1 X147.066 Y115.814 E.10755
G1 X78.609 Y133.617 E2.68835
M73 P2 R68
G1 X75.681 Y133.967 E.11205
G1 X72.767 Y133.521 E.11205
G1 X70.079 Y132.311 E.11205
G1 X68.144 Y130.772 E.09396
G1 X63.901 Y126.529 E.22804
G1 X62.117 Y124.182 E.11205
G1 X61.027 Y121.443 E.11205
G1 X60.709 Y118.512 E.11205
G1 X61.187 Y115.603 E.11205
G1 X62.426 Y112.928 E.11205
G1 X63.901 Y111.094 E.08945
G1 X87.356 Y87.639 E1.26069
G1 X87.68 Y87.962 F12000
G1 F900
G1 X110.183 Y65.459 E1.20955
G1 X112.486 Y63.72 E.10966
G1 X115.176 Y62.676 E.10966
G1 X118.048 Y62.407 E.10966
G1 X120.885 Y62.933 E.10966
G1 X123.471 Y64.215 E.10966
G1 X124.972 Y65.459 E.07411
G1 X154.541 Y95.028 E1.58932
G1 X156.28 Y97.33 E.10966
G1 X157.324 Y100.02 E.10966
G1 X157.593 Y102.893 E.10966
G1 X157.067 Y105.73 E.10966
G1 X155.785 Y108.315 E.10966
G1 X154.541 Y109.817 E.07411
G1 X151.713 Y112.645 E.15203
G1 X149.41 Y114.384 E.10966
G1 X146.951 Y115.371 E.10074
G1 X78.494 Y133.175 E2.68835
G1 X75.627 Y133.509 E.10966
G1 X72.779 Y133.047 E.10966
G1 X70.166 Y131.824 E.10966
G1 X68.467 Y130.449 E.08307
G1 X64.225 Y126.206 E.22804
G1 X62.485 Y123.904 E.10966
G1 X61.441 Y121.214 E.10966
G1 X61.172 Y118.341 E.10966
G1 X61.699 Y115.504 E.10966
G1 X62.98 Y112.919 E.10966
G1 X64.225 Y111.418 E.07411
G1 X87.651 Y87.991 E1.25917
; printing object Ender 3 C270 Camera Mount - Part 1 (1).stl id:0 copy 0
G1 E-2.8 F1800
;WIPE_START
G1 F900
G1 X88.358 Y87.284 E-1.2
;WIPE_END
EXCLUDE_OBJECT_START NAME=Ender_3_C270_Camera_Mount_-_Part_1_1_.stl_id_0_copy_0
G1 Z.6 F12000
G1 X145.501 Y102.422 Z.6
G1 Z.2
G1 E4 F1800
;TYPE:Inner wall
;WIDTH:0.499999
G1 F900
G1 X144.237 Y103.686 E.0679
G1 X143.788 Y104.135 E.02414
G1 X87.753 Y109.88 E2.14085
G1 X87.51 Y109.932 E.00944
G1 X87.273 Y110.042 E.00995
G1 X87.061 Y110.208 E.01022
G1 X75.861 Y121.408 E.60198
G1 X73.265 Y118.812 E.13955
G1 X99.258 Y92.819 E1.39709
G1 X100.557 Y94.118 E.06983
G1 X100.984 Y94.458 E.02072
G1 X101.249 Y94.61 E.01161
G1 X101.808 Y94.82 E.02272
G1 X102.39 Y94.897 E.02229
G1 X102.983 Y94.836 E.02267
G1 X103.271 Y94.759 E.01134
G1 X103.816 Y94.514 E.02272
G1 X104.29 Y94.15 E.02271
G1 X104.664 Y93.69 E.02253
G1 X104.813 Y93.431 E.01134
G1 X105.015 Y92.916 E.02102
G1 X105.095 Y92.383 E.02051
G1 X105.095 Y92.084 E.01134
G1 X105.018 Y91.56 E.02013
G1 X104.813 Y91.035 E.02141
G1 X104.664 Y90.777 E.01134
G1 X104.325 Y90.351 E.02072
G1 X103.026 Y89.051 E.06983
G1 X117.578 Y74.499 E.78215
G1 X145.472 Y102.394 E1.49931
G1 X146.147 Y102.422 F12000
G1 F900
G1 X144.56 Y104.009 E.08528
G1 X143.996 Y104.573 E.03032
G1 X87.799 Y110.334 E2.14703
M73 P2 R67
G1 X87.654 Y110.365 E.00566
G1 X87.385 Y110.531 E.01202
G1 X75.861 Y122.055 E.61935
G1 X72.619 Y118.812 E.17429
G1 X99.258 Y92.173 E1.43183
M73 P3 R67
G1 X100.948 Y93.854 E.0906
G1 X101.421 Y94.186 E.02197
G1 X101.966 Y94.384 E.02206
G1 X102.529 Y94.435 E.02148
G1 X103.096 Y94.337 E.02186
G1 X103.618 Y94.095 E.02186
G1 X104.06 Y93.727 E.02186
G1 X104.391 Y93.257 E.02186
G1 X104.59 Y92.717 E.02186
G1 X104.646 Y92.189 E.02017
G1 X104.575 Y91.672 E.01984
G1 X104.355 Y91.136 E.02199
G1 X104.002 Y90.674 E.02214
G1 X102.379 Y89.051 E.0872
G1 X117.578 Y73.853 E.81689
G1 X146.119 Y102.394 E1.53405
G1 X146.793 Y102.422 F12000
;TYPE:Outer wall
G1 F900
G1 X144.884 Y104.332 E.10265
G1 X144.205 Y105.011 E.0365
G1 X87.846 Y110.789 E2.1532
G1 X87.708 Y110.855 E.00582
G1 X75.861 Y122.701 E.63672
G1 X71.972 Y118.812 E.20903
G1 X99.258 Y91.526 E1.46657
G1 X101.204 Y93.472 E.10457
G1 X101.54 Y93.733 E.01618
G1 X101.97 Y93.916 E.01776
G1 X102.41 Y93.982 E.01692
G1 X102.864 Y93.93 E.01735
G1 X103.288 Y93.762 E.01735
G1 X103.655 Y93.491 E.01735
G1 X103.939 Y93.133 E.01735
G1 X104.121 Y92.715 E.01735
G1 X104.188 Y92.263 E.01735
G1 X104.136 Y91.81 E.01735
G1 X103.969 Y91.385 E.01735
G1 X103.678 Y90.997 E.01843
G1 X101.733 Y89.051 E.10457
G1 X117.578 Y73.207 E.85164
G1 X146.765 Y102.394 E1.5688
G1 X144.849 Y102.719 F12000
;TYPE:Bottom surface
;WIDTH:0.5
G1 F1200
G1 X117.281 Y75.151 E1.48172
G1 X116.958 Y75.474
G1 X144.526 Y103.042 E1.48172
G1 X144.202 Y103.365
G1 X116.635 Y75.798 E1.48172
G1 X116.312 Y76.121
G1 X143.879 Y103.688 E1.48172
G1 X143.46 Y103.916
G1 X115.989 Y76.444 E1.47658
G1 X115.665 Y76.767
G1 X142.874 Y103.976 E1.46244
G1 X142.288 Y104.036
G1 X115.342 Y77.09 E1.4483
G1 X115.019 Y77.414
G1 X141.701 Y104.096 E1.43416
G1 X141.115 Y104.156
G1 X114.696 Y77.737 E1.42002
G1 X114.373 Y78.06
G1 X140.529 Y104.216 E1.40588
G1 X139.943 Y104.276
G1 X114.049 Y78.383 E1.39174
G1 X113.726 Y78.706
G1 X139.356 Y104.337 E1.37759
M73 P4 R67
G1 X138.77 Y104.397
G1 X113.403 Y79.03 E1.36345
G1 X113.08 Y79.353
G1 X138.184 Y104.457 E1.34931
G1 X137.597 Y104.517
G1 X112.757 Y79.676 E1.33517
G1 X112.433 Y79.999
G1 X137.011 Y104.577 E1.32103
G1 X136.425 Y104.637
G1 X112.11 Y80.322 E1.30689
G1 X111.787 Y80.646
G1 X135.838 Y104.697 E1.29275
G1 X135.252 Y104.757
G1 X111.464 Y80.969 E1.27861
G1 X111.141 Y81.292
G1 X134.666 Y104.817 E1.26446
M73 P4 R66
G1 X134.08 Y104.878
G1 X110.817 Y81.615 E1.25032
G1 X110.494 Y81.938
G1 X133.493 Y104.938 E1.23618
G1 X132.907 Y104.998
G1 X110.171 Y82.262 E1.22204
G1 X109.848 Y82.585
G1 X132.321 Y105.058 E1.2079
G1 X131.734 Y105.118
G1 X109.524 Y82.908 E1.19376
G1 X109.201 Y83.231
G1 X131.148 Y105.178 E1.17962
G1 X130.562 Y105.238
G1 X108.878 Y83.555 E1.16548
G1 X108.555 Y83.878
G1 X129.975 Y105.298 E1.15134
G1 X129.389 Y105.358
G1 X108.232 Y84.201 E1.13719
G1 X107.908 Y84.524
G1 X128.803 Y105.418 E1.12305
G1 X128.217 Y105.479
G1 X107.585 Y84.847 E1.10891
G1 X107.262 Y85.171
G1 X127.63 Y105.539 E1.09477
G1 X127.044 Y105.599
G1 X106.939 Y85.494 E1.08063
G1 X106.616 Y85.817
G1 X126.458 Y105.659 E1.06649
G1 X125.871 Y105.719
G1 X106.292 Y86.14 E1.05235
G1 X105.969 Y86.463
G1 X125.285 Y105.779 E1.03821
G1 X124.699 Y105.839
G1 X105.646 Y86.787 E1.02406
G1 X105.323 Y87.11
G1 X124.112 Y105.899 E1.00992
M73 P5 R66
G1 X123.526 Y105.959
G1 X105 Y87.433 E.99578
G1 X104.676 Y87.756
G1 X122.94 Y106.02 E.98164
G1 X122.354 Y106.08
G1 X104.353 Y88.079 E.9675
G1 X104.03 Y88.403
G1 X121.767 Y106.14 E.95336
G1 X121.181 Y106.2
G1 X103.707 Y88.726 E.93922
G1 X103.384 Y89.049
G1 X120.595 Y106.26 E.92508
G1 X120.008 Y106.32
G1 X105.273 Y91.585 E.79202
G1 X105.35 Y92.309
G1 X119.422 Y106.38 E.75633
G1 X118.836 Y106.44
G1 X105.274 Y92.878 E.72893
G1 X105.11 Y93.361
G1 X118.249 Y106.5 E.70621
G1 X117.663 Y106.561
G1 X104.896 Y93.793 E.68624
G1 X104.618 Y94.162
G1 X117.077 Y106.621 E.66963
G1 X116.491 Y106.681
G1 X104.283 Y94.474 E.65612
G1 X103.91 Y94.746
G1 X115.904 Y106.741 E.64469
G1 X115.318 Y106.801
G1 X103.461 Y94.944 E.6373
G1 X102.953 Y95.082
G1 X114.732 Y106.861 E.63309
G1 X114.145 Y106.921
G1 X102.366 Y95.142 E.63312
G1 X101.593 Y95.015
G1 X113.559 Y106.981 E.64315
G1 X112.973 Y107.041
G1 X99.182 Y93.251 E.74124
G1 X98.859 Y93.574
G1 X112.386 Y107.101 E.7271
G1 X111.8 Y107.162
G1 X98.536 Y93.897 E.71296
G1 X98.212 Y94.22
G1 X111.214 Y107.222 E.69882
G1 X110.628 Y107.282
G1 X97.889 Y94.543 E.68467
G1 X97.566 Y94.867
G1 X110.041 Y107.342 E.67053
G1 X109.455 Y107.402
G1 X97.243 Y95.19 E.65639
G1 X96.92 Y95.513
G1 X108.869 Y107.462 E.64225
G1 X108.282 Y107.522
G1 X96.596 Y95.836 E.62811
G1 X96.273 Y96.159
G1 X107.696 Y107.582 E.61397
G1 X107.11 Y107.642
G1 X95.95 Y96.483 E.59983
G1 X95.627 Y96.806
G1 X106.523 Y107.703 E.58569
G1 X105.937 Y107.763
G1 X95.304 Y97.129 E.57154
G1 X94.98 Y97.452
G1 X105.351 Y107.823 E.5574
G1 X104.765 Y107.883
G1 X94.657 Y97.775 E.54326
M73 P5 R65
G1 X94.334 Y98.099
G1 X104.178 Y107.943 E.52912
G1 X103.592 Y108.003
G1 X94.011 Y98.422 E.51498
G1 X93.688 Y98.745
G1 X103.006 Y108.063 E.50084
G1 X102.419 Y108.123
G1 X93.364 Y99.068 E.4867
G1 X93.041 Y99.391
G1 X101.833 Y108.183 E.47256
G1 X101.247 Y108.243
G1 X92.718 Y99.715 E.45841
G1 X92.395 Y100.038
G1 X100.66 Y108.304 E.44427
G1 X100.074 Y108.364
G1 X92.071 Y100.361 E.43013
G1 X91.748 Y100.684
G1 X99.488 Y108.424 E.41599
G1 X98.901 Y108.484
G1 X91.425 Y101.008 E.40185
G1 X91.102 Y101.331
G1 X98.315 Y108.544 E.38771
G1 X97.729 Y108.604
G1 X90.779 Y101.654 E.37357
G1 X90.455 Y101.977
G1 X97.143 Y108.664 E.35943
G1 X96.556 Y108.724
G1 X90.132 Y102.3 E.34528
M73 P6 R65
G1 X89.809 Y102.624
G1 X95.97 Y108.784 E.33114
G1 X95.384 Y108.845
G1 X89.486 Y102.947 E.317
G1 X89.163 Y103.27
G1 X94.797 Y108.905 E.30286
G1 X94.211 Y108.965
G1 X88.839 Y103.593 E.28872
G1 X88.516 Y103.916
G1 X93.625 Y109.025 E.27458
G1 X93.038 Y109.085
G1 X88.193 Y104.24 E.26044
G1 X87.87 Y104.563
G1 X92.452 Y109.145 E.2463
G1 X91.866 Y109.205
G1 X87.547 Y104.886 E.23215
G1 X87.223 Y105.209
G1 X91.28 Y109.265 E.21801
G1 X90.693 Y109.325
G1 X86.9 Y105.532 E.20387
G1 X86.577 Y105.856
G1 X90.107 Y109.386 E.18973
G1 X89.521 Y109.446
G1 X86.254 Y106.179 E.17559
G1 X85.931 Y106.502
G1 X88.934 Y109.506 E.16145
G1 X88.348 Y109.566
G1 X85.607 Y106.825 E.14731
G1 X85.284 Y107.148
G1 X87.762 Y109.626 E.13317
G1 X87.261 Y109.772
G1 X84.961 Y107.472 E.12363
G1 X84.638 Y107.795
G1 X86.879 Y110.036 E.12044
G1 X86.555 Y110.359
G1 X84.315 Y108.118 E.12044
G1 X83.991 Y108.441
G1 X86.232 Y110.682 E.12044
G1 X85.909 Y111.005
G1 X83.668 Y108.764 E.12044
G1 X83.345 Y109.088
G1 X85.586 Y111.328 E.12044
G1 X85.263 Y111.652
G1 X83.022 Y109.411 E.12044
G1 X82.699 Y109.734
G1 X84.939 Y111.975 E.12044
G1 X84.616 Y112.298
G1 X82.375 Y110.057 E.12044
G1 X82.052 Y110.38
G1 X84.293 Y112.621 E.12044
G1 X83.97 Y112.944
G1 X81.729 Y110.704 E.12044
G1 X81.406 Y111.027
G1 X83.647 Y113.268 E.12044
G1 X83.323 Y113.591
G1 X81.083 Y111.35 E.12044
G1 X80.759 Y111.673
G1 X83 Y113.914 E.12044
G1 X82.677 Y114.237
G1 X80.436 Y111.996 E.12044
G1 X80.113 Y112.32
G1 X82.354 Y114.56 E.12044
G1 X82.031 Y114.884
G1 X79.79 Y112.643 E.12044
G1 X79.467 Y112.966
G1 X81.707 Y115.207 E.12044
G1 X81.384 Y115.53
G1 X79.143 Y113.289 E.12044
G1 X78.82 Y113.612
G1 X81.061 Y115.853 E.12044
G1 X80.738 Y116.176
G1 X78.497 Y113.936 E.12044
G1 X78.174 Y114.259
G1 X80.414 Y116.5 E.12044
G1 X80.091 Y116.823
G1 X77.851 Y114.582 E.12044
G1 X77.527 Y114.905
G1 X79.768 Y117.146 E.12044
G1 X79.445 Y117.469
G1 X77.204 Y115.228 E.12044
G1 X76.881 Y115.552
G1 X79.122 Y117.792 E.12044
G1 X78.798 Y118.116
G1 X76.558 Y115.875 E.12044
G1 X76.235 Y116.198
G1 X78.475 Y118.439 E.12044
G1 X78.152 Y118.762
G1 X75.911 Y116.521 E.12044
G1 X75.588 Y116.844
G1 X77.829 Y119.085 E.12044
G1 X77.506 Y119.408
G1 X75.265 Y117.168 E.12044
G1 X74.942 Y117.491
G1 X77.182 Y119.732 E.12044
G1 X76.859 Y120.055
G1 X74.618 Y117.814 E.12044
G1 X74.295 Y118.137
G1 X76.536 Y120.378 E.12044
G1 X76.213 Y120.701
G1 X73.972 Y118.461 E.12044
G1 E-4 F1800
G1 Z.6 F12000
G1 X101.511 Y95.098 Z.6
G1 Z.2
G1 E4 F1800
;TYPE:Gap infill
;WIDTH:0.106545
G1 F900
G1 X101.107 Y94.82 E.00259
G1 X101.609 Y95 F12000
;WIDTH:0.134415
G1 F900
G1 X101.319 Y95.064 E.00226
G1 E-2.8 F1800
;WIPE_START
G1 F900
G1 X101.609 Y95 E-1.2
;WIPE_END
G1 Z.6 F12000
G1 X103.536 Y94.131 Z.6
G1 X103.99 Y93.783
G1 X104.338 Y93.329
G1 X105.36 Y91.498
G1 Z.2
G1 E4 F1800
;WIDTH:0.154651
G1 F900
G1 X105.227 Y91.293 E.00227
;WIDTH:0.152516
