; HEADER_BLOCK_START
; generated by OrcaSlicer 1.7.0 on 2023-11-12 at 18:01:29
; total layer number: 70
; HEADER_BLOCK_END

; THUMBNAIL_BLOCK_START
; THUMBNAIL_BLOCK_END

; external perimeters extrusion width = 0.40mm
; perimeters extrusion width = 0.45mm
; infill extrusion width = 0.45mm
; solid infill extrusion width = 0.40mm
; top infill extrusion width = 0.40mm
; first layer extrusion width = 0.50mm

; external perimeters extrusion width = 0.40mm
; perimeters extrusion width = 0.45mm
; infill extrusion width = 0.45mm
; solid infill extrusion width = 0.40mm
; top infill extrusion width = 0.40mm
; first layer extrusion width = 0.50mm

; EXECUTABLE_BLOCK_START
EXCLUDE_OBJECT_DEFINE NAME=Ender_3_Cable_Chain_Link_v2_id_0_copy_0 CENTER=127.5,110 POLYGON=[[115,102.355],[117.34,96.2509],[137.66,96.2509],[140,102.355],[140,123.749],[115,123.749],[115,102.355]]
EXCLUDE_OBJECT_DEFINE NAME=Ender_3_Cable_Chain_Link_v2_id_1_copy_0 CENTER=92.5,110 POLYGON=[[80,102.355],[82.34,96.2509],[102.66,96.2509],[105,102.355],[105,123.749],[80,123.749],[80,102.355]]
M73 P0 R39
;TYPE:Custom
START_PRINT EXTRUDER_TEMP=250  BED_TEMP=80
G90
G21
M83 ; use relative distances for extrusion
; filament start gcode
M106 S0
;LAYER_CHANGE
;Z:0.2
;HEIGHT:0.2
;BEFORE_LAYER_CHANGE
;0.2
G92 E0

G1 E-4 F1800
;_SET_FAN_SPEED_CHANGING_LAYER
SET_VELOCITY_LIMIT SQUARE_CORNER_VELOCITY=8
G1 Z.4 F12000
G1 X73.461 Y91.818
G1 Z.4
G1 Z.2
G1 E4 F1800
;TYPE:Skirt
;WIDTH:0.5
G1 F900
G1 X76.006 Y89.901 E.12111
G1 X78.948 Y88.675 E.12111
G1 X82.34 Y88.215 E.1301
G1 X137.66 Y88.215 E2.10251
G1 X140.822 Y88.614 E.12111
G1 X143.785 Y89.784 E.12111
G1 X146.366 Y91.653 E.12111
G1 X148.402 Y94.104 E.12111
G1 X149.839 Y97.211 E.1301
G1 X152.179 Y104.818 E.30249
G1 X152.742 Y108.565 E.14399
G1 X152.742 Y117.835 E.35231
G1 X152.344 Y120.996 E.12111
G1 X151.174 Y123.96 E.12111
G1 X149.305 Y126.541 E.12111
G1 X146.854 Y128.577 E.12111
G1 X143.974 Y129.942 E.12111
G1 X140 Y130.577 E.15295
G1 X80 Y130.577 E2.28038
G1 X76.838 Y130.179 E.12111
G1 X73.875 Y129.008 E.12111
G1 X71.294 Y127.139 E.12111
G1 X69.258 Y124.688 E.12111
G1 X67.893 Y121.809 E.12111
G1 X67.258 Y117.835 E.15295
G1 X67.258 Y108.565 E.35231
G1 X67.821 Y104.818 E.14399
G1 X70.161 Y97.211 E.30249
G1 X71.471 Y94.307 E.12111
G1 X73.436 Y91.849 E.11959
G1 X73.799 Y92.144 F12000
G1 F900
G1 X73.862 Y92.067 E.00376
G1 X76.382 Y90.214 E.11891
G1 X79.289 Y89.057 E.11891
G1 X82.34 Y88.672 E.11687
G1 X137.66 Y88.672 E2.10251
G1 X140.763 Y89.071 E.11891
G1 X143.665 Y90.24 E.11891
G1 X146.178 Y92.104 E.11891
G1 X148.138 Y94.543 E.11891
G1 X149.402 Y97.346 E.11687
G1 X151.742 Y104.953 E.30249
G1 X152.285 Y108.565 E.13882
G1 X152.285 Y117.835 E.35231
G1 X151.887 Y120.938 E.11891
G1 X150.718 Y123.84 E.11891
M73 P1 R39
G1 X148.853 Y126.352 E.11891
G1 X146.415 Y128.312 E.11891
G1 X143.56 Y129.593 E.11891
G1 X140 Y130.12 E.13679
G1 X80 Y130.12 E2.28038
G1 X76.897 Y129.722 E.11891
G1 X73.995 Y128.552 E.11891
G1 X71.482 Y126.688 E.11891
G1 X69.522 Y124.249 E.11891
G1 X68.242 Y121.395 E.11891
G1 X67.715 Y117.835 E.13679
G1 X67.715 Y108.565 E.35231
G1 X68.258 Y104.953 E.13882
G1 X70.598 Y97.346 E.30249
G1 X71.891 Y94.497 E.11891
G1 X73.774 Y92.175 E.11363
G1 X74.135 Y92.472 F12000
G1 F900
G1 X74.261 Y92.318 E.00756
G1 X76.756 Y90.53 E.11667
G1 X79.628 Y89.445 E.11667
G1 X82.34 Y89.129 E.10378
G1 X137.66 Y89.129 E2.10251
G1 X140.704 Y89.528 E.11667
G1 X143.542 Y90.696 E.11667
G1 X145.985 Y92.555 E.11667
G1 X147.867 Y94.98 E.11667
G1 X148.966 Y97.48 E.10378
G1 X151.306 Y105.087 E.30249
G1 X151.828 Y108.565 E.13366
G1 X151.828 Y117.835 E.35231
G1 X151.43 Y120.878 E.11667
G1 X150.262 Y123.717 E.11667
G1 X148.403 Y126.159 E.11667
G1 X145.978 Y128.041 E.11667
G1 X143.15 Y129.236 E.11667
G1 X140 Y129.663 E.12081
G1 X80 Y129.663 E2.28038
G1 X76.956 Y129.265 E.11667
G1 X74.118 Y128.096 E.11667
G1 X71.675 Y126.237 E.11667
G1 X69.793 Y123.812 E.11667
G1 X68.599 Y120.984 E.11667
G1 X68.172 Y117.835 E.12081
G1 X68.172 Y108.565 E.35231
G1 X68.694 Y105.087 E.13366
G1 X71.034 Y97.48 E.30249
G1 X72.31 Y94.688 E.11667
G1 X74.109 Y92.503 E.10759
G1 X74.467 Y92.802 F12000
G1 F900
G1 X74.66 Y92.572 E.0114
G1 X77.129 Y90.851 E.11438
G1 X79.963 Y89.838 E.11438
G1 X82.34 Y89.586 E.09086
G1 X137.66 Y89.586 E2.10251
M73 P2 R39
G1 X140.643 Y89.985 E.11438
G1 X143.417 Y91.152 E.11438
G1 X145.788 Y93.005 E.11438
G1 X147.589 Y95.416 E.11438
G1 X148.529 Y97.614 E.09086
G1 X150.869 Y105.222 E.30249
M73 P2 R38
G1 X151.371 Y108.565 E.12849
G1 X151.371 Y117.835 E.35231
G1 X150.973 Y120.818 E.11438
G1 X149.806 Y123.592 E.11438
G1 X147.952 Y125.962 E.11438
G1 X145.542 Y127.764 E.11438
G1 X142.743 Y128.87 E.11438
G1 X140 Y129.206 E.10503
G1 X80 Y129.206 E2.28038
G1 X77.017 Y128.808 E.11438
G1 X74.243 Y127.641 E.11438
G1 X71.872 Y125.787 E.11438
G1 X70.071 Y123.376 E.11438
G1 X68.965 Y120.577 E.11438
G1 X68.629 Y117.835 E.10503
G1 X68.629 Y108.565 E.35231
G1 X69.131 Y105.222 E.12849
G1 X71.471 Y97.614 E.30249
G1 X72.729 Y94.88 E.11438
G1 X74.442 Y92.833 E.10146
G1 X74.797 Y93.135 F12000
G1 F900
G1 X75.058 Y92.828 E.0153
G1 X77.499 Y91.176 E.11205
G1 X80.294 Y90.237 E.11205
G1 X82.34 Y90.044 E.07811
G1 X137.66 Y90.044 E2.10251
G1 X140.581 Y90.442 E.11205
G1 X143.289 Y91.607 E.11205
G1 X145.586 Y93.455 E.11205
G1 X147.305 Y95.85 E.11205
G1 X148.092 Y97.749 E.07811
G1 X150.432 Y105.356 E.30249
G1 X150.914 Y108.565 E.12333
G1 X150.914 Y117.835 E.35231
G1 X150.516 Y120.756 E.11205
G1 X149.351 Y123.464 E.11205
G1 X147.503 Y125.761 E.11205
G1 X145.108 Y127.48 E.11205
G1 X142.34 Y128.495 E.11205
G1 X140 Y128.749 E.08945
G1 X80 Y128.749 E2.28038
M73 P3 R38
G1 X77.079 Y128.351 E.11205
G1 X74.371 Y127.185 E.11205
G1 X72.074 Y125.337 E.11205
G1 X70.355 Y122.942 E.11205
G1 X69.34 Y120.174 E.11205
G1 X69.086 Y117.835 E.08945
G1 X69.086 Y108.565 E.35231
G1 X69.568 Y105.356 E.12333
G1 X71.908 Y97.749 E.30249
G1 X73.148 Y95.074 E.11205
G1 X74.771 Y93.165 E.09523
G1 X75.123 Y93.47 F12000
G1 F900
G1 X75.455 Y93.087 E.01925
G1 X77.868 Y91.505 E.10966
G1 X80.621 Y90.643 E.10966
G1 X82.34 Y90.501 E.06555
G1 X137.66 Y90.501 E2.10251
G1 X140.518 Y90.899 E.10966
G1 X143.158 Y92.063 E.10966
G1 X145.38 Y93.904 E.10966
G1 X147.014 Y96.282 E.10966
G1 X147.655 Y97.883 E.06555
G1 X149.995 Y105.49 E.30249
G1 X150.457 Y108.565 E.11816
G1 X150.457 Y117.835 E.35231
G1 X150.059 Y120.692 E.10966
G1 X148.895 Y123.333 E.10966
G1 X147.054 Y125.554 E.10966
G1 X144.676 Y127.188 E.10966
G1 X141.941 Y128.11 E.10966
G1 X140 Y128.292 E.07411
G1 X80 Y128.292 E2.28038
G1 X77.142 Y127.894 E.10966
G1 X74.502 Y126.73 E.10966
G1 X72.28 Y124.888 E.10966
G1 X70.646 Y122.51 E.10966
G1 X69.725 Y119.776 E.10966
G1 X69.543 Y117.835 E.07411
G1 X69.543 Y108.565 E.35231
G1 X70.005 Y105.49 E.11816
G1 X72.345 Y97.883 E.30249
G1 X73.566 Y95.269 E.10966
G1 X75.097 Y93.5 E.0889
; printing object Ender 3 Cable Chain Link v2 id:0 copy 0
G1 E-2.8 F1800
;WIPE_START
G1 F900
G1 X75.455 Y93.087 E-.6557
G1 X75.834 Y92.839 E-.5443
;WIPE_END
EXCLUDE_OBJECT_START NAME=Ender_3_Cable_Chain_Link_v2_id_0_copy_0
G1 Z.6 F12000
G1 X116.187 Y113.882 Z.6
G1 Z.2
G1 E4 F1800
;TYPE:Inner wall
;WIDTH:0.544688
G1 F900
G1 X116.164 Y113.183 E.02918
;WIDTH:0.499999
G1 X116.164 Y109.729 E.13126
G1 X117.361 Y109.729 E.0455
G1 X117.624 Y109.698 E.01004
G1 X117.831 Y109.628 E.0083
G1 X118.103 Y109.455 E.01227
G1 X118.27 Y109.279 E.00922
G1 X118.457 Y108.91 E.01574
G1 X118.504 Y108.586 E.01242
G1 X118.504 Y103.308 E.20061
G1 X118.959 Y103.459 E.0182
G1 X136.041 Y103.459 E.64926
G1 X136.496 Y103.308 E.0182
G1 X136.496 Y108.449 E.19538
G1 X136.506 Y108.74 E.01106
G1 X136.614 Y109.092 E.01403
G1 X136.897 Y109.455 E.01747
G1 X137.115 Y109.602 E.01
G1 X137.376 Y109.698 E.01058
G1 X137.639 Y109.729 E.01004
G1 X138.836 Y109.729 E.04551
G1 X138.836 Y110.926 E.04551
G1 X138.836 Y113.183 E.08575
;WIDTH:0.54469
G1 X138.813 Y113.882 E.02918
G1 X138.321 Y113.526 E.02535
;WIDTH:0.499999
G1 X137.881 Y113.438 E.01703
G1 X117.119 Y113.438 E.78912
M73 P4 R38
G1 X116.679 Y113.526 E.01703
;WIDTH:0.544688
G1 X116.219 Y113.858 E.02368
G1 X116.45 Y114.411 F12000
;WIDTH:0.589587
G1 F900
G1 X116.434 Y114.443 E.00163
;WIDTH:0.63438
G1 X116.366 Y114.581 E.00753
G1 X116.366 Y117.06 E.12195
G1 X115.774 Y117.06 E.02909
G1 X115.774 Y114.581 E.12195
G1 X115.752 Y114.348 E.01151
;WIDTH:0.589587
G1 X115.729 Y114.115 E.01064
;WIDTH:0.544793
G1 X115.707 Y113.882 E.00977
;WIDTH:0.499999
G1 X115.707 Y109.272 E.1752
G1 X117.361 Y109.272 E.06288
G1 X117.519 Y109.254 E.00603
G1 X117.807 Y109.108 E.01226
G1 X117.976 Y108.89 E.01048
G1 X118.047 Y108.586 E.01185
G1 X118.047 Y103.115 E.20793
G1 X118.028 Y102.849 E.01014
;WIDTH:0.46146
G1 X118.009 Y102.583 E.00929
;WIDTH:0.42292
G1 X117.989 Y102.317 E.00843
;WIDTH:0.38438
G1 X117.989 Y101.607 E.02015
G1 X118.331 Y101.607 E.00969
G1 X118.331 Y102.317 E.02015
;WIDTH:0.421224
G1 X118.369 Y102.582 E.00844
;WIDTH:0.460612
G1 X118.458 Y102.724 E.00581
;WIDTH:0.499999
G1 X118.547 Y102.865 E.00635
G1 X118.959 Y103.002 E.01648
G1 X136.041 Y103.002 E.64926
G1 X136.453 Y102.865 E.01648
G1 X136.542 Y102.724 E.00635
;WIDTH:0.460611
G1 X136.631 Y102.582 E.00581
;WIDTH:0.421222
G1 X136.669 Y102.317 E.00844
;WIDTH:0.384379
G1 X136.669 Y101.607 E.02015
G1 X137.011 Y101.607 E.00969
G1 X137.011 Y102.317 E.02015
;WIDTH:0.422919
G1 X136.991 Y102.583 E.00843
;WIDTH:0.461459
G1 X136.972 Y102.849 E.00929
;WIDTH:0.499999
G1 X136.953 Y103.115 E.01014
G1 X136.953 Y108.449 E.2027
G1 X136.981 Y108.78 E.01265
G1 X137.093 Y109.002 E.00944
G1 X137.324 Y109.196 E.01146
G1 X137.639 Y109.272 E.01229
G1 X139.293 Y109.272 E.06288
G1 X139.293 Y110.926 E.06288
G1 X139.293 Y114.186 E.1239
;WIDTH:0.544793
G1 X139.271 Y114.318 E.00557
;WIDTH:0.589587
G1 X139.248 Y114.449 E.00606
;WIDTH:0.63438
G1 X139.226 Y114.581 E.00656
G1 X139.226 Y117.06 E.12195
G1 X138.634 Y117.06 E.02909
G1 X138.634 Y114.581 E.12195
G1 X138.566 Y114.443 E.00753
;WIDTH:0.589587
G1 X138.498 Y114.306 E.00696
;WIDTH:0.544793
G1 X138.43 Y114.169 E.00639
;WIDTH:0.499999
G1 X138.145 Y113.948 E.01371
G1 X137.881 Y113.895 E.01022
G1 X117.119 Y113.895 E.78912
G1 X116.855 Y113.948 E.01022
G1 X116.57 Y114.169 E.01371
;WIDTH:0.544793
G1 X116.502 Y114.306 E.00639
;WIDTH:0.589587
G1 X116.468 Y114.376 E.00351
G1 X116.89 Y114.581 F12000
;TYPE:Outer wall
;WIDTH:0.499999
G1 F900
G1 X116.89 Y117.585 E.11417
G1 X115.25 Y117.585 E.06233
G1 X115.25 Y108.815 E.33331
G1 X117.361 Y108.815 E.08025
G1 X117.414 Y108.809 E.00201
G1 X117.543 Y108.725 E.00586
G1 X117.59 Y108.586 E.00556
G1 X117.59 Y101.208 E.28043
G1 X118.73 Y101.208 E.04333
G1 X118.73 Y102.317 E.04215
G1 X118.821 Y102.5 E.00777
G1 X118.959 Y102.545 E.00549
G1 X136.041 Y102.545 E.64926
G1 X136.179 Y102.5 E.00549
G1 X136.27 Y102.317 E.00777
G1 X136.27 Y101.208 E.04215
G1 X137.41 Y101.208 E.04333
G1 X137.412 Y108.617 E.2816
G1 X137.49 Y108.76 E.0062
G1 X137.639 Y108.815 E.00601
G1 X139.75 Y108.815 E.08025
G1 X139.75 Y110.926 E.08025
G1 X139.75 Y117.585 E.25306
G1 X138.11 Y117.585 E.06233
G1 X138.11 Y114.581 E.11417
G1 X138.064 Y114.443 E.00549
G1 X137.881 Y114.352 E.00777
G1 X117.119 Y114.352 E.78912
G1 X116.936 Y114.443 E.00777
G1 X116.903 Y114.543 E.00397
G1 E-4 F1800
G1 Z.6 F12000
G1 X138.864 Y114.186 Z.6
G1 Z.2
G1 E4 F1800
;TYPE:Inner wall
;WIDTH:0.477009
G1 F900
G1 X138.847 Y114.085 E.00372
;WIDTH:0.51085
G1 X138.83 Y113.983 E.004
;WIDTH:0.54469
G1 X138.813 Y113.882 E.00429
G1 E-4 F1800
G1 Z.6 F12000
G1 X116.136 Y114.186 Z.6
G1 Z.2
G1 E4 F1800
;WIDTH:0.375021
G1 F900
G1 X116.146 Y114.125 E.00171
;WIDTH:0.417438
G1 X116.156 Y114.064 E.00192
;WIDTH:0.459855
G1 X116.166 Y114.003 E.00214
;WIDTH:0.502272
G1 X116.176 Y113.942 E.00236
;WIDTH:0.544688
G1 X116.187 Y113.882 E.00258
G1 E-4 F1800
G1 Z.6 F12000
G1 X136.244 Y104.2 Z.6
G1 Z.2
G1 E4 F1800
;TYPE:Bottom surface
;WIDTH:0.5
G1 F1200
G1 X135.755 Y103.711 E.02631
G1 X135.109 Y103.711
G1 X136.244 Y104.847 E.06105
G1 X136.244 Y105.493
G1 X134.462 Y103.711 E.0958
G1 X133.816 Y103.711
G1 X136.244 Y106.14 E.13054
G1 X136.244 Y106.786
G1 X133.169 Y103.711 E.16529
G1 X132.523 Y103.711
G1 X136.244 Y107.432 E.20003
G1 X136.244 Y108.079
G1 X131.877 Y103.711 E.23477
G1 X131.23 Y103.711
G1 X136.254 Y108.735 E.27005
M73 P4 R37
G1 E-4 F1800
G1 Z.6 F12000
G1 X138.146 Y109.98 Z.6
G1 Z.2
G1 E4 F1800
G1 F1200
G1 X138.584 Y110.419 E.02357
G1 X138.584 Y111.065
G1 X137.481 Y109.962 E.05928
G1 E-4 F1800
G1 Z.6 F12000
G1 X138.584 Y111.712 Z.6
G1 Z.2
G1 E4 F1800
G1 F1200
G1 X130.584 Y103.711 E.43003
G1 X129.937 Y103.711
G1 X138.584 Y112.358 E.46478
G1 X138.584 Y113.004
G1 X129.291 Y103.711 E.49952
G1 X128.644 Y103.711
G1 X138.179 Y113.246 E.51248
G1 X137.474 Y113.187
G1 X127.998 Y103.711 E.50931
G1 X127.352 Y103.711
G1 X136.827 Y113.187 E.50931
G1 X136.181 Y113.187
G1 X126.705 Y103.711 E.50931
G1 X126.059 Y103.711
G1 X135.535 Y113.187 E.50931
G1 X134.888 Y113.187
M73 P5 R37
G1 X125.412 Y103.711 E.50931
G1 X124.766 Y103.711
G1 X134.242 Y113.187 E.50931
G1 X133.595 Y113.187
G1 X124.12 Y103.711 E.50931
G1 X123.473 Y103.711
G1 X132.949 Y113.187 E.50931
G1 X132.302 Y113.187
G1 X122.827 Y103.711 E.50931
G1 X122.18 Y103.711
G1 X131.656 Y113.187 E.50931
G1 X131.01 Y113.187
G1 X121.534 Y103.711 E.50931
G1 X120.888 Y103.711
G1 X130.363 Y113.187 E.50931
G1 X129.717 Y113.187
G1 X120.241 Y103.711 E.50931
G1 X119.595 Y103.711
G1 X129.07 Y113.187 E.50931
G1 X128.424 Y113.187
G1 X118.945 Y103.708 E.50948
G1 X118.756 Y104.164
G1 X127.778 Y113.187 E.48493
G1 X127.131 Y113.187
G1 X118.756 Y104.811 E.45018
G1 X118.756 Y105.457
G1 X126.485 Y113.187 E.41544
G1 X125.838 Y113.187
G1 X118.756 Y106.104 E.3807
G1 X118.756 Y106.75
G1 X125.192 Y113.187 E.34595
G1 X124.546 Y113.187
G1 X118.756 Y107.396 E.31121
G1 X118.756 Y108.043
G1 X123.899 Y113.187 E.27647
G1 X123.253 Y113.187
G1 X118.749 Y108.683 E.24207
G1 X118.615 Y109.195
G1 X122.606 Y113.187 E.21454
G1 X121.96 Y113.187
G1 X118.341 Y109.568 E.1945
G1 X117.965 Y109.838
G1 X121.314 Y113.187 E.17998
G1 X120.667 Y113.187
G1 X117.451 Y109.97 E.17288
G1 X116.815 Y109.98
G1 X120.021 Y113.187 E.17233
G1 X119.374 Y113.187
G1 X116.416 Y110.228 E.15903
G1 X116.416 Y110.874
G1 X118.728 Y113.187 E.12429
G1 X118.082 Y113.187
G1 X116.416 Y111.521 E.08954
G1 X116.416 Y112.167
G1 X117.435 Y113.187 E.0548
G1 X116.843 Y113.241
G1 X116.416 Y112.813 E.02299
G1 E-4 F1800
G1 Z.6 F12000
G1 X118.839 Y108.449 Z.6
G1 Z.2
G1 E4 F1800
;TYPE:Gap infill
;WIDTH:0.136513
G1 F900
G1 X118.729 Y108.703 E.00215
G1 E-4 F1800
G1 Z.6 F12000
G1 X136.358 Y109.14 Z.6
G1 Z.2
G1 E4 F1800
;WIDTH:0.155811
G1 F900
G1 X136.168 Y108.822 E.00348
G1 X137.4 Y110.044 F12000
;WIDTH:0.207823
G1 F900
G1 X137.072 Y109.867 E.00511
G1 E-4 F1800
G1 Z.6 F12000
G1 X138.607 Y112.987 Z.6
G1 Z.2
G1 E4 F1800
;WIDTH:0.25932
G1 F900
G1 X138.498 Y113.246 E.00505
G1 X138.463 Y113.245 E.00062
;WIDTH:0.204603
G1 X138.365 Y113.223 E.00135
G1 X138.259 Y113.166 E.00163
G1 E-4 F1800
G1 Z.6 F12000
G1 X116.729 Y110.066 Z.6
G1 Z.2
G1 E4 F1800
;WIDTH:0.178766
G1 F900
G1 X116.622 Y110.021 E.00131
G1 X116.393 Y110.021 E.00259
; stop printing object Ender 3 Cable Chain Link v2 id:0 copy 0
; printing object Ender 3 Cable Chain Link v2 id:1 copy 0
G1 E-2.8 F1800
;WIPE_START
G1 F900
G1 X116.622 Y110.021 E-.79694
G1 X116.729 Y110.066 E-.40306
;WIPE_END
EXCLUDE_OBJECT_END NAME=Ender_3_Cable_Chain_Link_v2_id_0_copy_0
EXCLUDE_OBJECT_START NAME=Ender_3_Cable_Chain_Link_v2_id_1_copy_0
G1 Z.6 F12000
G1 X81.187 Y113.882 Z.6
G1 Z.2
G1 E4 F1800
;TYPE:Inner wall
;WIDTH:0.544688
G1 F900
G1 X81.164 Y113.183 E.02918
;WIDTH:0.499999
G1 X81.164 Y109.729 E.13126
G1 X82.361 Y109.729 E.0455
G1 X82.624 Y109.698 E.01004
G1 X82.831 Y109.628 E.0083
G1 X83.103 Y109.455 E.01227
G1 X83.27 Y109.279 E.00922
G1 X83.457 Y108.91 E.01574
G1 X83.504 Y108.586 E.01242
G1 X83.504 Y103.308 E.20061
G1 X83.959 Y103.459 E.0182
G1 X101.041 Y103.459 E.64926
G1 X101.496 Y103.308 E.0182
G1 X101.496 Y108.449 E.19538
G1 X101.506 Y108.74 E.01106
G1 X101.614 Y109.092 E.01403
G1 X101.897 Y109.455 E.01747
G1 X102.115 Y109.602 E.01
G1 X102.376 Y109.698 E.01058
G1 X102.639 Y109.729 E.01004
G1 X103.836 Y109.729 E.04551
G1 X103.836 Y110.926 E.04551
