; HEADER_BLOCK_START
; generated by OrcaSlicer 1.7.0 on 2023-11-25 at 14:41:30
; total layer number: 235
; HEADER_BLOCK_END

; THUMBNAIL_BLOCK_START
; THUMBNAIL_BLOCK_END

; external perimeters extrusion width = 0.40mm
; perimeters extrusion width = 0.45mm
; infill extrusion width = 0.45mm
; solid infill extrusion width = 0.40mm
; top infill extrusion width = 0.40mm
; first layer extrusion width = 0.50mm

; EXECUTABLE_BLOCK_START
EXCLUDE_OBJECT_DEFINE NAME=Ender_3_4040_Cover.stl_id_0_copy_0 CENTER=110,110 POLYGON=[[35.25,98.6713],[46.8518,90],[184.75,90],[184.75,120],[169.75,130],[46.8518,130],[35.25,121.329],[35.25,98.6713]]
M73 P0 R332
;TYPE:Custom
START_PRINT EXTRUDER_TEMP=255  BED_TEMP=80
G90
G21
M83 ; use relative distances for extrusion
; filament start gcode
M106 S0
;LAYER_CHANGE
;Z:0.2
;HEIGHT:0.2
;BEFORE_LAYER_CHANGE
;0.2
G92 E0

G1 E-2 F3600
;_SET_FAN_SPEED_CHANGING_LAYER
SET_VELOCITY_LIMIT ACCEL=500 ACCEL_TO_DECEL=250
G1 X45.47 Y88.032 F9000
G1 Z.4
G1 Z.2
G1 E2 F3600
;TYPE:Skirt
;WIDTH:0.5
G1 F900
G1 X46.941 Y87.543 E.05597
G1 X184.75 Y87.543 E4.97575
G1 X186.081 Y87.935 E.0501
G1 X186.988 Y88.985 E.0501
G1 X187.207 Y90 E.03748
G1 X187.207 Y120 E1.08318
G1 X186.815 Y121.331 E.0501
G1 X186.113 Y122.044 E.03614
G1 X171.113 Y132.044 E.65091
G1 X169.75 Y132.457 E.05142
G1 X46.941 Y132.457 E4.43416
G1 X45.47 Y131.968 E.05597
G1 X33.779 Y123.23 E.52697
G1 X32.947 Y122.12 E.0501
G1 X32.793 Y121.262 E.03145
G1 X32.793 Y98.738 E.81327
G1 X33.185 Y97.407 E.0501
G1 X33.779 Y96.77 E.03145
G1 X45.438 Y88.056 E.52553
; printing object Ender 3 4040 Cover.stl id:0 copy 0
G1 E-1.4 F3600
;WIPE_START
G1 F900
G1 X46.384 Y87.733 E-.6
;WIPE_END
EXCLUDE_OBJECT_START NAME=Ender_3_4040_Cover.stl_id_0_copy_0
G17
G3 Z.6 I-.163 J1.206 P1  F9000
G1 X76.163 Y91.746 Z.6
G1 Z.2
G1 E2 F3600
;TYPE:Inner wall
;WIDTH:0.499999
G1 F900
G1 X76.086 Y91.979 E.00883
G1 X76.086 Y128.021 E1.30136
M73 P0 R331
G1 X76.314 Y128.707 E.02609
G1 X76.572 Y128.836 E.0104
G1 X47.328 Y128.836 E1.05589
G1 X36.414 Y120.679 E.49194
G1 X36.414 Y99.321 E.77115
G1 X47.328 Y91.164 E.49194
G1 X76.524 Y91.164 E1.05417
G1 X76.314 Y91.293 E.00889
G1 X76.176 Y91.709 E.01582
G1 E-1.4 F3600
;WIPE_START
G1 F900
G1 X76.086 Y91.979 E-.17078
G1 X76.086 Y92.694 E-.42922
;WIPE_END
G17
G3 Z.6 I-.549 J-1.086 P1  F9000
G1 X61.357 Y100.142 Z.6
G1 Z.2
G1 E2 F3600
G1 F900
G1 X61.38 Y99.445 E.02518
G1 X61.542 Y98.757 E.02552
G1 X61.746 Y98.26 E.01937
G1 X62.271 Y97.472 E.03419
G1 X62.79 Y96.959 E.02638
G1 X63.483 Y96.513 E.02974
G1 X64.141 Y96.249 E.02559
G1 X64.665 Y96.132 E.0194
G1 X65.321 Y96.09 E.02374
G1 X65.856 Y96.135 E.01937
G1 X66.493 Y96.292 E.02371
G1 X66.99 Y96.496 E.01937
G1 X67.778 Y97.02 E.03419
G1 X68.291 Y97.54 E.02638
G1 X68.737 Y98.233 E.02974
G1 X69 Y98.891 E.02558
G1 X69.148 Y99.701 E.02975
G1 X69.12 Y100.555 E.03085
G1 X68.958 Y101.243 E.02551
G1 X68.612 Y101.995 E.02987
G1 X68.2 Y102.568 E.0255
G1 X67.71 Y103.041 E.0246
G1 X67.017 Y103.487 E.02974
G1 X66.359 Y103.75 E.02558
G1 X65.545 Y103.898 E.0299
G1 X64.839 Y103.889 E.02549
G1 X64.03 Y103.714 E.02986
G1 X63.255 Y103.362 E.03074
G1 X62.682 Y102.95 E.0255
G1 X62.536 Y102.816 E.00715
G1 X62.152 Y102.392 E.02065
G1 X61.761 Y101.764 E.02672
G1 X61.499 Y101.109 E.02548
G1 X61.352 Y100.299 E.02973
G1 X61.356 Y100.182 E.00423
G1 X61.807 Y100.147 F9000
G1 F900
G1 X61.836 Y99.474 E.02431
G1 X61.983 Y98.875 E.02228
G1 X62.23 Y98.327 E.02168
G1 X62.645 Y97.734 E.02613
G1 X63.099 Y97.296 E.02279
G1 X63.72 Y96.903 E.02653
G1 X64.298 Y96.679 E.02236
G1 X64.858 Y96.567 E.02064
G1 X65.371 Y96.546 E.01854
G1 X65.909 Y96.608 E.01955
G1 X66.474 Y96.768 E.02119
G1 X66.923 Y96.98 E.01792
G1 X67.516 Y97.395 E.02613
G1 X67.954 Y97.849 E.02279
G1 X68.347 Y98.47 E.02653
G1 X68.571 Y99.047 E.02236
G1 X68.696 Y99.771 E.02653
G1 X68.664 Y100.526 E.02727
G1 X68.517 Y101.125 E.02227
G1 X68.202 Y101.793 E.02665
G1 X67.837 Y102.29 E.02227
G1 X67.401 Y102.704 E.02173
G1 X66.78 Y103.097 E.02653
G1 X66.203 Y103.321 E.02236
G1 X65.475 Y103.447 E.02666
G1 X64.859 Y103.433 E.02226
G1 X64.139 Y103.27 E.02663
G1 X63.457 Y102.952 E.02716
G1 X62.873 Y102.507 E.02654
G1 X62.512 Y102.11 E.01936
G1 X62.152 Y101.527 E.02476
G1 X61.929 Y100.952 E.02225
G1 X61.804 Y100.229 E.02651
G1 X61.806 Y100.187 E.00152
G1 X62.331 Y100.626 F9000
;TYPE:Outer wall
G1 F900
G1 X62.255 Y100.159 E.01707
G1 X62.293 Y99.504 E.0237
G1 X62.425 Y98.993 E.01904
G1 X62.604 Y98.589 E.01595
G1 X63.019 Y97.997 E.02613
G1 X63.408 Y97.633 E.01921
G1 X63.958 Y97.294 E.02331
G1 X64.454 Y97.108 E.01914
G1 X64.878 Y97.024 E.01561
G1 X65.396 Y97.004 E.01872
G1 X65.791 Y97.05 E.01435
G1 X66.29 Y97.186 E.01868
G1 X66.661 Y97.354 E.0147
G1 X67.253 Y97.769 E.02613
G1 X67.617 Y98.158 E.01921
G1 X67.956 Y98.708 E.02331
G1 X68.142 Y99.204 E.01913
G1 X68.245 Y99.841 E.0233
G1 X68.207 Y100.496 E.0237
G1 X68.075 Y101.007 E.01903
G1 X67.792 Y101.59 E.02342
G1 X67.475 Y102.012 E.01905
G1 X67.092 Y102.367 E.01886
G1 X66.542 Y102.706 E.02331
G1 X66.046 Y102.892 E.01913
G1 X65.405 Y102.995 E.02343
G1 X64.879 Y102.976 E.01904
G1 X64.248 Y102.826 E.02341
G1 X63.66 Y102.542 E.02358
G1 X63.209 Y102.198 E.02047
G1 X62.872 Y101.829 E.01807
G1 X62.543 Y101.29 E.02279
G1 X62.358 Y100.796 E.01903
G1 X62.337 Y100.665 E.00478
G1 E-1.4 F3600
;WIPE_START
G1 F900
G1 X62.255 Y100.159 E-.30759
G1 X62.283 Y99.672 E-.29241
;WIPE_END
G17
G3 Z.6 I-.906 J-.813 P1  F9000
G1 X42.046 Y122.223 Z.6
G1 Z.2
G1 E2 F3600
;TYPE:Inner wall
G1 F900
G1 X41.749 Y121.743 E.02041
G1 X41.542 Y121.248 E.01937
G1 X41.356 Y120.32 E.03418
G1 X41.347 Y119.734 E.02116
G1 X41.53 Y118.805 E.03418
G1 X41.746 Y118.26 E.02116
G1 X42.27 Y117.472 E.03419
G1 X42.79 Y116.959 E.02638
G1 X43.483 Y116.513 E.02974
G1 X44.141 Y116.249 E.02559
G1 X44.956 Y116.102 E.02989
G1 X45.516 Y116.097 E.02024
G1 X46.445 Y116.28 E.03419
G1 X47.118 Y116.564 E.02639
G1 X47.572 Y116.851 E.01937
G1 X48.256 Y117.504 E.03417
G1 X48.425 Y117.72 E.00988
G1 X48.739 Y118.236 E.02181
G1 X49.001 Y118.891 E.02548
G1 X49.148 Y119.701 E.02973
G1 X49.12 Y120.555 E.03085
G1 X48.958 Y121.243 E.02552
G1 X48.754 Y121.74 E.01937
G1 X48.23 Y122.528 E.03419
G1 X47.71 Y123.041 E.02638
G1 X47.018 Y123.487 E.02973
G1 X46.218 Y123.788 E.03085
G1 X45.521 Y123.902 E.02551
G1 X44.694 Y123.87 E.02987
G1 X44.007 Y123.708 E.02548
G1 X43.255 Y123.362 E.02987
G1 X42.682 Y122.95 E.02548
G1 X42.12 Y122.343 E.02987
G1 X42.067 Y122.257 E.00364
G1 X42.426 Y121.978 F9000
G1 F900
G1 X42.144 Y121.514 E.01959
G1 X41.932 Y120.953 E.02168
G1 X41.806 Y120.24 E.02612
G1 X41.806 Y119.698 E.01957
G1 X41.976 Y118.904 E.02933
G1 X42.23 Y118.327 E.02275
G1 X42.645 Y117.734 E.02613
G1 X43.099 Y117.296 E.02279
G1 X43.72 Y116.903 E.02653
G1 X44.298 Y116.679 E.02236
G1 X45.025 Y116.553 E.02666
G1 X45.563 Y116.557 E.01942
G1 X46.346 Y116.726 E.02894
G1 X46.925 Y116.978 E.0228
G1 X47.36 Y117.261 E.01873
G1 X47.933 Y117.828 E.02909
G1 X48.348 Y118.473 E.02771
G1 X48.571 Y119.048 E.02225
G1 X48.696 Y119.771 E.02651
G1 X48.664 Y120.526 E.02727
G1 X48.517 Y121.125 E.02228
G1 X48.27 Y121.673 E.02168
G1 X47.855 Y122.266 E.02613
G1 X47.401 Y122.704 E.02279
G1 X46.78 Y123.096 E.02651
G1 X46.07 Y123.355 E.02727
G1 X45.461 Y123.449 E.02227
G1 X44.724 Y123.414 E.02665
G1 X44.125 Y123.267 E.02225
G1 X43.457 Y122.952 E.02665
G1 X42.961 Y122.588 E.02225
G1 X42.464 Y122.042 E.02665
G1 X42.447 Y122.013 E.00122
G1 X42.686 Y121.533 F9000
;TYPE:Outer wall
G1 F900
G1 X42.54 Y121.286 E.01038
G1 X42.382 Y120.873 E.01595
G1 X42.256 Y120.161 E.02612
G1 X42.266 Y119.709 E.01631
G1 X42.422 Y119.003 E.02612
G1 X42.604 Y118.589 E.01631
G1 X43.019 Y117.997 E.02613
G1 X43.408 Y117.633 E.01921
G1 X43.958 Y117.294 E.02331
G1 X44.454 Y117.108 E.01914
G1 X45.095 Y117.005 E.02342
G1 X45.541 Y117.016 E.01611
G1 X46.247 Y117.172 E.02613
G1 X46.732 Y117.393 E.01922
G1 X47.099 Y117.639 E.01595
G1 X47.61 Y118.151 E.02611
G1 X47.957 Y118.71 E.02378
G1 X48.142 Y119.204 E.01903
G1 X48.245 Y119.841 E.02329
G1 X48.207 Y120.496 E.0237
G1 X48.075 Y121.007 E.01904
G1 X47.896 Y121.411 E.01595
G1 X47.481 Y122.003 E.02613
G1 X47.092 Y122.367 E.01921
G1 X46.543 Y122.706 E.02329
G1 X45.923 Y122.922 E.0237
G1 X45.401 Y122.995 E.01903
G1 X44.754 Y122.957 E.02342
G1 X44.243 Y122.825 E.01903
G1 X43.66 Y122.542 E.02342
G1 X43.239 Y122.225 E.01903
G1 X42.808 Y121.74 E.02342
G1 X42.706 Y121.568 E.00722
G1 E-1.4 F3600
;WIPE_START
G1 F900
G1 X42.54 Y121.286 E-.19644
G1 X42.382 Y120.873 E-.26512
G1 X42.342 Y120.646 E-.13844
;WIPE_END
G17
G3 Z.6 I.783 J.932 P1  F9000
G1 X76.582 Y91.863 Z.6
G1 Z.2
G1 E2 F3600
;TYPE:Inner wall
G1 F900
G1 X76.68 Y91.567 E.01124
;WIDTH:0.535897
G1 X76.892 Y91.418 E.0101
;WIDTH:0.571795
G1 X77.104 Y91.268 E.01084
G1 X77.229 Y91.261 E.00522
;WIDTH:0.564381
G1 X182.771 Y91.261 E4.34749
G1 X183.014 Y91.377 E.01108
;WIDTH:0.53219
G1 X183.256 Y91.494 E.01039
G1 X183.373 Y91.736 E.01039
;WIDTH:0.56438
G1 X183.489 Y91.979 E.01108
G1 X183.489 Y118.021 E1.07275
;WIDTH:0.571794
G1 X183.482 Y118.146 E.00522
G1 X183.369 Y118.326 E.00888
;WIDTH:0.535897
G1 X183.256 Y118.506 E.00828
G1 X183.076 Y118.619 E.00828
;WIDTH:0.571795
G1 X182.896 Y118.732 E.00888
G1 X182.771 Y118.739 E.00522
;WIDTH:0.564381
G1 X169.729 Y118.739 E.53726
G1 X169.323 Y118.723 E.01671
;WIDTH:0.53219
G1 X168.918 Y118.707 E.01568
;WIDTH:0.499999
G1 X168.457 Y118.707 E.01664
;WIDTH:0.53219
G1 X168.473 Y119.343 E.02458
;WIDTH:0.56438
G1 X168.489 Y119.979 E.0262
G1 X168.489 Y128.021 E.3313
;WIDTH:0.571794
G1 X168.482 Y128.146 E.00522
G1 X168.369 Y128.326 E.00888
;WIDTH:0.535897
G1 X168.256 Y128.506 E.00828
G1 X168.076 Y128.619 E.00828
;WIDTH:0.571795
G1 X167.896 Y128.732 E.00888
G1 X167.771 Y128.739 E.00522
;WIDTH:0.564381
G1 X77.229 Y128.739 E3.72961
G1 X76.954 Y128.586 E.01294
;WIDTH:0.53219
G1 X76.68 Y128.433 E.01214
;WIDTH:0.499999
G1 X76.543 Y128.021 E.01566
G1 X76.543 Y91.979 E1.30136
G1 X76.569 Y91.9 E.00297
G1 X77 Y91.979 F9000
;TYPE:Outer wall
G1 F900
G1 X77.046 Y91.841 E.00522
G1 X77.229 Y91.75 E.00738
G1 X182.771 Y91.75 E3.81073
G1 X182.933 Y91.817 E.00632
G1 X183 Y91.979 E.00632
G1 X183 Y118.021 E.9403
G1 X182.933 Y118.183 E.00632
G1 X182.811 Y118.247 E.00497
G1 X168 Y118.25 E.53476
G1 X168 Y128.021 E.35281
G1 X167.933 Y128.183 E.00632
G1 X167.771 Y128.25 E.00632
G1 X77.229 Y128.25 E3.26914
G1 X77.046 Y128.159 E.00738
G1 X77 Y128.021 E.00522
G1 X77 Y92.019 E1.29992
G1 E-1.4 F3600
;WIPE_START
M73 P0 R330
G1 F900
G1 X77.046 Y91.841 E-.10976
G1 X77.229 Y91.75 E-.12265
G1 X77.841 Y91.75 E-.3676
;WIPE_END
G17
G3 Z.6 I-.354 J1.164 P1  F9000
G1 X169.225 Y119.532 Z.6
G1 Z.2
G1 E2 F3600
;TYPE:Inner wall
;WIDTH:0.53219
G1 F900
G1 X169.127 Y119.736 E.00875
;WIDTH:0.56438
G1 X169.011 Y119.979 E.01108
G1 X169.011 Y128.021 E.3313
;WIDTH:0.571794
G1 X169.025 Y128.742 E.03012
;WIDTH:0.535897
G1 X169.043 Y129.293 E.02145
;WIDTH:0.499999
G1 X168.582 Y129.293 E.01664
;WIDTH:0.53219
G1 X168.177 Y129.277 E.01568
;WIDTH:0.564381
G1 X167.771 Y129.261 E.01671
G1 X77.229 Y129.261 E3.72961
G1 X76.739 Y129.277 E.02016
;WIDTH:0.53219
G1 X76.25 Y129.293 E.01892
;WIDTH:0.499999
G1 X47.176 Y129.293 E1.04976
G1 X35.957 Y120.908 E.5057
G1 X35.957 Y99.092 E.78769
G1 X47.176 Y90.707 E.5057
G1 X76.25 Y90.707 E1.04976
;WIDTH:0.53219
G1 X76.739 Y90.723 E.01892
;WIDTH:0.564381
G1 X77.229 Y90.739 E.02016
G1 X182.771 Y90.739 E4.34749
G1 X183.407 Y90.723 E.0262
;WIDTH:0.53219
G1 X184.043 Y90.707 E.02458
;WIDTH:0.499999
G1 X184.043 Y91.168 E.01664
;WIDTH:0.53219
G1 X184.027 Y91.573 E.01568
;WIDTH:0.56438
G1 X184.011 Y91.979 E.01671
G1 X184.011 Y118.021 E1.07275
;WIDTH:0.571794
G1 X184.025 Y118.742 E.03012
;WIDTH:0.535897
G1 X184.043 Y119.293 E.02145
;WIDTH:0.499999
G1 X183.582 Y119.293 E.01664
;WIDTH:0.53219
G1 X183.177 Y119.277 E.01568
;WIDTH:0.564381
G1 X182.771 Y119.261 E.01671
G1 X169.729 Y119.261 E.53726
;WIDTH:0.571795
G1 X169.604 Y119.268 E.00522
G1 X169.424 Y119.381 E.00888
;WIDTH:0.535897
G1 X169.244 Y119.494 E.00828
;WIDTH:0.53219
G1 X169.243 Y119.496 E.0001
G1 E-1.4 F3600
;WIPE_START
G1 F900
G1 X169.127 Y119.736 E-.15979
G1 X169.011 Y119.979 E-.16137
G1 X169.011 Y120.443 E-.27885
;WIPE_END
G17
G3 Z.6 I1.089 J.542 P1  F9000
G1 X183.611 Y91.118 Z.6
G1 Z.2
G1 E2 F3600
;WIDTH:0.507464
G1 F900
G1 X183.553 Y91.118 E.00213
G1 X183.524 Y91.168 E.00213
G1 X183.553 Y91.218 E.00213
G1 X183.611 Y91.218 E.00213
G1 X183.64 Y91.168 E.00213
G1 E-1.4 F3600
;WIPE_START
G1 F900
G1 X183.611 Y91.218 E-.12
G1 X183.553 Y91.218 E-.12
G1 X183.524 Y91.168 E-.12
G1 X183.553 Y91.118 E-.12
G1 X183.611 Y91.118 E-.12
;WIPE_END
G1 E0 F3600
G17
G3 Z.6 I-1.093 J-.535 P1  F9000
G1 X169.567 Y119.817 Z.6
G1 Z.2
G1 E2 F3600
;TYPE:Outer wall
;WIDTH:0.499999
G1 F900
G1 X169.5 Y119.979 E.00632
G1 X169.5 Y129.75 E.35281
G1 X47.024 Y129.75 E4.42212
G1 X35.5 Y121.137 E.51945
G1 X35.5 Y98.863 E.80423
G1 X47.024 Y90.25 E.51945
G1 X184.5 Y90.25 E4.96371
G1 X184.5 Y91.168 E.03314
G1 X184.5 Y119.75 E1.03198
G1 X169.729 Y119.75 E.53334
G1 X169.604 Y119.802 E.00487
G1 E-1.4 F3600
;WIPE_START
G1 F900
G1 X169.5 Y119.979 E-.1231
G1 X169.5 Y120.773 E-.4769
;WIPE_END
G17
G3 Z.6 I.17 J1.205 P1  F9000
G1 X183.611 Y118.782 Z.6
G1 Z.2
G1 E2 F3600
;TYPE:Inner wall
;WIDTH:0.507464
G1 F900
G1 X183.553 Y118.782 E.00213
G1 X183.524 Y118.832 E.00213
G1 X183.553 Y118.882 E.00213
G1 X183.611 Y118.882 E.00213
G1 X183.64 Y118.832 E.00213
G1 E-1.4 F3600
;WIPE_START
G1 F900
G1 X183.611 Y118.882 E-.12
G1 X183.553 Y118.882 E-.12
G1 X183.524 Y118.832 E-.12
G1 X183.553 Y118.782 E-.12
G1 X183.611 Y118.782 E-.12
;WIPE_END
G1 E0 F3600
G17
G3 Z.6 I-.028 J-1.217 P1  F9000
G1 X168.947 Y119.118 Z.6
G1 Z.2
G1 E2 F3600
G1 F900
G1 X168.889 Y119.118 E.00213
G1 X168.86 Y119.168 E.00213
G1 X168.889 Y119.218 E.00213
G1 X168.947 Y119.218 E.00213
G1 X168.976 Y119.168 E.00213
G1 E-1.4 F3600
;WIPE_START
G1 F900
G1 X168.947 Y119.218 E-.12
G1 X168.889 Y119.218 E-.12
G1 X168.86 Y119.168 E-.12
G1 X168.889 Y119.118 E-.12
G1 X168.947 Y119.118 E-.12
;WIPE_END
G1 E0 F3600
G17
G3 Z.6 I-1.216 J-.042 P1  F9000
G1 X168.611 Y128.782 Z.6
G1 Z.2
G1 E2 F3600
G1 F900
G1 X168.553 Y128.782 E.00213
G1 X168.524 Y128.832 E.00213
G1 X168.553 Y128.882 E.00213
G1 X168.611 Y128.882 E.00213
G1 X168.64 Y128.832 E.00213
G1 E-1.4 F3600
;WIPE_START
G1 F900
G1 X168.611 Y128.882 E-.12
G1 X168.553 Y128.882 E-.12
G1 X168.524 Y128.832 E-.12
G1 X168.553 Y128.782 E-.12
G1 X168.611 Y128.782 E-.12
;WIPE_END
G1 E0 F3600
G17
G3 Z.6 I.277 J-1.185 P1  F9000
G1 X61.801 Y103.859 Z.6
G1 Z.2
G1 E2 F3600
;TYPE:Bottom surface
;WIDTH:0.499999
G1 F1200
G1 X61.143 Y103.148 E.03496
G1 X60.596 Y102.263 E.03756
G1 X60.261 Y101.376 E.03424
G1 X60.107 Y100.456 E.03368
G1 X60.075 Y100.058 E.01441
G1 X60.131 Y99.241 E.02959
G1 X60.388 Y98.232 E.03759
G1 X60.731 Y97.487 E.02962
G1 X61.44 Y96.506 E.0437
G1 X62.167 Y95.848 E.03539
G1 X63.082 Y95.305 E.03842
G1 X63.926 Y94.998 E.03241
G1 X64.443 Y94.885 E.01911
G1 X65.24 Y94.826 E.02888
G1 X66.186 Y94.913 E.03427
G1 X67.035 Y95.143 E.03177
G1 X67.763 Y95.481 E.029
G1 X68.743 Y96.189 E.04365
G1 X69.366 Y96.864 E.03314
G1 X69.944 Y97.83 E.04067
G1 X70.265 Y98.739 E.03479
G1 X70.427 Y99.879 E.04159
G1 X70.366 Y100.782 E.03269
G1 X70.084 Y101.834 E.0393
G1 X69.598 Y102.8 E.03904
G1 X69.032 Y103.53 E.03335
G1 X68.458 Y104.063 E.02831
G1 X67.561 Y104.63 E.03832
G1 X66.668 Y104.978 E.03459
G1 X65.556 Y105.165 E.0407
G1 X64.613 Y105.136 E.03409
G1 X63.564 Y104.892 E.03889
G1 X62.573 Y104.428 E.0395
G1 X61.833 Y103.883 E.03319
G1 X62.08 Y103.498 F9000
G1 F1200
G1 X61.485 Y102.845 E.03189
G1 X60.99 Y102.031 E.03441
G1 X60.692 Y101.224 E.03104
G1 X60.56 Y100.391 E.03044
G1 X60.532 Y100.089 E.01096
G1 X60.587 Y99.272 E.02959
G1 X60.828 Y98.355 E.03423
G1 X61.142 Y97.688 E.02659
G1 X61.806 Y96.78 E.04065
G1 X62.464 Y96.196 E.03176
G1 X63.308 Y95.702 E.03528
G1 X64.072 Y95.431 E.02929
G1 X64.623 Y95.322 E.02026
G1 X65.268 Y95.282 E.02336
G1 X66.136 Y95.367 E.03148
G1 X66.907 Y95.581 E.02887
G1 X67.562 Y95.892 E.02618
G1 X68.469 Y96.556 E.0406
G1 X69.022 Y97.165 E.02968
G1 X69.547 Y98.057 E.0374
G1 X69.831 Y98.88 E.03144
G1 X69.97 Y99.879 E.03641
G1 X69.91 Y100.75 E.03152
G1 X69.646 Y101.705 E.03578
G1 X69.194 Y102.586 E.03572
