; HEADER_BLOCK_START
; generated by OrcaSlicer 1.7.0 on 2023-11-10 at 01:00:59
; total layer number: 236
; HEADER_BLOCK_END

; THUMBNAIL_BLOCK_START
; THUMBNAIL_BLOCK_END

; external perimeters extrusion width = 0.40mm
; perimeters extrusion width = 0.45mm
; infill extrusion width = 0.45mm
; solid infill extrusion width = 0.40mm
; top infill extrusion width = 0.40mm
; first layer extrusion width = 0.50mm

; EXECUTABLE_BLOCK_START
EXCLUDE_OBJECT_DEFINE NAME=Ender_3_BMG_Bracket_PLA_1_.stl_id_0_copy_0 CENTER=120.643,111.792 POLYGON=[[96.1805,133.622],[96.1858,130.672],[96.2161,113.726],[99.4561,88.3777],[140.956,88.452],[141.956,88.4538],[145.105,113.814],[145.069,133.709],[143.567,135.207],[97.6778,135.125],[96.1805,133.622],[96.1805,133.622]]
M73 P0 R100
;TYPE:Custom
START_PRINT EXTRUDER_TEMP=240  BED_TEMP=80
G90
G21
M83 ; use relative distances for extrusion
; filament start gcode
M106 S0
;LAYER_CHANGE
;Z:0.2
;HEIGHT:0.2
;BEFORE_LAYER_CHANGE
;0.2
G92 E0

G1 E-3 F1800
;_SET_FAN_SPEED_CHANGING_LAYER
SET_VELOCITY_LIMIT ACCEL=500 ACCEL_TO_DECEL=250
G1 Z.4 F12000
G1 X90.047 Y80.89
G1 Z.4
G1 Z.2
G1 E3 F1800
;TYPE:Skirt
;WIDTH:0.5
G1 F900
G1 X92.228 Y78.566 E.12111
G1 X94.916 Y76.856 E.12111
G1 X97.945 Y75.867 E.12111
G1 X100.379 Y75.637 E.0929
G1 X141.079 Y75.71 E1.54686
G1 X144.24 Y76.114 E.12111
G1 X147.201 Y77.29 E.12111
G1 X149.779 Y79.163 E.12111
G1 X151.811 Y81.618 E.12111
G1 X153.17 Y84.5 E.12111
G1 X153.702 Y86.886 E.0929
G1 X156.851 Y112.307 E.97355
G1 X157.816 Y131.232 E.72022
G1 X157.812 Y133.732 E.09502
G1 X157.408 Y136.893 E.12111
G1 X156.232 Y139.855 E.12111
G1 X154.064 Y142.736 E.13704
G1 X151.443 Y144.785 E.12644
G1 X148.517 Y146.048 E.12111
G1 X144.946 Y146.552 E.13706
G1 X96.257 Y146.465 E1.85049
G1 X93.097 Y146.06 E.12111
G1 X90.135 Y144.885 E.12111
G1 X87.254 Y142.716 E.13705
G1 X85.205 Y140.095 E.12644
G1 X83.942 Y137.17 E.12111
G1 X83.438 Y133.599 E.13705
G1 X83.461 Y130.438 E.12013
G1 X84.476 Y112.177 E.69511
G1 X87.716 Y86.768 E.97355
G1 X88.511 Y83.682 E.12111
G1 X90.028 Y80.925 E.11959
G1 X90.436 Y81.153 F12000
G1 F900
G1 X90.484 Y81.067 E.00376
G1 X92.651 Y78.81 E.11891
G1 X95.318 Y77.174 E.11891
G1 X98.312 Y76.265 E.11891
G1 X100.378 Y76.094 E.07881
G1 X141.078 Y76.167 E1.54686
M73 P0 R99
G1 X144.18 Y76.571 E.11891
G1 X147.08 Y77.745 E.11891
G1 X149.589 Y79.614 E.11891
G1 X151.545 Y82.056 E.11891
G1 X152.821 Y84.913 E.11891
G1 X153.248 Y86.942 E.07881
G1 X156.397 Y112.363 E.97355
G1 X157.359 Y131.231 E.71804
G1 X157.355 Y133.731 E.09502
G1 X156.951 Y136.834 E.11891
G1 X155.776 Y139.734 E.11891
G1 X153.741 Y142.412 E.12785
G1 X151.162 Y144.42 E.12424
G1 X148.281 Y145.64 E.11891
G1 X144.947 Y146.095 E.12786
G1 X96.258 Y146.007 E1.85049
G1 X93.156 Y145.604 E.11891
G1 X90.256 Y144.429 E.11891
G1 X87.578 Y142.394 E.12785
G1 X85.57 Y139.814 E.12424
G1 X84.35 Y136.933 E.11891
G1 X83.895 Y133.6 E.12786
G1 X83.917 Y130.463 E.11923
G1 X84.929 Y112.235 E.69384
G1 X88.169 Y86.825 E.97355
G1 X88.957 Y83.797 E.11891
G1 X90.416 Y81.188 E.11363
G1 X90.822 Y81.419 F12000
G1 F900
G1 X90.921 Y81.246 E.00756
G1 X93.074 Y79.058 E.11667
G1 X95.718 Y77.498 E.11667
G1 X98.674 Y76.671 E.11667
G1 X100.377 Y76.551 E.06491
G1 X141.077 Y76.624 E1.54686
G1 X144.12 Y77.028 E.11667
G1 X146.957 Y78.201 E.11667
G1 X149.396 Y80.064 E.11667
G1 X151.273 Y82.493 E.11667
G1 X152.463 Y85.323 E.11667
G1 X152.795 Y86.998 E.06491
G1 X155.944 Y112.419 E.97355
G1 X156.902 Y131.231 E.71587
G1 X156.898 Y133.731 E.09502
G1 X156.494 Y136.774 E.11667
G1 X155.321 Y139.61 E.11667
G1 X153.418 Y142.088 E.11873
G1 X150.881 Y144.054 E.122
G1 X148.046 Y145.231 E.11667
G1 X144.948 Y145.638 E.11874
G1 X96.259 Y145.55 E1.85049
G1 X93.216 Y145.147 E.11667
G1 X90.38 Y143.973 E.11667
G1 X87.902 Y142.071 E.11873
G1 X85.935 Y139.534 E.122
G1 X84.759 Y136.698 E.11667
G1 X84.352 Y133.601 E.11874
G1 X84.374 Y130.487 E.11833
G1 X85.383 Y112.293 E.69257
G1 X88.623 Y86.883 E.97355
G1 X89.403 Y83.914 E.11667
G1 X90.803 Y81.454 E.10759
G1 X91.207 Y81.688 F12000
G1 F900
G1 X91.357 Y81.428 E.0114
G1 X93.496 Y79.311 E.11438
G1 X96.115 Y77.829 E.11438
G1 X100.376 Y77.008 E.16495
G1 X141.076 Y77.081 E1.54686
G1 X144.059 Y77.485 E.11438
G1 X146.831 Y78.656 E.11438
G1 X149.198 Y80.514 E.11438
G1 X150.995 Y82.928 E.11438
G1 X152.341 Y87.054 E.16495
G1 X155.49 Y112.476 E.97355
G1 X156.445 Y131.23 E.7137
M73 P1 R99
G1 X156.441 Y133.73 E.09502
G1 X156.037 Y136.712 E.11438
G1 X154.865 Y139.484 E.11438
G1 X153.096 Y141.764 E.1097
G1 X150.601 Y143.688 E.11971
G1 X147.813 Y144.819 E.11438
G1 X144.949 Y145.181 E.10971
G1 X96.26 Y145.093 E1.85049
G1 X93.278 Y144.69 E.11438
G1 X90.506 Y143.518 E.11438
G1 X88.225 Y141.748 E.1097
G1 X86.302 Y139.254 E.11971
G1 X85.171 Y136.465 E.11438
G1 X84.809 Y133.602 E.10971
G1 X84.83 Y130.512 E.11743
G1 X85.836 Y112.351 E.6913
G1 X89.076 Y86.941 E.97355
G1 X89.849 Y84.032 E.11438
G1 X91.186 Y81.722 E.10146
G1 X91.588 Y81.959 F12000
G1 F900
G1 X91.793 Y81.613 E.0153
G1 X93.916 Y79.568 E.11205
G1 X96.509 Y78.165 E.11205
G1 X100.376 Y77.465 E.14933
G1 X141.076 Y77.538 E1.54686
G1 X143.996 Y77.941 E.11205
G1 X146.702 Y79.112 E.11205
G1 X148.996 Y80.964 E.11205
G1 X150.71 Y83.362 E.11205
G1 X151.887 Y87.11 E.14933
G1 X155.036 Y112.532 E.97355
G1 X155.988 Y131.229 E.71153
G1 X155.984 Y133.729 E.09502
G1 X155.58 Y136.649 E.11205
G1 X154.41 Y139.355 E.11205
G1 X152.773 Y141.441 E.10075
G1 X150.323 Y143.32 E.11737
G1 X147.582 Y144.406 E.11205
G1 X144.95 Y144.723 E.10076
G1 X96.261 Y144.636 E1.85049
M73 P1 R98
G1 X93.34 Y144.233 E.11205
G1 X90.635 Y143.062 E.11205
G1 X88.549 Y141.426 E.10076
G1 X86.669 Y138.975 E.11737
G1 X85.584 Y136.234 E.11205
G1 X85.266 Y133.602 E.10076
G1 X85.287 Y130.536 E.11653
G1 X86.218 Y113.204 E.6597
G1 X89.53 Y86.999 E1.00388
G1 X90.294 Y84.152 E.11205
G1 X91.568 Y81.994 E.09523
G1 X91.967 Y82.234 F12000
G1 F900
G1 X92.228 Y81.8 E.01925
G1 X94.335 Y79.829 E.10966
G1 X96.901 Y78.509 E.10966
G1 X100.375 Y77.922 E.13389
G1 X141.075 Y77.995 E1.54686
G1 X143.932 Y78.398 E.10966
G1 X146.57 Y79.567 E.10966
G1 X148.788 Y81.412 E.10966
G1 X150.418 Y83.793 E.10966
G1 X151.434 Y87.167 E.13389
G1 X154.583 Y112.588 E.97355
G1 X155.531 Y131.228 E.70936
G1 X155.527 Y133.728 E.09502
G1 X155.123 Y136.585 E.10966
G1 X153.955 Y139.223 E.10966
G1 X152.451 Y141.117 E.0919
G1 X150.045 Y142.952 E.11499
G1 X147.353 Y143.991 E.10966
G1 X144.951 Y144.266 E.09191
G1 X96.262 Y144.179 E1.85049
G1 X93.404 Y143.776 E.10966
G1 X90.766 Y142.607 E.10966
G1 X88.873 Y141.103 E.09191
G1 X87.038 Y138.698 E.11499
G1 X85.999 Y136.006 E.10966
G1 X85.723 Y133.603 E.09191
G1 X85.743 Y130.561 E.11562
G1 X86.674 Y113.228 E.6597
G1 X89.983 Y87.057 E1.00261
G1 X90.739 Y84.272 E.10966
G1 X91.946 Y82.268 E.0889
; printing object Ender_3_BMG_Bracket_PLA+ (1).stl id:0 copy 0
G1 E-2.1 F1800
;WIPE_START
G1 F900
G1 X92.228 Y81.8 E-.49178
G1 X92.559 Y81.49 E-.40822
;WIPE_END
G1 E0 F1800
EXCLUDE_OBJECT_START NAME=Ender_3_BMG_Bracket_PLA_1_.stl_id_0_copy_0
G1 Z.6 F12000
G1 X97.347 Y132.259 Z.6
G1 Z.2
G1 E3 F1800
;TYPE:Inner wall
;WIDTH:0.499999
G1 F900
G1 X97.464 Y132.243 E.00448
G1 X97.983 Y131.923 E.02318
G1 X98.234 Y131.494 E.0189
G1 X98.288 Y131.119 E.0144
G1 X98.252 Y129.551 E.05958
G1 X98.28 Y113.871 E.59597
G1 X98.451 Y112.635 E.04741
G1 X98.536 Y112.124 E.0197
G1 X98.69 Y111.676 E.018
G1 X98.975 Y111.292 E.01817
G1 X100.048 Y110.276 E.05617
G1 X100.671 Y109.524 E.03712
G1 X100.836 Y109.257 E.01193
G1 X101.253 Y108.311 E.03927
G1 X101.339 Y108.009 E.01193
G1 X101.487 Y106.885 E.04311
G1 X101.508 Y95.399 E.43653
;WIDTH:0.549906
G1 X101.533 Y94.942 E.0193
;WIDTH:0.599812
G1 X101.559 Y94.485 E.02119
G1 X101.56 Y93.578 E.042
;WIDTH:0.598046
G1 X101.536 Y93.315 E.01217
;WIDTH:0.549023
G1 X101.512 Y93.053 E.0111
;WIDTH:0.499999
G1 X101.518 Y89.546 E.1333
G1 X139.89 Y89.614 E1.45836
G1 X139.884 Y92.734 E.11855
;WIDTH:0.513062
G1 X139.878 Y94.509 E.06941
;WIDTH:0.506023
G1 X139.88 Y95.034 E.02022
;WIDTH:0.499999
G1 X139.869 Y107.065 E.45724
G1 X140.001 Y108.072 E.03862
G1 X140.087 Y108.381 E.01216
G1 X140.501 Y109.328 E.03928
G1 X140.665 Y109.595 E.01193
G1 X141.394 Y110.465 E.04311
G1 X142.355 Y111.365 E.05003
G1 X142.68 Y111.766 E.01964
G1 X142.815 Y112.279 E.02014
G1 X143.041 Y113.951 E.06413
G1 X143.013 Y129.632 E.59597
G1 X142.971 Y131.199 E.05958
G1 X143.023 Y131.574 E.0144
G1 X143.273 Y132.004 E.0189
G1 X143.791 Y132.326 E.02318
G1 X143.908 Y132.343 E.00448
G1 X143.907 Y132.643 E.01143
G1 X97.347 Y132.56 E1.7696
G1 X97.347 Y132.299 E.00991
G1 X97.196 Y131.812 F12000
G1 F900
G1 X97.337 Y131.804 E.00534
G1 X97.648 Y131.612 E.01391
G1 X97.799 Y131.354 E.01134
G1 X97.831 Y131.129 E.00864
G1 X97.795 Y129.556 E.05979
G1 X97.823 Y113.839 E.59737
G1 X98.057 Y112.15 E.06478
G1 X98.187 Y111.65 E.01965
G1 X98.384 Y111.276 E.01607
G1 X98.629 Y110.992 E.01425
G1 X99.696 Y109.985 E.05577
G1 X100.418 Y109.072 E.04422
G1 X100.835 Y108.127 E.03927
G1 X100.887 Y107.946 E.00716
G1 X101.03 Y106.884 E.04071
G1 X101.062 Y89.088 E.67637
G1 X140.348 Y89.158 E1.49311
M73 P2 R98
G1 X140.322 Y107.005 E.6783
G1 X140.455 Y108.013 E.03862
G1 X140.506 Y108.198 E.0073
G1 X140.92 Y109.145 E.03928
G1 X141.019 Y109.305 E.00716
G1 X141.704 Y110.129 E.04071
G1 X142.519 Y110.88 E.04212
G1 X142.927 Y111.323 E.0229
G1 X143.157 Y111.694 E.01659
G1 X143.265 Y112.2 E.01968
G1 X143.498 Y113.92 E.06598
G1 X143.47 Y129.638 E.59737
G1 X143.428 Y131.211 E.05979
G1 X143.459 Y131.436 E.00864
G1 X143.609 Y131.694 E.01134
G1 X143.92 Y131.887 E.01391
G1 X144.366 Y131.915 E.01697
G1 X144.365 Y132.169 E.00965
G1 X144.363 Y133.101 E.03542
G1 X96.889 Y133.016 E1.80434
G1 X96.891 Y131.83 E.04507
G1 X97.157 Y131.814 E.01012
G1 X97.146 Y131.374 F12000
;TYPE:Outer wall
G1 F900
G1 X97.313 Y131.301 E.00696
G1 X97.374 Y131.14 E.00654
G1 X97.338 Y129.561 E.06001
G1 X97.366 Y113.807 E.59877
G1 X97.608 Y112.061 E.06697
G1 X97.758 Y111.484 E.02267
G1 X98.004 Y111.016 E.02009
G1 X98.284 Y110.693 E.01626
G1 X99.344 Y109.693 E.05538
G1 X100 Y108.887 E.03948
G1 X100.417 Y107.942 E.03927
G1 X100.573 Y106.883 E.04068
G1 X100.606 Y88.63 E.69374
G1 X140.806 Y88.702 E1.52785
G1 X140.775 Y106.945 E.69337
G1 X140.925 Y108.015 E.04103
G1 X141.339 Y108.961 E.03928
G1 X142.013 Y109.793 E.04068
G1 X142.94 Y110.647 E.04791
G1 X143.401 Y111.17 E.0265
G1 X143.591 Y111.538 E.01574
G1 X143.716 Y112.121 E.02267
G1 X143.955 Y113.89 E.06783
G1 X143.927 Y129.645 E.59877
G1 X143.884 Y131.223 E.06001
G1 X143.945 Y131.384 E.00654
G1 X144.112 Y131.458 E.00696
G1 X144.823 Y131.459 E.02702
G1 X144.822 Y132.17 E.02702
G1 X144.82 Y133.559 E.05279
G1 X96.431 Y133.472 E1.83909
G1 X96.435 Y131.372 E.07981
G1 X97.106 Y131.374 E.0255
G1 E-2.1 F1800
;WIPE_START
G1 F900
G1 X97.313 Y131.301 E-.19822
G1 X97.374 Y131.14 E-.15486
G1 X97.36 Y130.532 E-.54692
;WIPE_END
G1 Z.6 F12000
G1 X97.796 Y130.522 Z.6
G1 X126.701 Y125.697
G1 X127.057 Y125.607
G1 X133.581 Y123.246
M73 P2 R97
G1 Z.2
G1 E3 F1800
;TYPE:Inner wall
G1 F900
G1 X133.66 Y123.103 E.00621
G1 X134.06 Y122.651 E.02295
G1 X134.362 Y122.406 E.01477
G1 X134.784 Y122.131 E.01913
G1 X135.492 Y121.873 E.02866
G1 X135.785 Y121.817 E.01133
G1 X136.309 Y121.787 E.01995
G1 X136.607 Y121.809 E.01134
G1 X137.121 Y121.916 E.01997
G1 X137.628 Y122.127 E.02088
G1 X138.119 Y122.418 E.02167
G1 X138.511 Y122.767 E.01996
G1 X138.994 Y123.432 E.03124
G1 X139.289 Y124.199 E.03124
G1 X139.375 Y125.017 E.03124
G1 X139.353 Y125.314 E.01134
G1 X139.246 Y125.829 E.01996
G1 X138.912 Y126.579 E.03124
G1 X138.395 Y127.218 E.03124
G1 X138.169 Y127.413 E.01134
G1 X137.73 Y127.701 E.01996
G1 X136.962 Y127.996 E.03124
G1 X136.669 Y128.052 E.01134
G1 X136.145 Y128.082 E.01996
G1 X135.847 Y128.06 E.01134
G1 X135.333 Y127.953 E.01996
G1 X134.582 Y127.619 E.03124
G1 X133.944 Y127.102 E.03124
G1 X133.601 Y126.651 E.02153
G1 X133.341 Y126.199 E.01981
G1 X133.178 Y125.707 E.01969
G1 X133.11 Y125.376 E.01283
G1 X133.08 Y124.852 E.01996
G1 X133.102 Y124.555 E.01134
G1 X133.209 Y124.04 E.01996
G1 X133.397 Y123.579 E.01895
G1 X133.562 Y123.281 E.01293
G1 X134.005 Y123.43 F12000
G1 F900
G1 X134.401 Y122.955 E.02353
G1 X135.011 Y122.528 E.02829
G1 X135.636 Y122.307 E.02518
G1 X136.336 Y122.243 E.02671
G1 X136.941 Y122.345 E.02334
G1 X137.198 Y122.422 E.01018
G1 X137.667 Y122.658 E.01996
G1 X138.207 Y123.108 E.02672
G1 X138.612 Y123.683 E.02672
G1 X138.855 Y124.343 E.02672
G1 X138.918 Y125.043 E.02672
G1 X138.798 Y125.736 E.02672
G1 X138.503 Y126.374 E.02672
G1 X138.053 Y126.914 E.02672
G1 X137.479 Y127.319 E.02672
G1 X136.819 Y127.562 E.02672
G1 X136.119 Y127.625 E.02672
G1 X135.426 Y127.506 E.02672
G1 X134.788 Y127.211 E.02672
G1 X134.248 Y126.76 E.02672
G1 X133.843 Y126.186 E.02672
G1 X133.612 Y125.563 E.02522
G1 X133.545 Y124.98 E.02234
G1 X133.55 Y124.647 E.01263
G1 X133.656 Y124.133 E.01996
G1 X133.951 Y123.495 E.02672
G1 X133.979 Y123.461 E.00167
G1 X134.514 Y123.522 F12000
;TYPE:Outer wall
G1 F900
G1 X134.743 Y123.259 E.01326
G1 X135.238 Y122.925 E.02274
G1 X135.779 Y122.741 E.0217
G1 X136.362 Y122.7 E.0222
G1 X136.936 Y122.811 E.02222
G1 X137.461 Y123.067 E.02221
G1 X137.903 Y123.45 E.02221
G1 X138.23 Y123.934 E.02221
G1 X138.421 Y124.486 E.02221
G1 X138.462 Y125.069 E.02221
G1 X138.351 Y125.643 E.02221
G1 X138.095 Y126.168 E.02221
G1 X137.712 Y126.61 E.02221
G1 X137.228 Y126.937 E.02221
G1 X136.676 Y127.128 E.02221
G1 X136.093 Y127.169 E.02221
G1 X135.519 Y127.058 E.02221
G1 X134.993 Y126.802 E.02221
G1 X134.552 Y126.419 E.02221
G1 X134.225 Y125.935 E.02221
G1 X134.046 Y125.42 E.02071
G1 X133.993 Y124.8 E.02367
G1 X134.104 Y124.226 E.02221
G1 X134.359 Y123.7 E.02221
G1 X134.488 Y123.553 E.00743
G1 E-2.1 F1800
;WIPE_START
G1 F900
G1 X134.743 Y123.259 E-.34994
G1 X135.238 Y122.925 E-.53838
G1 X135.251 Y122.92 E-.01168
;WIPE_END
G1 Z.6 F12000
G1 X135.035 Y122.539 Z.6
G1 X127.403 Y125.481
G1 X127.057 Y125.607
G1 X126.701 Y125.697
G1 X126.337 Y125.751
G1 X107.618 Y126.901
G1 Z.2
G1 E3 F1800
;TYPE:Inner wall
G1 F900
G1 X107.476 Y127.083 E.00877
G1 X107.078 Y127.426 E.01996
G1 X106.356 Y127.818 E.03124
G1 X105.556 Y128.01 E.03124
G1 X105.259 Y128.027 E.01134
G1 X104.735 Y127.988 E.01996
G1 X103.947 Y127.755 E.03124
G1 X103.667 Y127.612 E.01196
G1 X103.203 Y127.286 E.02153
G1 X102.99 Y127.092 E.01096
G1 X102.519 Y126.486 E.02916
G1 X102.214 Y125.779 E.02928
G1 X102.099 Y125.224 E.02153
G1 X102.079 Y124.91 E.01196
G1 X102.118 Y124.386 E.01996
G1 X102.351 Y123.598 E.03124
G1 X102.781 Y122.898 E.03124
G1 X103.377 Y122.332 E.03124
G1 X103.776 Y122.096 E.01761
G1 X104.264 Y121.875 E.02035
G1 X104.898 Y121.748 E.02461
G1 X105.196 Y121.731 E.01133
G1 X105.72 Y121.769 E.01996
G1 X106.299 Y121.93 E.02283
G1 X106.774 Y122.137 E.01972
G1 X107.209 Y122.432 E.01996
G1 X107.602 Y122.829 E.02122
G1 X107.938 Y123.278 E.02132
G1 X108.167 Y123.751 E.01996
G1 X108.312 Y124.304 E.02174
G1 X108.376 Y124.848 E.02081
G1 X108.337 Y125.371 E.01996
G1 X108.278 Y125.657 E.01109
G1 X108.122 Y126.115 E.01837
G1 X107.807 Y126.659 E.02391
G1 X107.642 Y126.869 E.01015
G1 X107.268 Y126.616 F12000
G1 F900
G1 X107.177 Y126.737 E.00575
G1 X106.779 Y127.08 E.01996
G1 X106.157 Y127.406 E.02672
G1 X105.471 Y127.561 E.02672
G1 X104.768 Y127.533 E.02672
G1 X104.097 Y127.323 E.02672
G1 X103.466 Y126.912 E.02865
G1 X103.024 Y126.428 E.02491
G1 X102.717 Y125.851 E.02484
G1 X102.547 Y125.132 E.02806
G1 X102.574 Y124.42 E.02709
G1 X102.783 Y123.749 E.02672
G1 X103.159 Y123.155 E.02672
G1 X103.675 Y122.678 E.02672
G1 X104.298 Y122.351 E.02673
G1 X104.984 Y122.197 E.02671
G1 X105.624 Y122.221 E.02434
G1 X105.862 Y122.261 E.00917
G1 X106.357 Y122.434 E.01996
G1 X106.952 Y122.81 E.02672
G1 X107.428 Y123.327 E.02672
G1 X107.755 Y123.949 E.02672
G1 X107.889 Y124.53 E.02265
G1 X107.916 Y124.868 E.01289
G1 X107.878 Y125.368 E.01904
G1 X107.69 Y125.967 E.02387
G1 X107.425 Y126.407 E.01954
G1 X107.292 Y126.584 E.0084
G1 X107.017 Y126.192 F12000
;TYPE:Outer wall
G1 F900
G1 X106.92 Y126.343 E.00683
G1 X106.481 Y126.734 E.02233
G1 X105.958 Y126.995 E.02221
G1 X105.385 Y127.112 E.02221
G1 X104.802 Y127.077 E.02221
G1 X104.248 Y126.892 E.02221
G1 X103.728 Y126.538 E.0239
G1 X103.372 Y126.131 E.02055
