; HEADER_BLOCK_START
; generated by OrcaSlicer 1.7.0 on 2023-11-10 at 19:25:39
; total layer number: 70
; HEADER_BLOCK_END

; THUMBNAIL_BLOCK_START
; THUMBNAIL_BLOCK_END

; external perimeters extrusion width = 0.40mm
; perimeters extrusion width = 0.45mm
; infill extrusion width = 0.45mm
; solid infill extrusion width = 0.40mm
; top infill extrusion width = 0.40mm
; first layer extrusion width = 0.50mm

; external perimeters extrusion width = 0.40mm
; perimeters extrusion width = 0.45mm
; infill extrusion width = 0.45mm
; solid infill extrusion width = 0.40mm
; top infill extrusion width = 0.40mm
; first layer extrusion width = 0.50mm

; EXECUTABLE_BLOCK_START
EXCLUDE_OBJECT_DEFINE NAME=Ender_3_Cable_Chain_Link_id_0_copy_0 CENTER=127.5,110 POLYGON=[[115,101.06],[117.34,96.0019],[137.66,96.0019],[140,101.06],[140,123.998],[138.665,123.998],[116.335,123.998],[115,123.998],[115,101.06]]
EXCLUDE_OBJECT_DEFINE NAME=Ender_3_Cable_Chain_Link_id_1_copy_0 CENTER=92.5,110 POLYGON=[[80,101.06],[82.34,96.0019],[102.66,96.0019],[105,101.06],[105,123.998],[103.665,123.998],[81.335,123.998],[80,123.998],[80,101.06]]
M73 P0 R39
;TYPE:Custom
START_PRINT EXTRUDER_TEMP=240  BED_TEMP=80
G90
G21
M83 ; use relative distances for extrusion
; filament start gcode
M106 S0
;LAYER_CHANGE
;Z:0.2
;HEIGHT:0.2
;BEFORE_LAYER_CHANGE
;0.2
G92 E0

G1 E-3 F1800
;_SET_FAN_SPEED_CHANGING_LAYER
SET_VELOCITY_LIMIT ACCEL=500 ACCEL_TO_DECEL=250
G1 Z.4 F12000
G1 X75.335 Y89.39
G1 Z.4
G1 Z.2
G1 E3 F1800
;TYPE:Skirt
;WIDTH:0.5
G1 F900
G1 X78.195 Y87.985 E.12111
G1 X82.34 Y87.292 E.15974
G1 X137.66 Y87.292 E2.10251
G1 X140.822 Y87.69 E.12111
G1 X143.785 Y88.861 E.12111
G1 X146.366 Y90.73 E.12111
G1 X148.919 Y94.068 E.15974
G1 X151.259 Y98.484 E.18995
G1 X152.388 Y101.464 E.12111
G1 X152.742 Y104.45 E.11429
G1 X152.742 Y119.98 E.59022
G1 X152.344 Y123.141 E.12111
G1 X151.174 Y126.105 E.12111
G1 X149.305 Y128.686 E.12111
G1 X146.854 Y130.722 E.12111
G1 X143.974 Y132.087 E.12111
G1 X140 Y132.722 E.15295
G1 X80 Y132.722 E2.28038
G1 X76.838 Y132.324 E.12111
G1 X73.875 Y131.153 E.12111
G1 X71.294 Y129.284 E.12111
G1 X69.258 Y126.833 E.12111
G1 X67.893 Y123.954 E.12111
G1 X67.258 Y119.98 E.15295
G1 X67.258 Y104.45 E.59022
G1 X67.656 Y101.289 E.12111
G1 X68.741 Y98.484 E.11429
G1 X71.081 Y94.068 E.18995
G1 X72.913 Y91.461 E.12111
G1 X75.304 Y89.416 E.11959
G1 X75.606 Y89.774 F12000
G1 F900
G1 X75.681 Y89.71 E.00376
G1 X78.505 Y88.363 E.11891
G1 X82.34 Y87.749 E.14761
G1 X137.66 Y87.749 E2.10251
G1 X140.763 Y88.147 E.11891
G1 X143.665 Y89.316 E.11891
G1 X146.178 Y91.181 E.11891
G1 X148.516 Y94.282 E.14761
G1 X150.856 Y98.698 E.18995
G1 X151.957 Y101.627 E.11891
G1 X152.285 Y104.45 E.10804
G1 X152.285 Y119.98 E.59022
G1 X151.887 Y123.083 E.11891
M73 P1 R39
G1 X150.718 Y125.985 E.11891
G1 X148.853 Y128.497 E.11891
G1 X146.415 Y130.457 E.11891
G1 X143.56 Y131.738 E.11891
G1 X140 Y132.265 E.13679
G1 X80 Y132.265 E2.28038
G1 X76.897 Y131.867 E.11891
G1 X73.995 Y130.698 E.11891
G1 X71.482 Y128.833 E.11891
G1 X69.522 Y126.395 E.11891
G1 X68.242 Y123.54 E.11891
G1 X67.715 Y119.98 E.13679
G1 X67.715 Y104.45 E.59022
G1 X68.113 Y101.347 E.11891
G1 X69.144 Y98.698 E.10804
G1 X71.484 Y94.282 E.18995
G1 X73.289 Y91.727 E.11891
G1 X75.575 Y89.799 E.11363
G1 X75.874 Y90.159 F12000
G1 F900
G1 X76.027 Y90.032 E.00756
G1 X78.813 Y88.744 E.11667
G1 X82.34 Y88.206 E.1356
G1 X137.66 Y88.206 E2.10251
G1 X140.704 Y88.604 E.11667
G1 X143.542 Y89.772 E.11667
G1 X145.985 Y91.632 E.11667
G1 X148.112 Y94.496 E.1356
G1 X150.452 Y98.912 E.18995
G1 X151.525 Y101.788 E.11667
G1 X151.828 Y104.45 E.10184
G1 X151.828 Y119.98 E.59022
G1 X151.43 Y123.023 E.11667
G1 X150.262 Y125.862 E.11667
G1 X148.403 Y128.305 E.11667
G1 X145.978 Y130.187 E.11667
G1 X143.15 Y131.381 E.11667
G1 X140 Y131.808 E.12081
G1 X80 Y131.808 E2.28038
G1 X76.956 Y131.41 E.11667
G1 X74.118 Y130.242 E.11667
G1 X71.675 Y128.382 E.11667
G1 X69.793 Y125.957 E.11667
G1 X68.599 Y123.13 E.11667
G1 X68.172 Y119.98 E.12081
G1 X68.172 Y104.45 E.59022
G1 X68.57 Y101.407 E.11667
G1 X69.548 Y98.912 E.10184
G1 X71.888 Y94.496 E.18995
G1 X73.665 Y91.993 E.11667
G1 X75.843 Y90.184 E.10759
M73 P2 R39
G1 X76.138 Y90.546 F12000
G1 F900
G1 X76.371 Y90.356 E.0114
G1 X79.119 Y89.129 E.11438
G1 X82.34 Y88.663 E.12371
G1 X137.66 Y88.663 E2.10251
G1 X140.643 Y89.061 E.11438
G1 X143.417 Y90.228 E.11438
G1 X145.788 Y92.082 E.11438
G1 X147.708 Y94.71 E.12371
G1 X150.048 Y99.126 E.18995
G1 X151.093 Y101.948 E.11438
G1 X151.371 Y104.45 E.09567
G1 X151.371 Y119.98 E.59022
G1 X150.973 Y122.963 E.11438
G1 X149.806 Y125.737 E.11438
G1 X147.952 Y128.108 E.11438
G1 X145.542 Y129.909 E.11438
G1 X142.743 Y131.015 E.11438
G1 X140 Y131.351 E.10503
G1 X80 Y131.351 E2.28038
M73 P2 R38
G1 X77.017 Y130.953 E.11438
G1 X74.243 Y129.786 E.11438
G1 X71.872 Y127.932 E.11438
G1 X70.071 Y125.522 E.11438
G1 X68.965 Y122.723 E.11438
G1 X68.629 Y119.98 E.10503
G1 X68.629 Y104.45 E.59022
G1 X69.027 Y101.467 E.11438
G1 X69.952 Y99.126 E.09567
G1 X72.292 Y94.71 E.18995
G1 X74.041 Y92.261 E.11438
G1 X76.107 Y90.571 E.10146
G1 X76.4 Y90.934 F12000
G1 F900
G1 X76.713 Y90.682 E.0153
G1 X79.422 Y89.517 E.11205
G1 X82.34 Y89.12 E.11194
G1 X137.66 Y89.12 E2.10251
G1 X140.581 Y89.518 E.11205
G1 X143.289 Y90.684 E.11205
G1 X145.586 Y92.531 E.11205
G1 X147.304 Y94.924 E.11194
G1 X149.644 Y99.34 E.18995
G1 X150.66 Y102.108 E.11205
G1 X150.914 Y104.45 E.08956
G1 X150.914 Y119.98 E.59022
G1 X150.516 Y122.901 E.11205
G1 X149.351 Y125.609 E.11205
G1 X147.503 Y127.906 E.11205
G1 X145.108 Y129.625 E.11205
G1 X142.34 Y130.64 E.11205
G1 X140 Y130.894 E.08945
G1 X80 Y130.894 E2.28038
M73 P3 R38
G1 X77.079 Y130.496 E.11205
G1 X74.371 Y129.33 E.11205
G1 X72.074 Y127.483 E.11205
G1 X70.355 Y125.088 E.11205
G1 X69.34 Y122.32 E.11205
G1 X69.086 Y119.98 E.08945
G1 X69.086 Y104.45 E.59022
G1 X69.484 Y101.529 E.11205
G1 X70.356 Y99.34 E.08956
G1 X72.696 Y94.924 E.18995
G1 X74.416 Y92.529 E.11205
G1 X76.368 Y90.96 E.09523
G1 X76.657 Y91.325 F12000
G1 F900
G1 X77.054 Y91.011 E.01925
G1 X79.722 Y89.91 E.10966
G1 X82.34 Y89.577 E.10032
G1 X137.66 Y89.577 E2.10251
G1 X140.518 Y89.975 E.10966
G1 X143.158 Y91.139 E.10966
G1 X145.38 Y92.98 E.10966
G1 X146.9 Y95.138 E.10032
G1 X149.24 Y99.554 E.18995
G1 X150.226 Y102.266 E.10966
G1 X150.457 Y104.45 E.08349
G1 X150.457 Y119.98 E.59022
G1 X150.059 Y122.838 E.10966
G1 X148.895 Y125.478 E.10966
G1 X147.054 Y127.7 E.10966
G1 X144.676 Y129.333 E.10966
G1 X141.941 Y130.255 E.10966
G1 X140 Y130.437 E.07411
G1 X80 Y130.437 E2.28038
G1 X77.142 Y130.039 E.10966
G1 X74.502 Y128.875 E.10966
G1 X72.28 Y127.034 E.10966
G1 X70.646 Y124.655 E.10966
G1 X69.725 Y121.921 E.10966
G1 X69.543 Y119.98 E.07411
G1 X69.543 Y104.45 E.59022
G1 X69.941 Y101.592 E.10966
G1 X70.76 Y99.554 E.08349
G1 X73.1 Y95.138 E.18995
G1 X74.79 Y92.799 E.10966
G1 X76.626 Y91.35 E.0889
; printing object Ender 3 Cable Chain Link id:0 copy 0
G1 E-2.1 F1800
;WIPE_START
G1 F900
G1 X77.054 Y91.011 E-.49178
G1 X77.474 Y90.838 E-.40822
;WIPE_END
EXCLUDE_OBJECT_START NAME=Ender_3_Cable_Chain_Link_id_0_copy_0
G1 Z.6 F12000
G1 X136.276 Y103.13 Z.6
G1 Z.2
G1 E3 F1800
;TYPE:Inner wall
;WIDTH:0.499999
G1 F900
G1 X136.496 Y103.057 E.00882
G1 X136.496 Y104.472 E.05378
G1 X136.543 Y104.798 E.01253
G1 X136.731 Y105.166 E.0157
G1 X136.991 Y105.413 E.01362
G1 X137.345 Y105.576 E.01482
G1 X137.639 Y105.614 E.01126
G1 X138.836 Y105.614 E.04551
G1 X138.836 Y106.812 E.04551
G1 X138.836 Y113.764 E.26424
G1 X138.796 Y113.644 E.00483
G1 X138.321 Y113.275 E.02285
G1 X137.881 Y113.187 E.01703
G1 X117.119 Y113.187 E.78912
M73 P4 R38
G1 X116.679 Y113.275 E.01703
G1 X116.204 Y113.644 E.02285
G1 X116.164 Y113.764 E.00483
G1 X116.164 Y105.614 E.30975
G1 X117.361 Y105.614 E.04551
G1 X117.655 Y105.576 E.01126
G1 X118.009 Y105.413 E.01482
G1 X118.269 Y105.166 E.01362
G1 X118.457 Y104.798 E.0157
G1 X118.504 Y104.472 E.01253
G1 X118.504 Y103.057 E.05378
G1 X118.959 Y103.208 E.0182
G1 X136.041 Y103.208 E.64926
G1 X136.238 Y103.143 E.00786
G1 X136.159 Y102.712 F12000
G1 F900
G1 X136.453 Y102.614 E.01179
G1 X136.523 Y102.467 E.00617
;WIDTH:0.463476
G1 X136.593 Y102.321 E.00568
;WIDTH:0.426953
G1 X136.663 Y102.174 E.00518
;WIDTH:0.39043
G1 X136.669 Y102.065 E.00316
;WIDTH:0.38438
G1 X136.669 Y100.683 E.03924
G1 X137.011 Y100.683 E.00969
G1 X137.011 Y102.065 E.03924
;WIDTH:0.39043
G1 X137.008 Y102.205 E.00402
;WIDTH:0.426953
G1 X136.989 Y102.424 E.00704
;WIDTH:0.463476
G1 X136.971 Y102.644 E.00771
;WIDTH:0.499999
G1 X136.953 Y102.864 E.00838
G1 X136.953 Y103.663 E.03035
G1 X136.981 Y104.668 E.03821
G1 X137.094 Y104.888 E.00942
G1 X137.337 Y105.088 E.01196
G1 X137.639 Y105.157 E.01174
G1 X139.293 Y105.157 E.06288
G1 X139.293 Y106.812 E.06288
G1 X139.293 Y113.63 E.25915
;WIDTH:0.544793
G1 X139.271 Y113.863 E.00977
;WIDTH:0.589587
G1 X139.248 Y114.096 E.01064
;WIDTH:0.63438
G1 X139.226 Y114.329 E.01151
G1 X139.226 Y119.206 E.23981
G1 X138.634 Y119.206 E.02909
G1 X138.634 Y114.329 E.23981
G1 X138.566 Y114.192 E.00753
;WIDTH:0.589587
G1 X138.498 Y114.055 E.00696
;WIDTH:0.544793
G1 X138.43 Y113.918 E.00639
;WIDTH:0.499999
G1 X138.145 Y113.696 E.01371
G1 X137.881 Y113.644 E.01022
G1 X117.119 Y113.644 E.78912
G1 X116.855 Y113.696 E.01022
G1 X116.57 Y113.918 E.01371
;WIDTH:0.544793
G1 X116.502 Y114.055 E.00639
;WIDTH:0.589587
G1 X116.434 Y114.192 E.00696
;WIDTH:0.63438
G1 X116.366 Y114.329 E.00753
G1 X116.366 Y119.206 E.23981
G1 X115.774 Y119.206 E.02909
G1 X115.774 Y114.329 E.23981
G1 X115.752 Y114.096 E.01151
;WIDTH:0.589587
G1 X115.729 Y113.863 E.01064
;WIDTH:0.544793
G1 X115.707 Y113.63 E.00977
;WIDTH:0.499999
G1 X115.707 Y105.157 E.32202
G1 X117.361 Y105.157 E.06288
G1 X117.538 Y105.134 E.00676
G1 X117.75 Y105.036 E.00889
G1 X117.964 Y104.799 E.01212
G1 X118.047 Y104.472 E.01285
G1 X118.047 Y102.864 E.0611
G1 X118.028 Y102.598 E.01014
;WIDTH:0.46146
G1 X118.009 Y102.332 E.00929
;WIDTH:0.42292
G1 X117.989 Y102.065 E.00843
;WIDTH:0.38438
G1 X117.989 Y100.683 E.03924
G1 X118.331 Y100.683 E.00969
G1 X118.331 Y102.065 E.03924
;WIDTH:0.390431
G1 X118.337 Y102.174 E.00316
;WIDTH:0.426954
G1 X118.407 Y102.321 E.00518
;WIDTH:0.463477
G1 X118.477 Y102.467 E.00568
;WIDTH:0.499999
G1 X118.547 Y102.614 E.00617
G1 X118.959 Y102.751 E.01648
G1 X136.041 Y102.751 E.64926
G1 X136.121 Y102.725 E.00317
G1 X136.041 Y102.294 F12000
;TYPE:Outer wall
G1 F900
G1 X136.179 Y102.248 E.00549
G1 X136.27 Y102.065 E.00777
G1 X136.27 Y100.284 E.0677
G1 X137.41 Y100.284 E.04333
G1 X137.41 Y104.472 E.15915
G1 X137.48 Y104.637 E.00681
G1 X137.639 Y104.7 E.00649
G1 X139.75 Y104.7 E.08025
G1 X139.75 Y106.812 E.08025
G1 X139.75 Y119.73 E.49097
G1 X138.11 Y119.73 E.06233
G1 X138.11 Y114.329 E.20525
G1 X138.064 Y114.192 E.00549
G1 X137.881 Y114.101 E.00777
G1 X117.119 Y114.101 E.78912
G1 X116.936 Y114.192 E.00777
G1 X116.89 Y114.329 E.00549
G1 X116.89 Y119.73 E.20525
G1 X115.25 Y119.73 E.06233
G1 X115.25 Y104.7 E.57122
G1 X117.361 Y104.7 E.08025
G1 X117.52 Y104.637 E.00649
G1 X117.59 Y104.472 E.00681
G1 X117.59 Y100.284 E.15915
G1 X118.73 Y100.284 E.04333
G1 X118.73 Y102.065 E.0677
G1 X118.821 Y102.248 E.00777
G1 X118.959 Y102.294 E.00549
G1 X136.001 Y102.294 E.64774
G1 X135.959 Y103.56 F12000
;TYPE:Bottom surface
;WIDTH:0.5
G1 F1200
G1 X136.144 Y103.84 E.01277
G1 X136.188 Y104.786 F12000
G1 F1200
G1 X135.66 Y103.918 E.0386
G1 X135.388 Y103.56 E.0171
G1 X134.809 Y103.56 F12000
G1 F1200
G1 X135.202 Y104.06 E.02415
G1 X135.71 Y104.861 E.03608
G1 X136.135 Y105.71 E.03609
G1 X136.472 Y106.598 E.0361
G1 X136.718 Y107.516 E.03612
G1 X136.87 Y108.455 E.03613
G1 X136.927 Y109.404 E.03615
G1 X136.888 Y110.355 E.03616
G1 X136.753 Y111.297 E.03617
G1 X136.524 Y112.221 E.03619
G1 X136.305 Y112.835 E.02477
G1 X136.79 Y112.835 F12000
G1 F1200
G1 X136.979 Y112.295 E.02173
G1 X137.209 Y111.348 E.03705
G1 X137.344 Y110.383 E.03704
G1 X137.384 Y109.409 E.03703
G1 X137.328 Y108.437 E.03701
G1 X137.177 Y107.475 E.037
G1 X136.931 Y106.534 E.03699
G1 X136.594 Y105.621 E.03697
G1 X136.508 Y105.444 E.00748
G1 X137.188 Y105.892 F12000
G1 F1200
G1 X137.53 Y106.974 E.04314
G1 X137.726 Y107.951 E.03784
G1 X137.827 Y108.941 E.03785
G1 X137.832 Y109.938 E.03787
G1 X137.741 Y110.93 E.03788
G1 X137.555 Y111.91 E.03789
G1 X137.285 Y112.835 E.03662
G1 X135.814 Y112.835 F12000
G1 F1200
G1 X135.924 Y112.577 E.01065
G1 X136.197 Y111.689 E.03531
G1 X136.378 Y110.778 E.03529
G1 X136.463 Y109.854 E.03528
G1 X136.453 Y108.926 E.03527
G1 X136.346 Y108.004 E.03525
G1 X136.145 Y107.099 E.03524
G1 X135.852 Y106.22 E.03522
G1 X135.469 Y105.377 E.03521
G1 X135.002 Y104.578 E.03519
G1 X134.454 Y103.831 E.03518
G1 X134.208 Y103.56 E.01392
G1 X133.583 Y103.56 F12000
G1 F1200
G1 X133.962 Y103.956 E.02084
G1 X134.513 Y104.67 E.03426
G1 X134.985 Y105.439 E.03428
G1 X135.373 Y106.253 E.03429
G1 X135.672 Y107.105 E.03431
G1 X135.879 Y107.984 E.03432
G1 X135.991 Y108.88 E.03434
G1 X136.008 Y109.784 E.03435
G1 X135.929 Y110.685 E.03437
G1 X135.755 Y111.573 E.03439
G1 X135.488 Y112.438 E.0344
G1 X135.318 Y112.835 E.01643
G1 X134.821 Y112.835 F12000
G1 F1200
G1 X134.919 Y112.635 E.00843
G1 X135.217 Y111.807 E.03347
G1 X135.423 Y110.951 E.03346
G1 X135.535 Y110.078 E.03344
G1 X135.551 Y109.199 E.03342
G1 X135.471 Y108.323 E.03341
G1 X135.296 Y107.462 E.03339
G1 X135.029 Y106.626 E.03338
G1 X134.672 Y105.824 E.03336
G1 X134.229 Y105.067 E.03334
G1 X133.707 Y104.362 E.03333
G1 X133.111 Y103.719 E.03331
G1 X132.927 Y103.56 E.00925
G1 X132.218 Y103.56 F12000
G1 F1200
G1 X132.478 Y103.76 E.01244
G1 X133.09 Y104.351 E.03234
G1 X133.631 Y105.007 E.03235
G1 X134.096 Y105.721 E.03237
G1 X134.477 Y106.483 E.03239
G1 X134.771 Y107.284 E.03241
G1 X134.973 Y108.112 E.03242
G1 X135.081 Y108.959 E.03244
G1 X135.093 Y109.813 E.03246
G1 X135.008 Y110.664 E.03248
G1 X134.83 Y111.5 E.03249
G1 X134.558 Y112.311 E.03251
G1 X134.314 Y112.835 E.02197
G1 X133.804 Y112.835 F12000
G1 F1200
G1 X134.093 Y112.241 E.02509
G1 X134.367 Y111.458 E.03152
G1 X134.548 Y110.649 E.0315
G1 X134.634 Y109.825 E.03149
G1 X134.625 Y108.997 E.03147
G1 X134.52 Y108.176 E.03145
G1 X134.321 Y107.374 E.03143
G1 X134.03 Y106.6 E.03141
G1 X133.651 Y105.866 E.03139
G1 X133.191 Y105.181 E.03137
G1 X132.654 Y104.555 E.03136
G1 X132.048 Y103.995 E.03134
G1 X131.45 Y103.56 E.0281
G1 X130.538 Y103.56 F12000
G1 F1200
G1 X131.141 Y103.898 E.02626
G1 X131.783 Y104.369 E.03029
G1 X132.366 Y104.915 E.03031
G1 X132.878 Y105.526 E.03033
G1 X133.314 Y106.195 E.03035
G1 X133.667 Y106.912 E.03037
G1 X133.931 Y107.667 E.03039
G1 X134.103 Y108.449 E.03041
G1 X134.181 Y109.245 E.03043
G1 X134.162 Y110.046 E.03045
G1 X134.048 Y110.84 E.03047
G1 X133.84 Y111.615 E.03049
G1 X133.54 Y112.359 E.03051
G1 X133.279 Y112.835 E.02061
G1 X132.744 Y112.835 F12000
G1 F1200
G1 X132.903 Y112.593 E.011
G1 X133.246 Y111.897 E.02947
G1 X133.499 Y111.165 E.02944
G1 X133.66 Y110.408 E.02942
G1 X133.726 Y109.637 E.0294
G1 X133.696 Y108.865 E.02938
G1 X133.571 Y108.102 E.02936
G1 X133.352 Y107.362 E.02934
G1 X133.043 Y106.655 E.02932
G1 X132.649 Y105.993 E.0293
G1 X132.176 Y105.385 E.02927
G1 X131.632 Y104.841 E.02925
G1 X131.024 Y104.369 E.02923
G1 X130.363 Y103.978 E.02921
G1 X129.659 Y103.672 E.02919
G1 X129.278 Y103.56 E.01507
G1 E-3 F1800
G1 Z.6 F12000
G1 X125.838 Y103.56 Z.6
G1 Z.2
G1 E3 F1800
M73 P4 R37
G1 F1200
G1 X125.169 Y103.798 E.02698
G1 X124.487 Y104.143 E.02904
G1 X123.855 Y104.57 E.02901
G1 X123.281 Y105.073 E.02899
G1 X122.775 Y105.643 E.02897
G1 X122.346 Y106.272 E.02895
G1 X121.999 Y106.95 E.02893
G1 X121.741 Y107.665 E.0289
G1 X121.574 Y108.406 E.02888
G1 X121.503 Y109.162 E.02886
G1 X121.528 Y109.921 E.02884
G1 X121.648 Y110.669 E.02882
G1 X121.862 Y111.396 E.02879
G1 X122.166 Y112.09 E.02877
G1 X122.554 Y112.738 E.02875
G1 X122.63 Y112.835 E.00466
G1 X122.083 Y112.835 F12000
G1 F1200
G1 X121.923 Y112.597 E.01087
G1 X121.569 Y111.896 E.02984
G1 X121.303 Y111.157 E.02986
G1 X121.128 Y110.39 E.02988
G1 X121.049 Y109.608 E.0299
G1 X121.065 Y108.82 E.02993
G1 X121.177 Y108.04 E.02995
G1 X121.383 Y107.279 E.02997
G1 X121.68 Y106.548 E.02999
G1 X122.064 Y105.859 E.03001
G1 X122.529 Y105.22 E.03003
