; HEADER_BLOCK_START
; generated by OrcaSlicer 1.7.0 on 2023-12-19 at 15:56:11
; total layer number: 75
; HEADER_BLOCK_END

; THUMBNAIL_BLOCK_START
; THUMBNAIL_BLOCK_END

; external perimeters extrusion width = 0.40mm
; perimeters extrusion width = 0.45mm
; infill extrusion width = 0.45mm
; solid infill extrusion width = 0.40mm
; top infill extrusion width = 0.40mm
; first layer extrusion width = 0.50mm

; external perimeters extrusion width = 0.40mm
; perimeters extrusion width = 0.45mm
; infill extrusion width = 0.45mm
; solid infill extrusion width = 0.40mm
; top infill extrusion width = 0.40mm
; first layer extrusion width = 0.50mm

; external perimeters extrusion width = 0.40mm
; perimeters extrusion width = 0.45mm
; infill extrusion width = 0.45mm
; solid infill extrusion width = 0.40mm
; top infill extrusion width = 0.40mm
; first layer extrusion width = 0.50mm

; external perimeters extrusion width = 0.40mm
; perimeters extrusion width = 0.45mm
; infill extrusion width = 0.45mm
; solid infill extrusion width = 0.40mm
; top infill extrusion width = 0.40mm
; first layer extrusion width = 0.50mm

; external perimeters extrusion width = 0.40mm
; perimeters extrusion width = 0.45mm
; infill extrusion width = 0.45mm
; solid infill extrusion width = 0.40mm
; top infill extrusion width = 0.40mm
; first layer extrusion width = 0.50mm

; EXECUTABLE_BLOCK_START
EXCLUDE_OBJECT_DEFINE NAME=Ender_3_Cable_Chain_Link_v2~recovered_-_Ender_3_Cable_Chain_Link_v2~recovered_1_.stl_id_0_copy_0 CENTER=126.5,141 POLYGON=[[112.5,128.5],[113.002,128],[131.27,128],[135.498,129],[140.5,130.84],[140.5,151.16],[135.498,153],[131.27,154],[113.002,154],[112.5,153.5],[112.5,128.5]]
EXCLUDE_OBJECT_DEFINE NAME=Ender_3_Cable_Chain_Link_v2~recovered_-_Ender_3_Cable_Chain_Link_v2~recovered_1_.stl_id_1_copy_0 CENTER=126.5,110 POLYGON=[[112.5,97.5],[113.002,97],[131.27,97],[135.498,98.0002],[140.5,99.84],[140.5,120.16],[135.498,122],[131.27,123],[113.002,123],[112.5,122.5],[112.5,97.5]]
EXCLUDE_OBJECT_DEFINE NAME=Ender_3_Cable_Chain_Link_v2~recovered_-_Ender_3_Cable_Chain_Link_v2~recovered_1_.stl_id_2_copy_0 CENTER=93.5,110 POLYGON=[[79.5,97.5],[80.0024,97],[98.2699,97],[102.498,98.0002],[107.5,99.84],[107.5,120.16],[102.498,122],[98.2699,123],[80.0024,123],[79.5,122.5],[79.5,97.5]]
EXCLUDE_OBJECT_DEFINE NAME=Ender_3_Cable_Chain_Link_v2~recovered_-_Ender_3_Cable_Chain_Link_v2~recovered_1_.stl_id_3_copy_0 CENTER=93.5,141 POLYGON=[[79.5,128.5],[80.0024,128],[98.2699,128],[102.498,129],[107.5,130.84],[107.5,151.16],[102.498,153],[98.2699,154],[80.0024,154],[79.5,153.5],[79.5,128.5]]
EXCLUDE_OBJECT_DEFINE NAME=Ender_3_Cable_Chain_Link_v2~recovered_-_Ender_3_Cable_Chain_Link_v2~recovered_1_.stl_id_4_copy_0 CENTER=110,79 POLYGON=[[96,66.5],[96.5024,66],[114.77,66],[118.998,67.0002],[124,68.84],[124,89.16],[118.998,90.9998],[114.77,92],[96.5024,92],[96,91.5],[96,66.5]]
M73 P0 R108
;TYPE:Custom
START_PRINT EXTRUDER_TEMP=255  BED_TEMP=80
G90
G21
M83 ; use relative distances for extrusion
; filament start gcode
M106 S0
;LAYER_CHANGE
;Z:0.3
;HEIGHT:0.3
;BEFORE_LAYER_CHANGE
;0.3
G92 E0

G1 E-5 F1800
;_SET_FAN_SPEED_CHANGING_LAYER
; printing object Ender 3 Cable Chain Link (v2~recovered) - Ender 3 Cable Chain Link (v2~recovered) (1).stl id:4 copy 0
EXCLUDE_OBJECT_START NAME=Ender_3_Cable_Chain_Link_v2~recovered_-_Ender_3_Cable_Chain_Link_v2~recovered_1_.stl_id_4_copy_0
G1 X115.357 Y69.929 F9000
G1 Z.4
G1 Z.3
G1 E5 F1800
;TYPE:Inner wall
;WIDTH:0.5
G1 F900
G1 X115.517 Y69.961 E.00845
G1 X116.879 Y69.961 E.07029
G1 X116.834 Y70.448 E.02522
G1 X116.834 Y87.552 E.88286
G1 X116.879 Y87.845 E.01528
G1 X116.879 Y88.039 E.01001
G1 X115.277 Y88.066 E.08271
G1 X114.861 Y88.258 E.02363
G1 X114.819 Y88.344 E.00492
G1 X105.46 Y88.344 E.48305
G1 X105.46 Y69.656 E.96458
G1 X114.819 Y69.656 E.48305
G1 X114.861 Y69.742 E.00492
G1 X115.096 Y69.877 E.01398
G1 X115.317 Y69.921 E.01165
G1 X115.437 Y69.509 F9000
G1 F900
G1 X115.517 Y69.526 E.00423
G1 X117.314 Y69.526 E.09277
G1 X117.314 Y70.118 E.03058
G1 X117.27 Y70.448 E.01718
G1 X117.27 Y87.552 E.88286
G1 X117.314 Y87.741 E.01003
G1 X117.314 Y88.474 E.03784
G1 X115.373 Y88.491 E.10022
G1 X115.124 Y88.606 E.01418
G1 X115.037 Y88.779 E.00999
G1 X105.025 Y88.779 E.51682
G1 X105.025 Y69.221 E1.00955
G1 X115.037 Y69.221 E.51682
G1 X115.124 Y69.394 E.00999
G1 X115.264 Y69.475 E.00839
G1 X115.398 Y69.502 E.00701
G1 X115.517 Y69.09 F9000
;TYPE:Outer wall
G1 F900
G1 X117.75 Y69.09 E.11526
G1 X117.75 Y70.362 E.06566
G1 X117.706 Y70.448 E.00498
G1 X117.706 Y87.552 E.88286
G1 X117.75 Y87.638 E.00498
G1 X117.75 Y88.91 E.06566
G1 X115.433 Y88.927 E.1196
G1 X115.299 Y89.128 E.01245
G1 X115.299 Y89.215 E.0045
G1 X104.589 Y89.215 E.55283
G1 X104.589 Y68.785 E1.05452
G1 X115.299 Y68.785 E.55283
G1 X115.299 Y68.872 E.0045
G1 X115.386 Y69.046 E.01003
G1 X115.479 Y69.077 E.00508
G1 X115.258 Y70.268 F9000
;TYPE:Bottom surface
;WIDTH:0.5
G1 F1200
G1 X115.365 Y70.375 E.00779
G1 X115.45 Y70.29 E.00623
G1 X116.059 Y70.297 F9000
G1 F1200
G1 X115.981 Y70.375 E.00573
G1 X116.289 Y70.683 E.02249
G1 X116.499 Y70.473 E.01533
G1 X116.499 Y71.089 F9000
G1 F1200
G1 X115.981 Y71.607 E.03782
G1 X116.289 Y71.915 E.02248
G1 X116.499 Y71.705 E.01533
G1 X116.499 Y73.553 F9000
G1 F1200
G1 X115.981 Y74.072 E.03782
G1 X116.289 Y74.38 E.02248
G1 X116.499 Y74.169 E.01533
G1 X116.499 Y76.018 F9000
G1 F1200
G1 X116.289 Y76.228 E.01533
G1 X116.499 Y76.438 E.01533
G1 X116.499 Y76.634 F9000
G1 F1200
G1 X116.289 Y76.844 E.01533
G1 X115.365 Y75.92 E.06746
G1 X115.673 Y75.612 E.02249
G1 X115.981 Y75.92 E.02248
G1 X116.499 Y75.402 E.03782
G1 X116.499 Y75.206 F9000
G1 F1200
G1 X116.289 Y74.996 E.01533
G1 X115.981 Y75.304 E.02248
G1 X115.673 Y74.996 E.02249
G1 X115.981 Y74.688 E.02248
G1 X115.673 Y74.38 E.02248
G1 X115.057 Y74.996 E.04497
G1 X115.365 Y75.304 E.02248
G1 X115.057 Y75.612 E.02249
G1 X114.749 Y75.304 E.02248
G1 X114.133 Y75.92 E.04497
G1 X114.441 Y76.228 E.02248
G1 X114.749 Y75.92 E.02249
G1 X115.365 Y76.536 E.04497
G1 X115.057 Y76.844 E.02249
G1 X114.749 Y76.536 E.02248
G1 X114.441 Y76.844 E.02248
G1 X114.749 Y77.152 E.02248
G1 X114.441 Y77.46 E.02249
G1 X113.825 Y76.844 E.04497
G1 X114.133 Y76.536 E.02249
G1 X113.825 Y76.228 E.02248
G1 X113.517 Y76.536 E.02249
G1 X112.901 Y75.92 E.04497
G1 X113.209 Y75.612 E.02249
G1 X113.517 Y75.92 E.02248
G1 X114.133 Y75.304 E.04497
G1 X113.825 Y74.996 E.02248
G1 X113.517 Y75.304 E.02249
G1 X113.209 Y74.996 E.02249
G1 X113.517 Y74.688 E.02249
G1 X113.209 Y74.38 E.02248
G1 X112.592 Y74.996 E.04497
G1 X112.901 Y75.304 E.02248
G1 X112.592 Y75.612 E.02249
G1 X111.976 Y74.996 E.04497
G1 X112.284 Y74.688 E.02249
G1 X111.976 Y74.38 E.02249
G1 X111.668 Y74.688 E.02249
G1 X111.052 Y74.072 E.04497
G1 X111.36 Y73.763 E.02249
G1 X111.668 Y74.072 E.02249
G1 X111.976 Y73.764 E.02248
G1 X111.668 Y73.455 E.02249
G1 X111.976 Y73.147 E.02249
G1 X112.592 Y73.763 E.04497
G1 X112.284 Y74.072 E.02249
G1 X112.592 Y74.38 E.02249
G1 X113.517 Y73.455 E.06746
G1 X113.209 Y73.147 E.02249
G1 X112.901 Y73.455 E.02249
G1 X112.284 Y72.839 E.04497
G1 X112.592 Y72.531 E.02249
G1 X112.901 Y72.839 E.02249
G1 X113.209 Y72.531 E.02248
G1 X112.901 Y72.223 E.02249
G1 X113.209 Y71.915 E.02248
G1 X113.825 Y72.531 E.04497
G1 X113.517 Y72.839 E.02248
G1 X113.825 Y73.147 E.02249
G1 X114.133 Y72.839 E.02249
G1 X114.749 Y73.455 E.04497
G1 X114.441 Y73.763 E.02248
G1 X114.133 Y73.455 E.02248
G1 X113.517 Y74.072 E.04497
G1 X113.825 Y74.38 E.02248
G1 X114.133 Y74.072 E.02249
G1 X114.441 Y74.38 E.02249
G1 X114.133 Y74.688 E.02249
G1 X114.441 Y74.996 E.02248
G1 X115.057 Y74.38 E.04497
G1 X114.749 Y74.072 E.02248
G1 X115.057 Y73.764 E.02248
G1 X115.365 Y74.072 E.02248
G1 X115.673 Y73.763 E.02249
G1 X115.365 Y73.455 E.02248
G1 X115.673 Y73.147 E.02248
G1 X115.981 Y73.455 E.02248
G1 X116.499 Y72.937 E.03782
G1 X116.499 Y72.741 F9000
G1 F1200
G1 X116.289 Y72.531 E.01533
G1 X115.981 Y72.839 E.02248
G1 X115.673 Y72.531 E.02249
G1 X115.981 Y72.223 E.02248
G1 X115.673 Y71.915 E.02248
G1 X115.057 Y72.531 E.04497
G1 X115.365 Y72.839 E.02248
G1 X115.057 Y73.147 E.02248
G1 X114.441 Y72.531 E.04497
G1 X114.749 Y72.223 E.02249
G1 X114.441 Y71.915 E.02249
G1 X114.133 Y72.223 E.02248
G1 X113.517 Y71.607 E.04497
G1 X113.825 Y71.299 E.02248
G1 X114.133 Y71.607 E.02249
G1 X114.441 Y71.299 E.02249
G1 X114.133 Y70.991 E.02249
G1 X114.441 Y70.683 E.02248
G1 X115.057 Y71.299 E.04497
G1 X114.749 Y71.607 E.02248
G1 X115.057 Y71.915 E.02249
G1 X115.981 Y70.991 E.06746
G1 X115.673 Y70.683 E.02249
G1 X115.365 Y70.991 E.02248
G1 X114.749 Y70.375 E.04497
G1 X114.948 Y70.176 E.01452
G1 X114.516 Y69.992 F9000
G1 F1200
G1 X114.441 Y70.067 E.00551
G1 X114.365 Y69.992 E.00551
G1 X113.133 Y69.992 F9000
G1 F1200
G1 X113.209 Y70.067 E.00551
G1 X113.284 Y69.992 E.00551
G1 X113.749 Y69.992 F9000
G1 F1200
G1 X114.133 Y70.375 E.028
G1 X113.825 Y70.683 E.02249
G1 X113.517 Y70.375 E.02249
G1 X113.209 Y70.683 E.02249
G1 X113.517 Y70.991 E.02249
G1 X113.209 Y71.299 E.02249
G1 X112.592 Y70.683 E.04497
G1 X112.901 Y70.375 E.02249
G1 X112.592 Y70.067 E.02249
G1 X112.284 Y70.375 E.02248
G1 X111.901 Y69.992 E.028
G1 X110.82 Y69.992 F9000
G1 F1200
G1 X110.744 Y70.067 E.00551
G1 X110.669 Y69.992 E.00551
G1 X110.204 Y69.992 F9000
G1 F1200
G1 X109.82 Y70.375 E.028
G1 X110.128 Y70.683 E.02248
G1 X110.436 Y70.375 E.02249
G1 X110.744 Y70.683 E.02249
G1 X110.436 Y70.991 E.02249
G1 X110.744 Y71.299 E.02249
G1 X111.36 Y70.683 E.04497
G1 X111.052 Y70.375 E.02249
G1 X111.36 Y70.067 E.02248
G1 X111.976 Y70.683 E.04497
G1 X111.668 Y70.991 E.02248
G1 X111.976 Y71.299 E.02249
G1 X112.284 Y70.991 E.02249
G1 X112.901 Y71.607 E.04497
G1 X112.592 Y71.915 E.02249
G1 X112.284 Y71.607 E.02249
G1 X111.976 Y71.915 E.02248
G1 X112.284 Y72.223 E.02249
G1 X111.976 Y72.531 E.02249
G1 X111.36 Y71.915 E.04497
G1 X111.668 Y71.607 E.02249
G1 X111.36 Y71.299 E.02249
G1 X110.436 Y72.223 E.06746
G1 X110.744 Y72.531 E.02249
G1 X111.052 Y72.223 E.02249
G1 X111.668 Y72.839 E.04497
G1 X111.36 Y73.147 E.02249
G1 X111.052 Y72.839 E.02249
G1 X110.744 Y73.147 E.02248
G1 X111.052 Y73.455 E.02249
G1 X110.744 Y73.764 E.02249
G1 X110.128 Y73.147 E.04497
G1 X110.436 Y72.839 E.02249
G1 X110.128 Y72.531 E.02249
G1 X109.82 Y72.839 E.02249
G1 X109.204 Y72.223 E.04497
G1 X109.512 Y71.915 E.02249
G1 X109.82 Y72.223 E.02248
G1 X110.436 Y71.607 E.04497
G1 X110.128 Y71.299 E.02249
G1 X109.82 Y71.607 E.02249
G1 X109.512 Y71.299 E.02249
G1 X109.82 Y70.991 E.02249
G1 X109.512 Y70.683 E.02249
G1 X108.896 Y71.299 E.04497
G1 X109.204 Y71.607 E.02249
G1 X108.896 Y71.915 E.02249
G1 X108.28 Y71.299 E.04497
G1 X108.588 Y70.991 E.02249
G1 X108.28 Y70.683 E.02249
G1 X107.972 Y70.991 E.02249
G1 X107.356 Y70.375 E.04497
G1 X107.664 Y70.067 E.02249
G1 X107.972 Y70.375 E.02249
G1 X108.28 Y70.067 E.02249
G1 X108.205 Y69.992 E.00551
G1 X108.821 Y69.992 F9000
G1 F1200
G1 X108.896 Y70.067 E.00551
G1 X108.588 Y70.375 E.02249
G1 X108.896 Y70.683 E.02248
G1 X109.512 Y70.067 E.04497
G1 X109.437 Y69.992 E.00551
G1 E-3.5 F1800
;WIPE_START
G1 F1200
G1 X109.512 Y70.067 E-.32029
G1 X109.234 Y70.345 E-1.17971
;WIPE_END
G17
G3 Z.7 I.201 J-1.2 P1  F9000
G1 X107.123 Y69.992 Z.7
G1 Z.3
G1 E5 F1800
G1 F1200
G1 X107.048 Y70.067 E.00551
G1 X106.972 Y69.992 E.00551
G1 X105.796 Y70.047 F9000
G1 F1200
G1 X105.816 Y70.067 E.00148
G1 X105.891 Y69.992 E.00551
G1 X106.356 Y69.992 F9000
G1 F1200
G1 X106.74 Y70.375 E.028
G1 X106.432 Y70.683 E.02249
G1 X106.124 Y70.375 E.02248
G1 X105.816 Y70.683 E.02248
G1 X106.124 Y70.991 E.02249
G1 X105.816 Y71.299 E.02248
G1 X105.796 Y71.279 E.00148
G1 X105.796 Y71.895 F9000
G1 F1200
G1 X106.124 Y72.223 E.02396
G1 X105.816 Y72.531 E.02248
G1 X105.796 Y72.511 E.00148
G1 X105.796 Y73.127 F9000
G1 F1200
G1 X105.816 Y73.147 E.00148
G1 X105.796 Y73.168 E.00148
G1 X105.796 Y73.743 F9000
G1 F1200
G1 X105.816 Y73.763 E.00148
G1 X106.432 Y73.147 E.04497
G1 X106.124 Y72.839 E.02249
G1 X106.432 Y72.531 E.02249
G1 X106.74 Y72.839 E.02249
G1 X107.356 Y72.223 E.04497
G1 X107.048 Y71.915 E.02249
G1 X106.74 Y72.223 E.02249
G1 X106.124 Y71.607 E.04497
G1 X106.432 Y71.299 E.02249
G1 X106.74 Y71.607 E.02249
G1 X107.048 Y71.299 E.02249
G1 X106.74 Y70.991 E.02248
G1 X107.048 Y70.683 E.02249
G1 X107.664 Y71.299 E.04497
G1 X107.356 Y71.607 E.02249
G1 X107.664 Y71.915 E.02248
G1 X107.972 Y71.607 E.02249
G1 X108.588 Y72.223 E.04497
G1 X108.28 Y72.531 E.02249
G1 X107.972 Y72.223 E.02248
G1 X107.356 Y72.839 E.04497
G1 X107.664 Y73.147 E.02249
G1 X107.972 Y72.839 E.02248
G1 X108.28 Y73.147 E.02249
G1 X107.972 Y73.455 E.02249
G1 X108.28 Y73.763 E.02249
M73 P0 R107
G1 X108.896 Y73.147 E.04497
G1 X108.588 Y72.839 E.02249
G1 X108.896 Y72.531 E.02249
G1 X109.512 Y73.147 E.04497
G1 X109.204 Y73.455 E.02249
G1 X109.512 Y73.764 E.02249
G1 X109.82 Y73.455 E.02249
G1 X110.436 Y74.072 E.04497
G1 X110.128 Y74.38 E.02249
G1 X109.82 Y74.072 E.02249
G1 X109.512 Y74.38 E.02248
G1 X109.82 Y74.688 E.02249
G1 X109.512 Y74.996 E.02248
G1 X108.896 Y74.38 E.04497
G1 X109.204 Y74.072 E.02248
G1 X108.896 Y73.763 E.02249
G1 X107.972 Y74.688 E.06746
G1 X108.28 Y74.996 E.02249
G1 X108.588 Y74.688 E.02248
G1 X109.204 Y75.304 E.04497
G1 X108.896 Y75.612 E.02248
G1 X108.588 Y75.304 E.02249
G1 X108.28 Y75.612 E.02249
G1 X108.588 Y75.92 E.02249
G1 X108.28 Y76.228 E.02248
G1 X107.664 Y75.612 E.04497
G1 X107.972 Y75.304 E.02248
G1 X107.664 Y74.996 E.02249
G1 X107.356 Y75.304 E.02248
G1 X106.74 Y74.688 E.04497
G1 X107.048 Y74.38 E.02249
G1 X107.356 Y74.688 E.02248
G1 X107.972 Y74.072 E.04497
G1 X107.664 Y73.764 E.02248
G1 X107.356 Y74.072 E.02249
G1 X107.048 Y73.763 E.02249
G1 X107.356 Y73.455 E.02248
G1 X107.048 Y73.147 E.02249
G1 X106.432 Y73.763 E.04497
G1 X106.74 Y74.072 E.02249
G1 X106.432 Y74.38 E.02248
G1 X106.124 Y74.072 E.02249
G1 X105.816 Y74.38 E.02248
G1 X106.124 Y74.688 E.02249
G1 X105.816 Y74.996 E.02248
G1 X105.796 Y74.975 E.00148
G1 X105.796 Y75.591 F9000
G1 F1200
G1 X105.816 Y75.612 E.00148
G1 X105.796 Y75.632 E.00148
G1 X105.796 Y76.207 F9000
G1 F1200
G1 X105.816 Y76.228 E.00148
G1 X106.432 Y75.612 E.04497
G1 X106.124 Y75.304 E.02249
G1 X106.432 Y74.996 E.02249
G1 X107.048 Y75.612 E.04497
G1 X106.74 Y75.92 E.02248
G1 X107.048 Y76.228 E.02249
G1 X107.356 Y75.92 E.02248
G1 X107.972 Y76.536 E.04497
G1 X107.664 Y76.844 E.02248
G1 X107.356 Y76.536 E.02249
G1 X107.048 Y76.844 E.02249
G1 X107.356 Y77.152 E.02249
G1 X107.048 Y77.46 E.02248
G1 X106.432 Y76.844 E.04497
G1 X106.74 Y76.536 E.02248
G1 X106.432 Y76.228 E.02249
G1 X105.796 Y76.864 E.04645
G1 X105.796 Y77.44 F9000
G1 F1200
G1 X105.816 Y77.46 E.00148
G1 X106.124 Y77.152 E.02249
G1 X106.74 Y77.768 E.04497
G1 X106.432 Y78.076 E.02249
G1 X106.124 Y77.768 E.02249
G1 X105.816 Y78.076 E.02248
G1 X106.124 Y78.384 E.02249
G1 X105.816 Y78.692 E.02249
G1 X105.796 Y78.672 E.00148
G1 X105.796 Y79.288 F9000
G1 F1200
G1 X105.816 Y79.308 E.00148
G1 X105.796 Y79.328 E.00148
G1 X105.796 Y79.904 F9000
G1 F1200
G1 X105.816 Y79.924 E.00148
G1 X106.124 Y79.616 E.02249
G1 X106.74 Y80.232 E.04497
G1 X106.432 Y80.54 E.02249
G1 X106.124 Y80.232 E.02249
G1 X105.816 Y80.54 E.02248
G1 X106.124 Y80.848 E.02249
G1 X105.816 Y81.156 E.02249
G1 X105.796 Y81.136 E.00148
G1 X105.796 Y81.752 F9000
G1 F1200
G1 X106.124 Y82.08 E.02396
G1 X105.816 Y82.388 E.02248
G1 X105.796 Y82.368 E.00148
G1 X105.796 Y82.984 F9000
G1 F1200
G1 X105.816 Y83.004 E.00148
G1 X105.796 Y83.025 E.00148
G1 X105.796 Y83.6 F9000
G1 F1200
G1 X105.816 Y83.62 E.00148
G1 X106.432 Y83.004 E.04497
G1 X106.124 Y82.696 E.02249
G1 X106.432 Y82.388 E.02249
G1 X106.74 Y82.696 E.02248
G1 X107.356 Y82.08 E.04497
G1 X107.048 Y81.772 E.02248
G1 X106.74 Y82.08 E.02249
G1 X106.124 Y81.464 E.04497
G1 X106.432 Y81.156 E.02249
G1 X106.74 Y81.464 E.02248
G1 X107.048 Y81.156 E.02248
G1 X106.74 Y80.848 E.02248
G1 X107.048 Y80.54 E.02249
G1 X107.664 Y81.156 E.04497
G1 X107.356 Y81.464 E.02249
G1 X107.664 Y81.772 E.02248
G1 X107.972 Y81.464 E.02249
G1 X108.588 Y82.08 E.04497
G1 X108.28 Y82.388 E.02249
G1 X107.972 Y82.08 E.02248
G1 X107.356 Y82.696 E.04497
G1 X107.664 Y83.004 E.02248
G1 X107.972 Y82.696 E.02249
G1 X108.28 Y83.004 E.02249
