; HEADER_BLOCK_START
; generated by OrcaSlicer 1.7.0 on 2023-11-26 at 20:36:21
; total layer number: 251
; HEADER_BLOCK_END

; THUMBNAIL_BLOCK_START
; THUMBNAIL_BLOCK_END

; external perimeters extrusion width = 0.40mm
; perimeters extrusion width = 0.45mm
; infill extrusion width = 0.45mm
; solid infill extrusion width = 0.40mm
; top infill extrusion width = 0.40mm
; support material extrusion width = 0.40mm
; first layer extrusion width = 0.50mm

; EXECUTABLE_BLOCK_START
EXCLUDE_OBJECT_DEFINE NAME=Ender_3_v2_Baseplate_Sidecar_v2.stl_id_0_copy_0 CENTER=110,110 POLYGON=[[89,86.055],[89.0407,85.4857],[89.162,84.9281],[89.3615,84.3933],[89.635,83.8924],[89.977,83.4356],[90.3806,83.032],[90.8374,82.69],[91.3383,82.4165],[91.8731,82.217],[92.4307,82.0957],[93,82.055],[127,82.055],[127.569,82.0957],[128.127,82.217],[128.662,82.4165],[129.163,82.69],[129.619,83.032],[130.023,83.4356],[130.365,83.8924],[130.639,84.3933],[130.838,84.9281],[130.959,85.4857],[131,86.055],[131,132.055],[127,137.945],[93,137.945],[89,132.055],[89,86.055]]
M73 P0 R87
;TYPE:Custom
START_PRINT EXTRUDER_TEMP=255  BED_TEMP=80
G90
G21
M83 ; use relative distances for extrusion
; filament start gcode
M106 S0
;LAYER_CHANGE
;Z:0.2
;HEIGHT:0.2
;BEFORE_LAYER_CHANGE
;0.2
G92 E0

G1 E-2 F3600
;_SET_FAN_SPEED_CHANGING_LAYER
G1 X89.648 Y82.68 F9000
M73 P0 R86
G1 Z.4
G1 Z.2
G1 E2 F3600
;TYPE:Skirt
;WIDTH:0.5
G1 F900
G1 X90.566 Y81.974 E.04182
G1 X91.808 Y81.456 E.0486
G1 X92.764 Y81.309 E.03491
G1 X127.032 Y81.3 E1.23728
G1 X127.959 Y81.396 E.03366
G1 X128.611 Y81.585 E.02451
G1 X129.434 Y81.974 E.03286
G1 X130.352 Y82.68 E.04182
G1 X130.819 Y83.228 E.02597
G1 X131.288 Y84.008 E.03286
G1 X131.652 Y85.065 E.04036
G1 X131.746 Y85.819 E.02744
G1 X131.757 Y132.055 E1.6694
G1 X131.201 Y139.75 E.27855
G1 X130.713 Y141.049 E.0501
G1 X129.599 Y141.876 E.0501
G1 X128.75 Y142.028 E.03112
G1 X91.25 Y142.028 E1.35397
G1 X89.919 Y141.636 E.0501
G1 X89.012 Y140.585 E.0501
G1 X88.799 Y139.75 E.03112
G1 X88.243 Y132.055 E.27855
G1 X88.243 Y86.055 E1.66088
G1 X88.387 Y84.918 E.04137
G1 X88.576 Y84.309 E.02304
G1 X89.003 Y83.48 E.03367
G1 X89.623 Y82.712 E.03564
; printing object Ender 3 v2 Baseplate Sidecar v2.stl id:0 copy 0
G1 E-1.4 F3600
;WIPE_START
G1 F900
G1 X90.411 Y82.096 E-.6
;WIPE_END
EXCLUDE_OBJECT_START NAME=Ender_3_v2_Baseplate_Sidecar_v2.stl_id_0_copy_0
G17
G3 Z.6 I-1.172 J.329 P1  F9000
G1 X104.75 Y133.242 Z.6
G1 Z.2
G1 E2 F3600
;TYPE:Support
G1 F900
G1 X104.769 Y133.438 E.00709
G1 X104.77 Y136.089 E.09573
G1 X104.75 Y136.289 E.00724
G1 X104.75 Y139.57 E.1185
G1 X91.25 Y139.57 E.48743
G1 X91.23 Y133.44 E.22134
G1 X91.25 Y133.241 E.00724
G1 X91.25 Y132.655 E.02115
G1 X104.75 Y132.655 E.48743
G1 X104.75 Y133.174 E.01873
G1 X104.339 Y133.066 F9000
G1 F900
G1 X104.358 Y133.458 E.01415
G1 X104.359 Y136.068 E.09426
G1 X104.339 Y136.268 E.00724
G1 X104.339 Y139.159 E.10439
G1 X91.661 Y139.159 E.45772
G1 X91.641 Y133.461 E.20574
G1 X91.661 Y133.066 E.01426
G1 X104.339 Y133.066 E.45773
G1 X103.85 Y133.574 F9000
G1 F900
G1 X103.831 Y138.651 E.18331
G1 X92.169 Y138.651 E.42105
G1 X92.149 Y133.574 E.18331
G1 X103.85 Y133.574 E.42247
G1 X103.342 Y134.082 F9000
G1 F900
G1 X103.323 Y138.143 E.14664
G1 X92.677 Y138.143 E.38438
G1 X92.657 Y134.082 E.14664
G1 X103.342 Y134.082 E.38579
G1 X102.835 Y134.59 F9000
G1 F900
G1 X102.815 Y137.636 E.10996
G1 X93.185 Y137.636 E.3477
G1 X93.165 Y134.59 E.10996
G1 X102.835 Y134.59 E.34912
G1 X102.327 Y135.098 F9000
G1 F900
G1 X102.307 Y137.128 E.07329
G1 X93.693 Y137.128 E.31103
G1 X93.673 Y135.098 E.07329
G1 X102.327 Y135.098 E.31245
G1 X101.819 Y135.606 F9000
G1 F900
G1 X101.799 Y136.62 E.03662
G1 X94.201 Y136.62 E.27436
G1 X94.181 Y135.606 E.03662
G1 X101.819 Y135.606 E.27577
G1 E-1.4 F3600
;WIPE_START
G1 F900
G1 X100.819 Y135.606 E-.6
;WIPE_END
G17
G3 Z.6 I.103 J1.213 P1  F9000
G1 X128.75 Y133.242 Z.6
G1 Z.2
G1 E2 F3600
G1 F900
G1 X128.769 Y133.438 E.00709
G1 X128.77 Y136.089 E.09573
G1 X128.75 Y136.289 E.00724
G1 X128.75 Y139.57 E.1185
G1 X115.25 Y139.57 E.48743
G1 X115.23 Y133.44 E.22135
G1 X115.25 Y133.241 E.00721
G1 X115.25 Y132.655 E.02117
G1 X128.75 Y132.655 E.48743
G1 X128.75 Y133.174 E.01873
G1 X115.661 Y133.066 F9000
G1 F900
G1 X128.339 Y133.066 E.45773
G1 X128.358 Y133.458 E.01415
G1 X128.359 Y136.068 E.09426
G1 X128.339 Y136.268 E.00724
G1 X128.339 Y139.159 E.10439
G1 X115.661 Y139.159 E.45772
G1 X115.641 Y133.461 E.20575
G1 X115.661 Y133.066 E.01425
G1 X116.149 Y133.574 F9000
G1 F900
G1 X127.85 Y133.574 E.42247
G1 X127.831 Y138.651 E.18331
G1 X116.169 Y138.651 E.42105
G1 X116.149 Y133.574 E.18331
G1 X116.657 Y134.082 F9000
G1 F900
G1 X127.342 Y134.082 E.38579
G1 X127.323 Y138.143 E.14664
G1 X116.677 Y138.143 E.38438
G1 X116.657 Y134.082 E.14664
G1 X117.165 Y134.59 F9000
G1 F900
G1 X126.835 Y134.59 E.34912
G1 X126.815 Y137.636 E.10996
G1 X117.185 Y137.636 E.3477
G1 X117.165 Y134.59 E.10996
G1 X117.673 Y135.098 F9000
G1 F900
G1 X126.327 Y135.098 E.31245
G1 X126.307 Y137.128 E.07329
G1 X117.693 Y137.128 E.31103
G1 X117.673 Y135.098 E.07329
G1 X118.181 Y135.606 F9000
G1 F900
G1 X125.819 Y135.606 E.27577
G1 X125.799 Y136.62 E.03662
G1 X118.201 Y136.62 E.27436
G1 X118.181 Y135.606 E.03662
G1 E-1.4 F3600
;WIPE_START
G1 F900
G1 X118.2 Y136.606 E-.6
;WIPE_END
G17
G3 Z.6 I1.189 J.261 P1  F9000
G1 X128.136 Y91.372 Z.6
G1 Z.2
G1 E2 F3600
;TYPE:Inner wall
;WIDTH:0.499999
G1 F900
G1 X128.136 Y114.588 E.83821
G1 X128.154 Y114.793 E.00742
;WIDTH:0.464625
G1 X128.171 Y114.997 E.00685
;WIDTH:0.429251
G1 X128.189 Y115.202 E.00627
G1 X128.145 Y114.946 E.00792
;WIDTH:0.464625
G1 X128.102 Y114.691 E.00864
;WIDTH:0.499999
G1 X128.058 Y114.435 E.00937
G1 X127.773 Y113.724 E.02763
G1 X127.39 Y113.065 E.02753
G1 X126.903 Y112.452 E.02828
G1 X126.331 Y111.917 E.02828
G1 X125.689 Y111.475 E.02813
G1 X125.004 Y111.136 E.02762
G1 X124.258 Y110.895 E.02828
G1 X123.49 Y110.766 E.02812
G1 X122.725 Y110.75 E.02763
G1 X121.97 Y110.845 E.02748
G1 X121.215 Y111.052 E.02827
G1 X120.499 Y111.369 E.02828
G1 X119.839 Y111.786 E.02818
G1 X119.26 Y112.284 E.02757
G1 X118.746 Y112.875 E.02828
G1 X118.326 Y113.532 E.02817
G1 X118.012 Y114.229 E.02758
G1 X117.798 Y114.982 E.02828
G1 X117.697 Y115.858 E.03182
G1 X117.711 Y116.536 E.02451
G1 X117.834 Y117.292 E.02763
G1 X118.127 Y118.151 E.03277
G1 X118.407 Y118.723 E.02299
G1 X118.849 Y119.369 E.02828
G1 X119.379 Y119.941 E.02814
G1 X119.974 Y120.421 E.02762
G1 X120.649 Y120.818 E.02828
G1 X121.371 Y121.111 E.02813
G1 X122.114 Y121.292 E.02763
G1 X122.894 Y121.366 E.02828
G1 X123.672 Y121.324 E.02812
G1 X124.422 Y121.173 E.02763
G1 X125.139 Y120.916 E.02749
G1 X125.83 Y120.549 E.02827
G1 X126.461 Y120.085 E.02828
G1 X127.014 Y119.534 E.02818
G1 X127.471 Y118.922 E.02758
G1 X127.844 Y118.234 E.02828
G1 X128.136 Y117.39 E.03222
G1 X128.136 Y130.891 E.48746
G1 X91.864 Y130.891 E1.30962
M73 P1 R86
G1 X91.864 Y117.408 E.48681
G1 X92.147 Y118.214 E.03085
G1 X92.515 Y118.9 E.0281
G1 X92.97 Y119.515 E.02763
G1 X93.507 Y120.055 E.0275
G1 X94.133 Y120.526 E.02827
G1 X94.821 Y120.899 E.02828
G1 X95.554 Y121.166 E.02817
G1 X96.303 Y121.321 E.02759
G1 X97.085 Y121.366 E.02828
G1 X97.861 Y121.296 E.02816
G1 X98.605 Y121.118 E.0276
G1 X99.332 Y120.828 E.02828
G1 X100.008 Y120.433 E.02828
G1 X100.614 Y119.946 E.02806
G1 X101.137 Y119.387 E.02763
G1 X101.571 Y118.76 E.02754
G1 X101.919 Y118.059 E.02828
G1 X102.16 Y117.313 E.02828
G1 X102.289 Y116.545 E.02812
G1 X102.305 Y115.78 E.02763
G1 X102.207 Y115.005 E.02819
G1 X102.003 Y114.27 E.02756
G1 X101.686 Y113.554 E.02828
G1 X101.267 Y112.892 E.02828
G1 X100.759 Y112.302 E.0281
G1 X100.181 Y111.801 E.02763
G1 X99.539 Y111.39 E.0275
G1 X98.826 Y111.067 E.02827
G1 X98.073 Y110.853 E.02828
G1 X97.299 Y110.752 E.02816
G1 X96.535 Y110.764 E.02759
G1 X95.762 Y110.889 E.02828
G1 X95.019 Y111.126 E.02815
G1 X94.332 Y111.462 E.0276
G1 X93.686 Y111.904 E.02828
G1 X93.112 Y112.437 E.02828
G1 X92.626 Y113.043 E.02805
G1 X92.238 Y113.702 E.02763
G1 X92.003 Y114.253 E.02162
G1 X91.864 Y114.735 E.01811
G1 X91.864 Y91.39 E.8429
G1 X91.937 Y91.66 E.01007
G1 X92.227 Y92.387 E.02828
G1 X92.622 Y93.063 E.02828
G1 X93.109 Y93.669 E.02806
G1 X93.668 Y94.192 E.02763
G1 X94.295 Y94.626 E.02754
G1 X94.996 Y94.974 E.02828
G1 X95.741 Y95.215 E.02828
G1 X96.51 Y95.344 E.02812
G1 X97.275 Y95.36 E.02763
G1 X98.05 Y95.262 E.02819
G1 X98.785 Y95.058 E.02756
G1 X99.501 Y94.741 E.02828
G1 X100.163 Y94.322 E.02828
G1 X100.753 Y93.814 E.0281
G1 X101.254 Y93.236 E.02763
G1 X101.665 Y92.594 E.0275
G1 X101.988 Y91.881 E.02827
G1 X102.202 Y91.128 E.02828
G1 X102.303 Y90.354 E.02816
G1 X102.291 Y89.59 E.02759
G1 X102.166 Y88.817 E.02828
G1 X101.929 Y88.074 E.02815
G1 X101.593 Y87.387 E.0276
G1 X101.151 Y86.741 E.02828
G1 X100.621 Y86.169 E.02814
G1 X100.026 Y85.689 E.02762
G1 X99.351 Y85.292 E.02828
G1 X98.785 Y85.052 E.02219
G1 X98.319 Y84.92 E.0175
G1 X121.658 Y84.921 E.84267
M73 P1 R85
G1 X121.395 Y84.992 E.0098
G1 X120.668 Y85.282 E.02828
G1 X119.995 Y85.675 E.02814
G1 X119.397 Y86.152 E.02761
G1 X118.862 Y86.724 E.02828
G1 X118.418 Y87.369 E.02828
G1 X118.075 Y88.066 E.02804
G1 X117.84 Y88.794 E.02763
G1 X117.713 Y89.547 E.02755
G1 X117.695 Y90.33 E.02828
G1 X117.793 Y91.105 E.02819
G1 X117.997 Y91.84 E.02756
G1 X118.314 Y92.556 E.02828
G1 X118.733 Y93.218 E.02828
G1 X119.241 Y93.808 E.0281
G1 X119.819 Y94.309 E.02763
G1 X120.461 Y94.72 E.0275
G1 X121.174 Y95.043 E.02827
G1 X121.927 Y95.257 E.02828
G1 X122.701 Y95.358 E.02816
G1 X123.465 Y95.346 E.02759
G1 X124.238 Y95.221 E.02828
G1 X124.981 Y94.984 E.02815
G1 X125.668 Y94.648 E.0276
G1 X126.314 Y94.206 E.02828
G1 X126.886 Y93.676 E.02814
G1 X127.366 Y93.081 E.02762
G1 X127.763 Y92.406 E.02828
G1 X128.003 Y91.84 E.02219
G1 X128.125 Y91.411 E.01611
G1 E-1.4 F3600
;WIPE_START
G1 F900
G1 X128.125 Y92.411 E-.6
;WIPE_END
G17
G3 Z.6 I1.193 J-.238 P1  F9000
G1 X126.951 Y86.52 Z.6
G1 Z.2
G1 E2 F3600
G1 F900
G1 X126.842 Y86.4 E.00587
G1 X126.479 Y86.041 E.01842
G1 X125.867 Y85.584 E.02758
G1 X125.179 Y85.211 E.02828
G1 X124.443 Y84.943 E.02828
G1 X124.239 Y84.917 E.00742
;WIDTH:0.46288
G1 X124.035 Y84.891 E.00682
;WIDTH:0.425761
G1 X123.831 Y84.866 E.00622
G1 X124.035 Y84.884 E.00622
;WIDTH:0.46288
G1 X124.24 Y84.903 E.00682
;WIDTH:0.499999
G1 X124.445 Y84.921 E.00742
G1 X126.262 Y84.921 E.06562
G1 X127.209 Y84.945 E.03421
G1 X127.622 Y85.112 E.01609
G1 X127.896 Y85.374 E.01369
G1 X128.062 Y85.684 E.0127
G1 X128.136 Y86.142 E.01675
G1 X128.136 Y88.702 E.09243
G1 X127.854 Y87.898 E.03076
G1 X127.494 Y87.225 E.02757
G1 X127.138 Y86.724 E.02218
G1 X126.978 Y86.549 E.00854
G1 X126.716 Y86.962 F9000
G1 F900
G1 X127.122 Y87.49 E.02404
G1 X127.448 Y88.107 E.02519
G1 X127.685 Y88.781 E.02579
;WIDTH:0.540103
G1 X127.739 Y88.953 E.00708
;WIDTH:0.580207
G1 X127.793 Y89.125 E.00765
;WIDTH:0.620311
G1 X127.847 Y89.297 E.00822
;WIDTH:0.660415
G1 X127.9 Y89.469 E.00879
G1 X127.924 Y90.177 E.03458
;WIDTH:0.648395
G1 X127.915 Y90.369 E.00921
G1 X127.872 Y90.538 E.00832
;WIDTH:0.59893
G1 X127.828 Y90.706 E.00764
;WIDTH:0.549465
G1 X127.785 Y90.875 E.00696
;WIDTH:0.499999
G1 X127.614 Y91.566 E.0257
G1 X127.342 Y92.228 E.02584
G1 X126.976 Y92.843 E.02584
G1 X126.534 Y93.384 E.02522
G1 X126.009 Y93.866 E.02576
G1 X125.416 Y94.267 E.02584
G1 X124.787 Y94.57 E.02521
G1 X124.106 Y94.783 E.02576
G1 X123.399 Y94.894 E.02584
G1 X122.701 Y94.901 E.0252
G1 X121.993 Y94.805 E.02577
G1 X121.306 Y94.605 E.02584
G1 X120.656 Y94.306 E.02584
G1 X120.043 Y93.908 E.02639
G1 X119.546 Y93.467 E.02399
G1 X119.084 Y92.925 E.02573
G1 X118.704 Y92.318 E.02584
G1 X118.418 Y91.662 E.02584
G1 X118.235 Y90.989 E.02518
G1 X118.15 Y90.28 E.02579
G1 X118.17 Y89.564 E.02584
G1 X118.289 Y88.877 E.02518
G1 X118.508 Y88.214 E.02523
G1 X118.825 Y87.577 E.0257
G1 X119.234 Y86.99 E.02584
G1 X119.726 Y86.469 E.02584
G1 X120.274 Y86.037 E.02521
G1 X120.892 Y85.681 E.02576
G1 X121.558 Y85.419 E.02584
G1 X122.256 Y85.258 E.02584
G1 X122.95 Y85.2 E.02516
G1 X123.647 Y85.243 E.02522
G1 X124.344 Y85.39 E.02572
G1 X125.016 Y85.638 E.02584
G1 X125.643 Y85.982 E.02584
G1 X126.2 Y86.403 E.02519
G1 X126.581 Y86.787 E.01955
G1 X126.691 Y86.931 E.00653
G1 X126.243 Y87.096 F9000
;TYPE:Outer wall
G1 F900
G1 X126.368 Y87.225 E.0065
G1 X126.75 Y87.755 E.02359
G1 X127.041 Y88.316 E.02281
G1 X127.253 Y88.928 E.02339
G1 X127.372 Y89.565 E.0234
G1 X127.397 Y90.196 E.02281
G1 X127.343 Y90.708 E.01859
G1 X127.171 Y91.452 E.02755
G1 X126.921 Y92.05 E.0234
G1 X126.585 Y92.604 E.0234
G1 X126.183 Y93.092 E.02282
G1 X125.703 Y93.526 E.02337
G1 X125.164 Y93.885 E.0234
G1 X124.593 Y94.156 E.02282
G1 X123.973 Y94.345 E.02338
G1 X123.332 Y94.442 E.0234
G1 X122.701 Y94.444 E.02281
G1 X122.06 Y94.353 E.02338
G1 X121.438 Y94.168 E.0234
G1 X120.851 Y93.893 E.0234
G1 X120.314 Y93.54 E.02321
G1 X119.851 Y93.127 E.02241
G1 X119.434 Y92.632 E.02336
G1 X119.094 Y92.08 E.02341
G1 X118.839 Y91.484 E.0234
G1 X118.677 Y90.873 E.02281
G1 X118.604 Y90.23 E.02339
G1 X118.626 Y89.582 E.0234
G1 X118.739 Y88.961 E.0228
G1 X118.941 Y88.361 E.02282
G1 X119.232 Y87.784 E.02335
G1 X119.607 Y87.255 E.0234
G1 X120.055 Y86.787 E.0234
G1 X120.554 Y86.399 E.02282
G1 X121.117 Y86.079 E.02338
G1 X121.721 Y85.846 E.02341
G1 X122.354 Y85.704 E.0234
G1 X122.983 Y85.656 E.0228
G1 X123.614 Y85.699 E.02282
G1 X124.246 Y85.836 E.02336
G1 X124.853 Y86.065 E.0234
G1 X125.419 Y86.38 E.0234
G1 X125.92 Y86.765 E.02281
G1 X126.215 Y87.068 E.01525
G1 E-1.4 F3600
;WIPE_START
G1 F900
G1 X126.368 Y87.225 E-.13195
G1 X126.75 Y87.755 E-.39209
G1 X126.808 Y87.868 E-.07596
;WIPE_END
G17
G3 Z.6 I.667 J-1.018 P1  F9000
G1 X122.216 Y84.861 Z.6
G1 Z.2
G1 E2 F3600
;TYPE:Inner wall
;WIDTH:0.379658
G1 F900
G1 X122.569 Y84.847 E.00941
;WIDTH:0.351053
G1 X122.923 Y84.832 E.00861
;WIDTH:0.36616
G1 X123.676 Y84.854 E.01922
;WIDTH:0.388642
G1 X123.831 Y84.866 E.00424
G1 E-1.4 F3600
;WIPE_START
G1 F900
G1 X123.676 Y84.854 E-.0932
G1 X122.923 Y84.832 E-.45174
G1 X122.831 Y84.836 E-.05506
;WIPE_END
G17
G3 Z.6 I-.17 J-1.205 P1  F9000
G1 X91.811 Y89.202 Z.6
G1 Z.2
G1 E2 F3600
;WIDTH:0.429251
G1 F900
G1 X91.829 Y88.997 E.00627
;WIDTH:0.464625
G1 X91.846 Y88.793 E.00685
;WIDTH:0.499999
G1 X91.864 Y88.588 E.00742
G1 X91.864 Y86.111 E.08942
G1 X91.949 Y85.643 E.01718
G1 X92.209 Y85.248 E.01708
G1 X92.566 Y85.012 E.01542
G1 X93.056 Y84.919 E.01802
G1 X95.646 Y84.919 E.09353
G1 X94.843 Y85.201 E.03073
G1 X94.17 Y85.561 E.02757
G1 X93.669 Y85.917 E.02218
G1 X93.351 Y86.207 E.01552
G1 X92.984 Y86.578 E.01886
G1 X92.52 Y87.202 E.02809
G1 X92.156 Y87.875 E.02763
G1 X91.895 Y88.591 E.02751
G1 X91.867 Y88.795 E.00742
;WIDTH:0.464625
G1 X91.839 Y88.998 E.00685
;WIDTH:0.429251
G1 X91.817 Y89.162 E.00505
G1 E-1.4 F3600
;WIPE_START
G1 F900
G1 X91.829 Y88.997 E-.09936
G1 X91.846 Y88.793 E-.12333
G1 X91.864 Y88.588 E-.12333
G1 X91.864 Y88.164 E-.25399
;WIPE_END
G17
G3 Z.6 I-.794 J.922 P1  F9000
G1 X99.117 Y94.415 Z.6
G1 Z.2
G1 E2 F3600
;WIDTH:0.499999
G1 F900
G1 X98.607 Y94.637 E.02007
G1 X97.934 Y94.82 E.02518
G1 X97.225 Y94.905 E.02579
G1 X96.526 Y94.887 E.02523
G1 X95.824 Y94.766 E.02575
G1 X95.144 Y94.542 E.02584
G1 X94.505 Y94.22 E.02584
G1 X93.857 Y93.756 E.02877
G1 X93.426 Y93.34 E.02162
G1 X92.983 Y92.783 E.02571
G1 X92.626 Y92.163 E.02584
G1 X92.364 Y91.497 E.02584
G1 X92.205 Y90.817 E.02521
G1 X92.145 Y90.106 E.02577
G1 X92.19 Y89.391 E.02584
G1 X92.341 Y88.692 E.02584
G1 X92.583 Y88.039 E.02515
G1 X92.918 Y87.426 E.02522
G1 X93.347 Y86.857 E.02573
G1 X93.732 Y86.474 E.01961
G1 X94.435 Y85.933 E.03202
G1 X95.052 Y85.607 E.02519
G1 X95.726 Y85.37 E.02579
G1 X96.428 Y85.234 E.02584
G1 X97.125 Y85.201 E.02518
G1 X97.82 Y85.27 E.02522
G1 X98.511 Y85.441 E.0257
G1 X99.173 Y85.713 E.02584
G1 X99.788 Y86.079 E.02584
G1 X100.329 Y86.521 E.02522
G1 X100.811 Y87.046 E.02576
G1 X101.212 Y87.639 E.02584
G1 X101.515 Y88.268 E.02521
G1 X101.728 Y88.949 E.02576
G1 X101.839 Y89.656 E.02584
G1 X101.846 Y90.354 E.0252
G1 X101.75 Y91.062 E.02577
G1 X101.55 Y91.749 E.02584
G1 X101.251 Y92.399 E.02584
G1 X100.873 Y92.984 E.02515
G1 X100.412 Y93.509 E.02522
G1 X99.87 Y93.971 E.02573
G1 X99.263 Y94.351 E.02584
G1 X99.153 Y94.399 E.00432
