; HEADER_BLOCK_START
; generated by OrcaSlicer 1.7.0 on 2023-11-25 at 10:56:42
; total layer number: 235
; HEADER_BLOCK_END

; THUMBNAIL_BLOCK_START
; THUMBNAIL_BLOCK_END

; external perimeters extrusion width = 0.40mm
; perimeters extrusion width = 0.45mm
; infill extrusion width = 0.45mm
; solid infill extrusion width = 0.40mm
; top infill extrusion width = 0.40mm
; first layer extrusion width = 0.50mm

; EXECUTABLE_BLOCK_START
EXCLUDE_OBJECT_DEFINE NAME=Ender_3_4040_Cover.stl_id_0_copy_0 CENTER=112.63,113.373 POLYGON=[[44.1304,102.044],[55.7321,93.373],[181.13,93.373],[181.13,133.373],[55.7321,133.373],[44.1304,124.702],[44.1304,102.044]]
M73 P0 R148
;TYPE:Custom
START_PRINT EXTRUDER_TEMP=255  BED_TEMP=80
G90
G21
M83 ; use relative distances for extrusion
; filament start gcode
M106 S0
;LAYER_CHANGE
;Z:0.2
;HEIGHT:0.2
;BEFORE_LAYER_CHANGE
;0.2
G92 E0

G1 E-2 F3600
;_SET_FAN_SPEED_CHANGING_LAYER
SET_VELOCITY_LIMIT ACCEL=500 ACCEL_TO_DECEL=250
G1 X54.076 Y91.039 F9000
G1 Z.4
G1 Z.2
G1 E2 F3600
;TYPE:Skirt
;WIDTH:0.5
G1 F900
G1 X55.821 Y90.459 E.06987
G1 X181.13 Y90.459 E4.76255
M73 P0 R147
G1 X182.592 Y90.852 E.05753
G1 X183.659 Y91.925 E.05753
G1 X184.045 Y93.373 E.05693
G1 X184.045 Y133.373 E1.52025
G1 X183.651 Y134.835 E.05753
G1 X182.578 Y135.902 E.05753
G1 X181.13 Y136.287 E.05693
G1 X55.821 Y136.287 E4.76255
G1 X54.076 Y135.707 E.06987
G1 X42.386 Y126.969 E.55471
G1 X41.45 Y125.779 E.05753
G1 X41.216 Y124.635 E.04439
G1 X41.216 Y102.111 E.85608
G1 X41.609 Y100.649 E.05753
G1 X42.386 Y99.776 E.04439
G1 X54.044 Y91.063 E.55319
G1 X54.318 Y91.429 F9000
G1 F900
G1 X54.35 Y91.405 E.00152
G1 X55.821 Y90.916 E.05891
G1 X181.13 Y90.916 E4.76255
G1 X182.462 Y91.308 E.05274
G1 X183.368 Y92.358 E.05274
G1 X183.587 Y93.373 E.03945
G1 X183.587 Y133.373 E1.52025
G1 X183.196 Y134.704 E.05274
G1 X182.145 Y135.611 E.05274
G1 X181.13 Y135.83 E.03945
G1 X55.821 Y135.83 E4.76255
G1 X54.35 Y135.341 E.05891
G1 X42.659 Y126.603 E.55471
G1 X41.828 Y125.493 E.05274
G1 X41.673 Y124.635 E.03311
G1 X41.673 Y102.111 E.85608
G1 X42.065 Y100.779 E.05274
G1 X42.659 Y100.143 E.03311
G1 X54.286 Y91.453 E.55167
; printing object Ender 3 4040 Cover.stl id:0 copy 0
G1 E-1.4 F3600
;WIPE_START
G1 F900
G1 X54.35 Y91.405 E-.048
G1 X55.223 Y91.115 E-.552
;WIPE_END
EXCLUDE_OBJECT_START NAME=Ender_3_4040_Cover.stl_id_0_copy_0
G17
G3 Z.6 I-.024 J1.217 P1  F9000
G1 X180.88 Y93.623 Z.6
G1 Z.2
G1 E2 F3600
;TYPE:Outer wall
;WIDTH:0.499999
G1 F900
G1 X180.88 Y94.541 E.03489
G1 X180.88 Y133.123 E1.46636
G1 X55.904 Y133.123 E4.74988
G1 X44.38 Y124.51 E.54679
G1 X44.38 Y102.236 E.84655
G1 X55.904 Y93.623 E.54679
G1 X180.84 Y93.623 E4.74836
M73 P0 R146
G1 E-1.4 F3600
;WIPE_START
G1 F900
G1 X180.88 Y94.541 E-.55126
G1 X180.88 Y94.622 E-.04874
;WIPE_END
G17
G3 Z.6 I-.009 J-1.217 P1  F9000
G1 X85.88 Y95.352 Z.6
G1 Z.2
G1 E2 F3600
G1 F900
G1 X85.926 Y95.214 E.00549
G1 X86.109 Y95.123 E.00777
G1 X179.152 Y95.123 E3.53621
G1 X179.313 Y95.19 E.00665
G1 X179.38 Y95.352 E.00665
G1 X179.38 Y131.394 E1.36986
G1 X179.313 Y131.556 E.00665
G1 X179.191 Y131.62 E.00523
G1 X86.109 Y131.623 E3.53772
M73 P1 R146
G1 X85.926 Y131.532 E.00777
G1 X85.88 Y131.394 E.00549
G1 X85.88 Y95.392 E1.36834
G1 E-1.4 F3600
;WIPE_START
G1 F900
G1 X85.926 Y95.214 E-.10976
G1 X86.109 Y95.123 E-.12265
G1 X86.722 Y95.123 E-.3676
;WIPE_END
G17
G3 Z.6 I-.463 J-1.125 P1  F9000
G1 X72.185 Y101.102 Z.6
G1 Z.2
G1 E2 F3600
G1 F900
G1 X72.288 Y101.006 E.00537
G1 X72.838 Y100.667 E.02454
G1 X73.334 Y100.481 E.02015
G1 X73.758 Y100.397 E.01643
G1 X74.251 Y100.376 E.01876
G1 X74.671 Y100.423 E.01605
G1 X75.17 Y100.559 E.01966
G1 X75.541 Y100.727 E.01547
G1 X76.134 Y101.142 E.02751
G1 X76.497 Y101.531 E.02022
G1 X76.836 Y102.081 E.02454
G1 X77.022 Y102.577 E.02014
G1 X77.125 Y103.214 E.02453
G1 X77.088 Y103.869 E.02495
G1 X76.956 Y104.38 E.02004
G1 X76.673 Y104.963 E.02466
G1 X76.355 Y105.385 E.02005
G1 X75.972 Y105.74 E.01985
G1 X75.423 Y106.079 E.02454
G1 X74.926 Y106.265 E.02014
G1 X74.286 Y106.368 E.02466
G1 X73.759 Y106.349 E.02004
G1 X73.128 Y106.199 E.02464
G1 X72.54 Y105.915 E.02482
G1 X72.119 Y105.598 E.02005
G1 X71.763 Y105.215 E.01985
G1 X71.423 Y104.663 E.02466
G1 X71.239 Y104.169 E.02003
G1 X71.136 Y103.532 E.02452
G1 X71.173 Y102.877 E.02495
G1 X71.305 Y102.366 E.02004
G1 X71.485 Y101.962 E.01679
G1 X71.9 Y101.369 E.02751
G1 X72.156 Y101.13 E.01334
G1 E-1.4 F3600
;WIPE_START
G1 F900
G1 X72.288 Y101.006 E-.10874
G1 X72.838 Y100.667 E-.38739
G1 X73 Y100.606 E-.10386
;WIPE_END
G17
G3 Z.6 I-1.009 J-.68 P1  F9000
G1 X56.21 Y125.518 Z.6
G1 Z.2
G1 E2 F3600
G1 F900
G1 X55.972 Y125.74 E.01237
G1 X55.423 Y126.079 E.02452
G1 X54.804 Y126.295 E.02495
G1 X54.282 Y126.368 E.02004
G1 X53.634 Y126.33 E.02466
G1 X53.123 Y126.198 E.02005
G1 X52.648 Y125.98 E.01986
G1 X52.282 Y125.734 E.01679
G1 X51.77 Y125.222 E.02749
G1 X51.424 Y124.665 E.02491
G1 X51.239 Y124.169 E.02014
G1 X51.136 Y123.532 E.02453
G1 X51.18 Y122.832 E.02665
G1 X51.321 Y122.324 E.02003
G1 X51.588 Y121.783 E.02296
G1 X51.906 Y121.361 E.02005
G1 X52.289 Y121.006 E.01986
G1 X52.652 Y120.764 E.01661
G1 X53.205 Y120.521 E.02294
G1 X53.97 Y120.379 E.02956
G1 X54.421 Y120.389 E.01717
G1 X55.128 Y120.545 E.02751
G1 X55.612 Y120.766 E.02023
G1 X55.979 Y121.012 E.01679
G1 X56.49 Y121.524 E.02749
G1 X56.838 Y122.083 E.02503
G1 X57.022 Y122.577 E.02003
G1 X57.125 Y123.214 E.02452
G1 X57.088 Y123.869 E.02495
G1 X56.956 Y124.38 E.02004
G1 X56.776 Y124.784 E.01679
G1 X56.361 Y125.376 E.02751
G1 X56.239 Y125.49 E.00633
G1 E-1.4 F3600
;WIPE_START
G1 F900
G1 X55.972 Y125.74 E-.2193
G1 X55.432 Y126.073 E-.3807
;WIPE_END
G17
G3 Z.6 I.291 J1.182 P1  F9000
G1 X180.13 Y95.372 Z.6
G1 Z.2
G1 E2 F3600
;TYPE:Bottom surface
;WIDTH:0.38333
G1 F1200
G1 X180.129 Y94.374 E.02826
G1 X179.131 Y94.373 E.02826
G1 X179.371 Y94.42 E.00692
G1 X179.635 Y94.529 E.00808
G1 X179.838 Y94.665 E.00693
G1 X179.974 Y94.869 E.00693
G1 X180.083 Y95.132 E.00808
G1 X180.123 Y95.333 E.00579
G1 X180.13 Y95.372 F9000
;WIDTH:0.381978
G1 F1200
G1 X180.124 Y131.517 E1.01903
G1 X179.31 Y132.366 F9000
;WIDTH:0.386638
G1 F1200
G1 X86.174 Y132.373 E2.66186
G1 E-1.4 F3600
;WIPE_START
G1 F1200
G1 X87.174 Y132.373 E-.6
;WIPE_END
G17
G3 Z.6 I0 J1.217 P1  F9000
G1 X179.31 Y132.366 Z.6
G1 Z.2
G1 E2 F3600
;WIDTH:0.388893
G1 F1200
G1 X180.13 Y132.373 E.02358
G1 X180.122 Y131.557 E.02346
G1 X179.953 Y131.929 E.01174
G1 X179.84 Y132.083 E.00549
G1 X179.492 Y132.301 E.01183
G1 X179.348 Y132.352 E.00439
G1 E-1.4 F3600
;WIPE_START
G1 F1200
G1 X179.492 Y132.301 E-.09155
G1 X179.84 Y132.083 E-.24672
G1 X179.953 Y131.929 E-.11459
G1 X180.055 Y131.706 E-.14713
;WIPE_END
G17
G3 Z.6 I.004 J-1.217 P1  F9000
G1 X85.528 Y131.377 Z.6
G1 Z.2
G1 E2 F3600
;WIDTH:0.499999
G1 F1200
G1 X85.528 Y95.369 E1.36856
G1 X85.614 Y95.075 E.01164
G1 X85.711 Y94.952 E.00595
G1 X86.024 Y94.779 E.0136
G1 X179.131 Y94.771 E3.53864
G1 X179.482 Y94.898 E.01419
G1 X179.606 Y95.021 E.00665
G1 X179.732 Y95.372 E.01418
G1 X179.725 Y131.448 E1.37109
G1 X179.6 Y131.745 E.01227
G1 X179.502 Y131.842 E.00523
G1 X179.201 Y131.97 E.01245
G1 X86.134 Y131.975 E3.53714
G1 X85.727 Y131.799 E.01685
G1 X85.612 Y131.666 E.00665
G1 X85.54 Y131.416 E.00992
G1 E-1.4 F3600
;WIPE_START
G1 F1200
G1 X85.612 Y131.666 E-.15658
G1 X85.727 Y131.799 E-.10495
G1 X86.134 Y131.975 E-.26599
G1 X86.255 Y131.975 E-.07248
;WIPE_END
G17
G3 Z.6 I-.032 J-1.217 P1  F9000
G1 X56.021 Y132.771 Z.6
G1 Z.2
G1 E2 F3600
G1 F1200
G1 X180.528 Y132.771 E4.73206
M73 P1 R145
G1 X180.528 Y93.975 E1.4745
G1 X56.021 Y93.975 E4.73206
G1 X44.732 Y102.412 E.53564
G1 X44.732 Y124.334 E.83315
G1 X55.989 Y132.747 E.53412
G1 X56.325 Y131.857 F9000
G1 F1200
G1 X84.712 Y131.857 E1.0789
G1 X84.614 Y131.377 E.0186
G1 X84.614 Y95.369 E1.36856
G1 X84.712 Y94.889 E.0186
G1 X56.325 Y94.889 E1.07889
G1 X45.646 Y102.87 E.50668
G1 X45.646 Y123.876 E.79833
G1 X56.293 Y131.833 E.50516
G1 E-1.4 F3600
;WIPE_START
G1 F1200
G1 X55.492 Y131.234 E-.6
;WIPE_END
G17
G3 Z.6 I.824 J-.895 P1  F9000
G1 X52.192 Y128.197 Z.6
G1 Z.2
G1 E2 F3600
G1 F1200
G1 X56.477 Y131.4 E.20333
G1 X84.161 Y131.4 E1.05216
G1 X84.161 Y95.346 E1.37026
G1 X56.477 Y95.346 E1.05216
G1 X46.104 Y103.099 E.49221
G1 X46.104 Y123.647 E.78093
G1 X49.957 Y126.527 E.18286
G1 X50.391 Y126.872 E.02106
;WIDTH:0.447232
G1 X51.477 Y127.703 E.04597
;WIDTH:0.435814
G1 X51.818 Y127.938 E.01354
;WIDTH:0.467907
G1 X52.159 Y128.174 E.01465
G1 E-1.4 F3600
;WIPE_START
G1 F1200
G1 X51.818 Y127.938 E-.6
;WIPE_END
G17
G3 Z.6 I.976 J.727 P1  F9000
G1 X56.764 Y121.304 Z.6
G1 Z.2
G1 E2 F3600
;WIDTH:0.499999
G1 F1200
G1 X57.146 Y121.914 E.02735
G1 X57.361 Y122.486 E.02323
G1 X57.475 Y123.179 E.0267
G1 X57.435 Y123.923 E.02833
G1 X57.275 Y124.529 E.0238
G1 X57.058 Y124.995 E.01954
G1 X56.589 Y125.645 E.03045
G1 X56.144 Y126.048 E.02282
G1 X55.59 Y126.388 E.02471
G1 X54.927 Y126.625 E.02675
G1 X54.34 Y126.716 E.0226
G1 X53.623 Y126.682 E.02728
G1 X53.043 Y126.541 E.02267
G1 X52.496 Y126.297 E.02276
G1 X52.059 Y126.003 E.02005
G1 X51.53 Y125.479 E.02828
G1 X51.13 Y124.859 E.02804
G1 X50.912 Y124.301 E.02276
G1 X50.79 Y123.598 E.02711
G1 X50.817 Y122.959 E.02433
G1 X50.962 Y122.287 E.02612
G1 X51.267 Y121.638 E.02728
G1 X51.62 Y121.156 E.02267
G1 X52.043 Y120.753 E.02221
G1 X52.484 Y120.457 E.0202
G1 X53.106 Y120.183 E.02581
G1 X53.944 Y120.029 E.0324
G1 X54.447 Y120.039 E.01912
G1 X55.23 Y120.209 E.03044
G1 X55.789 Y120.462 E.02331
G1 X56.212 Y120.749 E.01946
G1 X56.736 Y121.275 E.02821
G1 X57.187 Y121.107 F9000
G1 F1200
G1 X57.535 Y121.675 E.02535
G1 X57.79 Y122.328 E.02663
G1 X57.926 Y123.108 E.03012
G1 X57.891 Y123.951 E.03205
G1 X57.715 Y124.649 E.02736
G1 X57.494 Y125.15 E.0208
G1 X56.96 Y125.912 E.03537
G1 X56.448 Y126.39 E.02662
G1 X55.827 Y126.779 E.02786
G1 X55.078 Y127.056 E.03035
G1 X54.406 Y127.168 E.02588
G1 X53.599 Y127.139 E.03072
G1 X52.932 Y126.984 E.02602
G1 X52.308 Y126.714 E.02584
G1 X51.801 Y126.38 E.02308
G1 X51.207 Y125.803 E.03148
G1 X50.744 Y125.103 E.03186
G1 X50.486 Y124.464 E.0262
G1 X50.339 Y123.674 E.03055
G1 X50.36 Y122.936 E.02805
G1 X50.519 Y122.176 E.02953
G1 X50.855 Y121.441 E.03072
G1 X51.253 Y120.884 E.02602
G1 X51.73 Y120.42 E.02528
G1 X52.232 Y120.076 E.02311
G1 X52.924 Y119.764 E.02887
G1 X53.864 Y119.579 E.03643
G1 X54.461 Y119.582 E.02267
G1 X55.33 Y119.763 E.03373
G1 X55.98 Y120.046 E.02698
G1 X56.445 Y120.352 E.02113
G1 X56.853 Y120.744 E.02151
G1 X57.16 Y121.077 E.01721
G1 X57.525 Y120.791 F9000
G1 F1200
G1 X57.925 Y121.436 E.02887
G1 X58.023 Y121.638 E.00853
G1 X58.219 Y122.17 E.02153
G1 X58.378 Y123.038 E.03354
G1 X58.347 Y123.979 E.03578
G1 X58.156 Y124.77 E.03093
G1 X57.909 Y125.342 E.02369
G1 X57.331 Y126.179 E.03866
G1 X56.752 Y126.731 E.03043
G1 X56.064 Y127.17 E.03101
G1 X55.229 Y127.488 E.03396
G1 X54.473 Y127.62 E.02916
G1 X53.575 Y127.595 E.03416
G1 X52.82 Y127.427 E.02937
G1 X52.119 Y127.13 E.02893
G1 X51.543 Y126.757 E.02611
G1 X50.883 Y126.126 E.03469
G1 X50.358 Y125.348 E.03568
G1 X50.059 Y124.628 E.02965
G1 X49.889 Y123.75 E.03399
G1 X49.903 Y122.914 E.03177
G1 X49.941 Y122.599 E.01206
G1 X50.076 Y122.064 E.02094
G1 X50.442 Y121.244 E.03416
G1 X50.886 Y120.611 E.02937
G1 X51.417 Y120.087 E.02836
G1 X51.979 Y119.695 E.02602
G1 X52.742 Y119.345 E.03193
G1 X52.997 Y119.268 E.01013
G1 X53.785 Y119.128 E.03039
G1 X54.474 Y119.125 E.02621
G1 X55.429 Y119.317 E.03702
G1 X56.172 Y119.631 E.03066
G1 X56.703 Y119.974 E.02401
G1 X57.177 Y120.422 E.02479
G1 X57.497 Y120.762 E.01774
G1 X57.501 Y120.1 F9000
G1 F1200
G1 X57.894 Y120.521 E.02189
G1 X58.315 Y121.197 E.03028
G1 X58.452 Y121.48 E.01194
G1 X58.648 Y122.011 E.02153
G1 X58.829 Y122.967 E.03697
G1 X58.846 Y123.311 E.0131
G1 X58.804 Y124.006 E.02647
G1 X58.597 Y124.89 E.0345
G1 X58.324 Y125.534 E.02659
G1 X57.702 Y126.446 E.04195
G1 X57.055 Y127.073 E.03424
G1 X56.301 Y127.561 E.03416
G1 X55.999 Y127.703 E.01265
G1 X55.38 Y127.919 E.02496
G1 X54.54 Y128.072 E.03244
G1 X53.55 Y128.052 E.03761
G1 X52.709 Y127.871 E.03272
G1 X51.94 Y127.528 E.032
;WIDTH:0.439852
G1 X51.306 Y127.104 E.02518
G1 X50.566 Y126.443 E.03273
;WIDTH:0.499616
G1 X50.34 Y126.173 E.01338
G1 X49.972 Y125.592 E.02611
G1 X49.632 Y124.791 E.03307
G1 X49.438 Y123.825 E.0374
G1 X49.447 Y122.891 E.03547
G1 X49.498 Y122.487 E.01546
G1 X49.632 Y121.953 E.02093
G1 X50.03 Y121.047 E.03758
G1 X50.519 Y120.338 E.0327
G1 X51.104 Y119.754 E.0314
G1 X51.726 Y119.314 E.02891
G1 X52.56 Y118.925 E.03496
G1 X52.918 Y118.818 E.01417
G1 X53.705 Y118.678 E.03036
G1 X54.488 Y118.668 E.02973
G1 X55.529 Y118.871 E.04027
G1 X55.85 Y118.98 E.01289
G1 X56.363 Y119.216 E.02146
G1 X56.96 Y119.597 E.02687
G1 X57.472 Y120.073 E.02653
G1 X57.825 Y119.778 F9000
;WIDTH:0.499999
G1 F1200
G1 X58.2 Y120.17 E.02065
G1 X58.704 Y120.958 E.03556
G1 X58.881 Y121.322 E.01535
G1 X59.077 Y121.853 E.02153
G1 X59.179 Y122.247 E.01545
G1 X59.281 Y122.896 E.02499
G1 X59.302 Y123.339 E.01684
G1 X59.26 Y124.034 E.02647
G1 X59.191 Y124.452 E.0161
G1 X59.038 Y125.011 E.02202
G1 X58.738 Y125.726 E.02949
G1 X58.073 Y126.713 E.04523
G1 X57.77 Y127.049 E.01719
G1 X57.359 Y127.415 E.02092
G1 X56.537 Y127.952 E.03731
G1 X56.15 Y128.134 E.01627
G1 X55.53 Y128.351 E.02496
G1 X54.606 Y128.524 E.03573
G1 X54.198 Y128.543 E.01554
G1 X53.526 Y128.508 E.02556
G1 X53.332 Y128.479 E.00746
G1 X56.629 Y130.943 E.15642
G1 X83.7 Y130.943 E1.02888
G1 X83.7 Y95.803 E1.33552
G1 X56.629 Y95.803 E1.02888
G1 X46.561 Y103.328 E.47773
G1 X46.561 Y123.418 E.76352
G1 X49.459 Y125.584 E.13751
G1 X49.205 Y124.954 E.02581
G1 X49.097 Y124.56 E.01553
G1 X48.987 Y123.901 E.02539
G1 X48.961 Y123.459 E.01681
G1 X48.995 Y122.776 E.026
G1 X49.189 Y121.841 E.03627
G1 X49.328 Y121.457 E.01554
G1 X49.617 Y120.85 E.02556
G1 X50.152 Y120.066 E.03608
G1 X50.791 Y119.421 E.03451
G1 X51.473 Y118.934 E.03185
G1 X52.379 Y118.506 E.03805
G1 X52.838 Y118.368 E.01824
G1 X53.625 Y118.228 E.03039
G1 X54.045 Y118.198 E.016
G1 X54.662 Y118.222 E.02347
G1 X55.628 Y118.425 E.03753
G1 X56.042 Y118.565 E.01659
G1 X56.555 Y118.801 E.02148
G1 X57.218 Y119.219 E.02977
G1 X57.796 Y119.75 E.02984
G1 E-1.4 F3600
;WIPE_START
G1 F1200
G1 X57.218 Y119.219 E-.47101
G1 X57.036 Y119.104 E-.12899
;WIPE_END
G17
G3 Z.6 I1.204 J.178 P1  F9000
G1 X58.7 Y107.881 Z.6
G1 Z.2
G1 E2 F3600
;WIDTH:0.425194
G1 F1200
G1 X58.628 Y107.922 E.00263
G1 X58.703 Y107.957 E.00264
G1 X59.337 Y108.573 F9000
;WIDTH:0.499999
G1 F1200
G1 X59.077 Y107.801 E.03094
G1 X58.923 Y107.214 E.02308
G1 X57.712 Y108.118 E.05744
G1 X58.563 Y108.326 E.03328
G1 X59.299 Y108.559 E.02936
G1 X60.132 Y109.38 F9000
G1 F1200
G1 X59.896 Y108.776 E.02465
G1 X59.515 Y107.669 E.04451
G1 X59.296 Y106.838 E.03264
G1 X59.218 Y106.422 E.01608
G1 X56.632 Y108.355 E.1227
G1 X57.82 Y108.611 E.04617
G1 X58.44 Y108.767 E.0243
G1 X59.034 Y108.949 E.02362
G1 X59.534 Y109.129 E.02021
G1 X60.095 Y109.364 E.02313
G1 X61.114 Y110.353 F9000
G1 F1200
G1 X60.834 Y109.822 E.02279
G1 X60.603 Y109.322 E.02094
G1 X60.14 Y108.104 E.04951
G1 X59.953 Y107.536 E.02273
G1 X59.742 Y106.737 E.03141
G1 X59.541 Y105.61 E.04352
G1 X56.159 Y108.138 E.16046
G1 X56.159 Y108.747 E.02314
G1 X56.98 Y108.892 E.03169
G1 X57.72 Y109.057 E.0288
G1 X58.317 Y109.207 E.02338
G1 X58.888 Y109.382 E.02273
G1 X59.37 Y109.556 E.01945
G1 X60.064 Y109.849 E.02863
G1 X61.079 Y110.333 E.04274
G1 E-1.4 F3600
;WIPE_START
G1 F1200
G1 X60.176 Y109.903 E-.6
;WIPE_END
G17
G3 Z.6 I-.759 J.951 P1  F9000
G1 X62.571 Y111.815 Z.6
G1 Z.2
G1 E2 F3600
G1 F1200
G1 X62.181 Y111.247 E.02621
G1 X61.469 Y110.053 E.05282
G1 X61.022 Y109.14 E.03863
G1 X60.756 Y108.467 E.02751
G1 X60.39 Y107.404 E.04273
G1 X60.188 Y106.636 E.03018
G1 X60.034 Y105.818 E.03163
G1 X59.91 Y104.945 E.03354
G1 X59.668 Y104.945 E.00922
G1 X55.702 Y107.909 E.18816
G1 X55.702 Y109.142 E.04687
G1 X56.444 Y109.249 E.02847
G1 X57.62 Y109.503 E.04575
G1 X58.194 Y109.647 E.02247
G1 X58.743 Y109.816 E.02184
G1 X59.537 Y110.116 E.03225
G1 X60.385 Y110.501 E.03542
G1 X61.263 Y110.954 E.03754
G1 X61.843 Y111.31 E.02587
G1 X62.539 Y111.792 E.03216
G1 E-1.4 F3600
;WIPE_START
G1 F1200
G1 X61.843 Y111.31 E-.50763
G1 X61.712 Y111.23 E-.09237
;WIPE_END
G17
G3 Z.6 I-.829 J.891 P1  F9000
