; HEADER_BLOCK_START
; generated by OrcaSlicer 1.7.0 on 2023-12-20 at 17:44:40
; total layer number: 34
; HEADER_BLOCK_END

; THUMBNAIL_BLOCK_START
; THUMBNAIL_BLOCK_END

; external perimeters extrusion width = 0.40mm
; perimeters extrusion width = 0.45mm
; infill extrusion width = 0.45mm
; solid infill extrusion width = 0.40mm
; top infill extrusion width = 0.40mm
; first layer extrusion width = 0.50mm

; external perimeters extrusion width = 0.40mm
; perimeters extrusion width = 0.45mm
; infill extrusion width = 0.45mm
; solid infill extrusion width = 0.40mm
; top infill extrusion width = 0.40mm
; first layer extrusion width = 0.50mm

; external perimeters extrusion width = 0.40mm
; perimeters extrusion width = 0.45mm
; infill extrusion width = 0.45mm
; solid infill extrusion width = 0.40mm
; top infill extrusion width = 0.40mm
; first layer extrusion width = 0.50mm

; external perimeters extrusion width = 0.40mm
; perimeters extrusion width = 0.45mm
; infill extrusion width = 0.45mm
; solid infill extrusion width = 0.40mm
; top infill extrusion width = 0.40mm
; first layer extrusion width = 0.50mm

; EXECUTABLE_BLOCK_START
EXCLUDE_OBJECT_DEFINE NAME=Ender_3_Cable_Chain_Clip_-_Unsaved_1_.stl_id_0_copy_0 CENTER=122.8,116.4 POLYGON=[[118.9,103.4],[124.7,103.4],[126.7,105.4],[126.7,127.4],[124.7,129.4],[118.9,129.4],[118.9,103.4]]
EXCLUDE_OBJECT_DEFINE NAME=Ender_3_Cable_Chain_Clip_-_Unsaved_1_.stl_id_1_copy_0 CENTER=110,116.4 POLYGON=[[106.1,103.4],[111.9,103.4],[113.9,105.4],[113.9,127.4],[111.9,129.4],[106.1,129.4],[106.1,103.4]]
EXCLUDE_OBJECT_DEFINE NAME=Ender_3_Cable_Chain_Clip_-_Unsaved_1_.stl_id_2_copy_0 CENTER=97.2,116.4 POLYGON=[[93.3001,103.4],[99.1,103.4],[101.1,105.4],[101.1,127.4],[99.1,129.4],[93.3001,129.4],[93.3001,103.4]]
EXCLUDE_OBJECT_DEFINE NAME=Ender_3_Cable_Chain_Clip_-_Unsaved_1_.stl_id_3_copy_0 CENTER=110,94.5 POLYGON=[[97,90.6],[123,90.6],[123,96.4],[121,98.4],[99,98.4],[97,96.4],[97,90.6]]
M73 P0 R21
;TYPE:Custom
START_PRINT EXTRUDER_TEMP=255  BED_TEMP=80
G90
G21
M83 ; use relative distances for extrusion
; filament start gcode
M106 S0
;LAYER_CHANGE
;Z:0.3
;HEIGHT:0.3
;BEFORE_LAYER_CHANGE
;0.3
G92 E0

G1 E-5 F1800
;_SET_FAN_SPEED_CHANGING_LAYER
; printing object Ender 3 Cable Chain Clip - (Unsaved) (1).stl id:2 copy 0
EXCLUDE_OBJECT_START NAME=Ender_3_Cable_Chain_Clip_-_Unsaved_1_.stl_id_2_copy_0
G1 X95.183 Y105.053 F9000
G1 Z.4
G1 Z.3
G1 E5 F1800
;TYPE:Inner wall
;WIDTH:0.487171
G1 F900
G1 X94.667 Y104.515 E.03736
G1 X95.162 Y104.515 E.02482
;WIDTH:0.514007
G1 X95.92 Y104.528 E.04038
G1 X95.317 Y104.87 E.03694
;WIDTH:0.487171
G1 X95.207 Y105.021 E.00936
G1 E-3.5 F1800
;WIPE_START
G1 F900
G1 X94.842 Y104.679 E-1.5
;WIPE_END
G17
G3 Z.7 I-1.199 J.211 P1  F9000
G1 X98.845 Y127.469 Z.7
G1 Z.3
G1 E5 F1800
;WIDTH:0.461549
G1 F900
G1 X98.861 Y127.435 E.00178
;WIDTH:0.5
G1 X98.981 Y127.192 E.01399
G1 X98.981 Y105.608 E1.1141
G1 X98.901 Y105.409 E.01104
;WIDTH:0.464558
G1 X98.821 Y105.211 E.01015
;WIDTH:0.429116
G1 X98.74 Y105.013 E.00925
;WIDTH:0.393675
G1 X98.494 Y104.765 E.01361
;WIDTH:0.427695
G1 X98.294 Y104.684 E.00933
;WIDTH:0.462609
G1 X98.093 Y104.602 E.01023
;WIDTH:0.497523
G1 X97.892 Y104.52 E.01112
G1 X98.147 Y104.503 E.01313
;WIDTH:0.462609
G1 X98.403 Y104.485 E.01207
;WIDTH:0.427695
G1 X98.658 Y104.468 E.01101
;WIDTH:0.393675
G1 X98.991 Y104.802 E.01843
;WIDTH:0.429116
G1 X99.163 Y104.998 E.01126
;WIDTH:0.464558
G1 X99.334 Y105.194 E.01235
;WIDTH:0.5
G1 X99.505 Y105.391 E.01345
G1 X99.979 Y105.864 E.03457
G1 X99.979 Y106.071 E.01066
G1 X99.979 Y126.936 E1.07695
G1 X99.223 Y127.717 E.05612
;WIDTH:0.46426
G1 X98.94 Y128.025 E.01979
;WIDTH:0.428521
G1 X98.658 Y128.332 E.01802
;WIDTH:0.392782
G1 X98.59 Y128.332 E.00265
;WIDTH:0.43319
G1 X98.42 Y128.312 E.00746
;WIDTH:0.473598
G1 X98.251 Y128.292 E.00827
;WIDTH:0.514007
G1 X98.082 Y128.272 E.00909
G1 X98.219 Y128.193 E.00845
;WIDTH:0.473598
G1 X98.357 Y128.114 E.00769
;WIDTH:0.43319
G1 X98.494 Y128.035 E.00693
;WIDTH:0.392782
G1 X98.622 Y127.921 E.00662
;WIDTH:0.423099
G1 X98.741 Y127.678 E.01152
;WIDTH:0.461549
G1 X98.827 Y127.505 E.00909
G1 E-3.5 F1800
;WIPE_START
G1 F900
G1 X98.861 Y127.435 E-.23367
G1 X98.981 Y127.192 E-.8132
G1 X98.981 Y127.041 E-.45313
;WIPE_END
G17
G3 Z.7 I-.482 J-1.117 P1  F9000
G1 X96.11 Y128.28 Z.7
G1 Z.3
G1 E5 F1800
;WIDTH:0.497523
G1 F900
G1 X94.667 Y128.285 E.07405
;WIDTH:0.487171
G1 X95.183 Y127.747 E.03736
G1 X95.317 Y127.93 E.01136
;WIDTH:0.497523
G1 X96.073 Y128.264 E.04242
G1 E-3.5 F1800
;WIPE_START
G1 F900
G1 X95.573 Y128.271 E-1.5
;WIPE_END
G17
G3 Z.7 I.377 J1.157 P1  F9000
G1 X98.492 Y127.32 Z.7
G1 Z.3
G1 E5 F1800
;WIDTH:0.5
G1 F900
G1 X98.546 Y127.192 E.00717
G1 X98.546 Y105.608 E1.1141
G1 X98.427 Y105.233 E.02031
G1 X98.272 Y105.076 E.01136
G1 X97.892 Y104.954 E.0206
G1 X96.11 Y104.954 E.092
G1 X95.997 Y104.964 E.00585
G1 X95.631 Y105.163 E.02146
G1 X95.542 Y105.285 E.00783
G1 X95.27 Y105.764 E.02842
G1 X93.986 Y104.424 E.09576
G1 X93.986 Y104.086 E.01749
G1 X98.816 Y104.086 E.24932
G1 X100.414 Y105.684 E.11668
G1 X100.414 Y106.071 E.01998
G1 X100.414 Y127.116 E1.08626
G1 X98.816 Y128.714 E.11668
G1 X93.986 Y128.714 E.24932
M73 P1 R21
G1 X93.986 Y128.376 E.01749
G1 X95.27 Y127.036 E.09576
G1 X95.631 Y127.637 E.03621
G1 X96.11 Y127.846 E.02693
G1 X98.005 Y127.836 E.09783
G1 X98.354 Y127.654 E.02031
G1 X98.477 Y127.357 E.01658
G1 X98.11 Y127.192 F9000
;TYPE:Outer wall
G1 F900
G1 X98.11 Y105.608 E1.1141
G1 X98.071 Y105.483 E.00677
G1 X97.892 Y105.39 E.01037
G1 X96.072 Y105.393 E.09395
G1 X95.92 Y105.5 E.00958
G1 X95.415 Y106.39 E.05283
G1 X95.267 Y106.39 E.00763
G1 X93.55 Y104.599 E.12803
G1 X93.55 Y103.65 E.04901
G1 X98.996 Y103.65 E.28112
G1 X100.85 Y105.504 E.1353
G1 X100.85 Y106.071 E.02929
G1 X100.85 Y127.296 E1.09557
G1 X98.996 Y129.15 E.1353
G1 X93.55 Y129.15 E.28112
G1 X93.55 Y128.2 E.04901
G1 X95.267 Y126.41 E.12803
G1 X95.415 Y126.41 E.00763
G1 X95.92 Y127.3 E.05283
G1 X96.11 Y127.41 E.01131
G1 X97.892 Y127.41 E.092
G1 X98.019 Y127.369 E.00687
G1 X98.092 Y127.228 E.00822
G1 E-3.5 F1800
;WIPE_START
G1 F900
G1 X98.092 Y126.728 E-1.5
;WIPE_END
G17
G3 Z.7 I1.211 J-.118 P1  F9000
G1 X95.92 Y104.528 Z.7
G1 Z.3
G1 E5 F1800
;TYPE:Inner wall
;WIDTH:0.514007
G1 F900
G1 X96.11 Y104.52 E.0101
;WIDTH:0.497523
G1 X97.892 Y104.52 E.09148
G1 E-3.5 F1800
;WIPE_START
G1 F900
G1 X97.392 Y104.52 E-1.5
;WIPE_END
G17
G3 Z.7 I-1.215 J-.066 P1  F9000
G1 X96.11 Y128.28 Z.7
G1 Z.3
G1 E5 F1800
G1 F900
G1 X97.892 Y128.28 E.09148
;WIDTH:0.514007
G1 X98.082 Y128.272 E.0101
G1 E-3.5 F1800
;WIPE_START
G1 F900
G1 X97.892 Y128.28 E-.56867
G1 X97.582 Y128.28 E-.93133
;WIPE_END
G17
G3 Z.7 I.704 J.993 P1  F9000
G1 X99.567 Y126.873 Z.7
G1 Z.3
G1 E5 F1800
;TYPE:Bottom surface
;WIDTH:0.5
G1 F1200
G1 X99.317 Y126.623 E.01828
G1 X99.643 Y126.333 F9000
G1 F1200
G1 X99.567 Y126.257 E.00556
G1 X99.643 Y126.181 E.00556
G1 X99.643 Y125.717 F9000
G1 F1200
G1 X99.317 Y125.39 E.02385
G1 X99.643 Y125.101 F9000
G1 F1200
G1 X99.317 Y124.774 E.02385
G1 X99.317 Y124.659 F9000
G1 F1200
G1 X99.567 Y124.409 E.01828
G1 X99.317 Y124.158 E.01828
G1 X99.643 Y123.869 F9000
G1 F1200
G1 X99.567 Y123.793 E.00556
G1 X99.643 Y123.716 E.00556
G1 X99.643 Y123.253 F9000
G1 F1200
G1 X99.317 Y122.926 E.02385
G1 X99.643 Y122.637 F9000
G1 F1200
G1 X99.567 Y122.561 E.00556
G1 X99.643 Y122.484 E.00556
G1 X99.317 Y122.195 F9000
G1 F1200
G1 X99.567 Y121.945 E.01828
G1 X99.317 Y121.694 E.01828
G1 X99.317 Y121.579 F9000
G1 F1200
G1 X99.567 Y121.328 E.01828
G1 X99.643 Y121.405 E.00556
G1 X99.317 Y120.963 F9000
G1 F1200
G1 X99.567 Y120.712 E.01828
G1 X99.643 Y120.789 E.00556
G1 X99.643 Y120.173 F9000
G1 F1200
G1 X99.567 Y120.096 E.00556
G1 X99.643 Y120.02 E.00556
G1 X99.317 Y119.731 F9000
G1 F1200
G1 X99.567 Y119.48 E.01828
G1 X99.317 Y119.23 E.01828
G1 X99.317 Y119.115 F9000
G1 F1200
G1 X99.567 Y118.864 E.01828
G1 X99.643 Y118.94 E.00556
G1 X99.317 Y118.499 F9000
G1 F1200
G1 X99.567 Y118.248 E.01828
G1 X99.643 Y118.324 E.00556
G1 X99.317 Y117.883 F9000
G1 F1200
G1 X99.567 Y117.632 E.01828
G1 X99.643 Y117.708 E.00556
G1 X99.317 Y117.267 F9000
G1 F1200
G1 X99.567 Y117.016 E.01828
G1 X99.317 Y116.766 E.01828
G1 X99.643 Y116.476 F9000
G1 F1200
G1 X99.567 Y116.4 E.00556
G1 X99.643 Y116.324 E.00556
G1 X99.643 Y115.86 F9000
G1 F1200
G1 X99.317 Y115.533 E.02385
G1 X99.643 Y115.244 F9000
G1 F1200
G1 X99.567 Y115.168 E.00556
G1 X99.643 Y115.092 E.00556
G1 X99.317 Y114.802 F9000
G1 F1200
G1 X99.567 Y114.552 E.01828
G1 X99.317 Y114.301 E.01828
G1 X99.317 Y114.186 F9000
G1 F1200
G1 X99.567 Y113.936 E.01828
G1 X99.643 Y114.012 E.00556
G1 X99.317 Y113.57 F9000
G1 F1200
G1 X99.567 Y113.32 E.01828
G1 X99.643 Y113.396 E.00556
G1 X99.317 Y112.954 F9000
G1 F1200
G1 X99.567 Y112.704 E.01828
G1 X99.643 Y112.78 E.00556
G1 X99.317 Y112.338 F9000
G1 F1200
G1 X99.643 Y112.011 E.02385
G1 X99.643 Y111.548 F9000
G1 F1200
G1 X99.567 Y111.472 E.00556
G1 X99.643 Y111.395 E.00556
G1 X99.317 Y111.106 F9000
G1 F1200
G1 X99.567 Y110.855 E.01828
G1 X99.317 Y110.605 E.01828
G1 X99.643 Y110.316 F9000
G1 F1200
G1 X99.317 Y109.989 E.02385
G1 X99.317 Y109.874 F9000
G1 F1200
G1 X99.567 Y109.623 E.01828
G1 X99.317 Y109.373 E.01828
G1 X99.643 Y109.083 F9000
G1 F1200
G1 X99.567 Y109.007 E.00556
G1 X99.643 Y108.931 E.00556
G1 X99.643 Y108.467 F9000
G1 F1200
G1 X99.317 Y108.141 E.02385
G1 X99.643 Y107.851 F9000
G1 F1200
G1 X99.567 Y107.775 E.00556
G1 X99.643 Y107.699 E.00556
G1 X99.317 Y107.41 F9000
G1 F1200
G1 X99.567 Y107.159 E.01828
G1 X99.317 Y106.909 E.01828
G1 X99.317 Y106.794 F9000
G1 F1200
G1 X99.567 Y106.543 E.01828
G1 X99.643 Y106.619 E.00556
G1 X99.317 Y106.177 F9000
G1 F1200
G1 X99.567 Y105.927 E.01828
; stop printing object Ender 3 Cable Chain Clip - (Unsaved) (1).stl id:2 copy 0
; printing object Ender 3 Cable Chain Clip - (Unsaved) (1).stl id:1 copy 0
G1 E-3.5 F1800
;WIPE_START
G1 F1200
G1 X99.317 Y106.177 E-1.5
;WIPE_END
EXCLUDE_OBJECT_END NAME=Ender_3_Cable_Chain_Clip_-_Unsaved_1_.stl_id_2_copy_0
EXCLUDE_OBJECT_START NAME=Ender_3_Cable_Chain_Clip_-_Unsaved_1_.stl_id_1_copy_0
G17
G3 Z.7 I.157 J1.207 P1  F9000
G1 X107.983 Y105.053 Z.7
G1 Z.3
G1 E5 F1800
;TYPE:Inner wall
;WIDTH:0.487171
G1 F900
G1 X107.467 Y104.515 E.03736
G1 X107.962 Y104.515 E.02482
;WIDTH:0.514007
G1 X108.72 Y104.528 E.04038
G1 X108.117 Y104.87 E.03694
;WIDTH:0.487171
G1 X108.007 Y105.021 E.00936
G1 E-3.5 F1800
;WIPE_START
G1 F900
G1 X107.642 Y104.679 E-1.5
;WIPE_END
G17
G3 Z.7 I-1.199 J.211 P1  F9000
M73 P2 R21
G1 X111.645 Y127.469 Z.7
G1 Z.3
G1 E5 F1800
;WIDTH:0.461549
G1 F900
G1 X111.661 Y127.435 E.00178
;WIDTH:0.5
G1 X111.781 Y127.192 E.01399
G1 X111.781 Y105.608 E1.1141
G1 X111.701 Y105.409 E.01104
;WIDTH:0.464558
G1 X111.621 Y105.211 E.01015
;WIDTH:0.429116
G1 X111.54 Y105.013 E.00925
;WIDTH:0.393675
G1 X111.294 Y104.765 E.01361
;WIDTH:0.427695
G1 X111.094 Y104.684 E.00933
;WIDTH:0.462609
G1 X110.893 Y104.602 E.01023
;WIDTH:0.497523
G1 X110.692 Y104.52 E.01112
G1 X110.947 Y104.503 E.01313
;WIDTH:0.462609
G1 X111.203 Y104.485 E.01207
;WIDTH:0.427695
G1 X111.458 Y104.468 E.01101
;WIDTH:0.393675
G1 X111.791 Y104.802 E.01843
;WIDTH:0.429116
G1 X111.963 Y104.998 E.01126
;WIDTH:0.464558
G1 X112.134 Y105.194 E.01235
;WIDTH:0.5
G1 X112.305 Y105.391 E.01345
G1 X112.779 Y105.864 E.03457
G1 X112.779 Y106.071 E.01066
G1 X112.779 Y126.936 E1.07695
G1 X112.023 Y127.717 E.05612
;WIDTH:0.46426
G1 X111.74 Y128.025 E.01979
;WIDTH:0.428521
G1 X111.458 Y128.332 E.01802
;WIDTH:0.392782
G1 X111.39 Y128.332 E.00265
;WIDTH:0.43319
G1 X111.22 Y128.312 E.00746
;WIDTH:0.473598
G1 X111.051 Y128.292 E.00827
;WIDTH:0.514007
G1 X110.882 Y128.272 E.00909
G1 X111.019 Y128.193 E.00845
;WIDTH:0.473598
G1 X111.157 Y128.114 E.00769
;WIDTH:0.43319
G1 X111.294 Y128.035 E.00693
;WIDTH:0.392782
G1 X111.421 Y127.921 E.00662
;WIDTH:0.423099
G1 X111.541 Y127.678 E.01152
;WIDTH:0.461549
G1 X111.627 Y127.505 E.00909
G1 E-3.5 F1800
;WIPE_START
G1 F900
G1 X111.661 Y127.435 E-.23367
G1 X111.781 Y127.192 E-.8132
G1 X111.781 Y127.041 E-.45313
;WIPE_END
G17
G3 Z.7 I-.482 J-1.117 P1  F9000
G1 X108.91 Y128.28 Z.7
G1 Z.3
G1 E5 F1800
;WIDTH:0.497523
G1 F900
G1 X107.467 Y128.285 E.07405
;WIDTH:0.487171
G1 X107.983 Y127.747 E.03736
G1 X108.117 Y127.93 E.01136
;WIDTH:0.497523
G1 X108.873 Y128.264 E.04242
G1 E-3.5 F1800
;WIPE_START
G1 F900
G1 X108.373 Y128.271 E-1.5
;WIPE_END
G17
G3 Z.7 I.377 J1.157 P1  F9000
G1 X111.292 Y127.32 Z.7
G1 Z.3
G1 E5 F1800
;WIDTH:0.5
G1 F900
G1 X111.346 Y127.192 E.00717
G1 X111.346 Y105.608 E1.1141
G1 X111.227 Y105.233 E.02031
G1 X111.072 Y105.076 E.01136
G1 X110.692 Y104.954 E.0206
G1 X108.91 Y104.954 E.092
G1 X108.797 Y104.964 E.00585
G1 X108.431 Y105.163 E.02146
G1 X108.342 Y105.285 E.00783
G1 X108.07 Y105.764 E.02842
G1 X106.786 Y104.424 E.09576
G1 X106.786 Y104.086 E.01749
G1 X111.616 Y104.086 E.24932
G1 X113.214 Y105.684 E.11668
G1 X113.214 Y106.071 E.01998
G1 X113.214 Y127.116 E1.08626
G1 X111.616 Y128.714 E.11668
G1 X106.786 Y128.714 E.24932
G1 X106.786 Y128.376 E.01749
G1 X108.07 Y127.036 E.09576
G1 X108.431 Y127.637 E.03621
G1 X108.91 Y127.846 E.02693
G1 X110.805 Y127.836 E.09783
G1 X111.154 Y127.654 E.02031
G1 X111.277 Y127.357 E.01658
G1 X110.91 Y127.192 F9000
;TYPE:Outer wall
G1 F900
G1 X110.91 Y105.608 E1.1141
G1 X110.87 Y105.483 E.00677
G1 X110.692 Y105.39 E.01037
G1 X108.872 Y105.393 E.09395
G1 X108.72 Y105.5 E.00958
G1 X108.215 Y106.39 E.05283
G1 X108.067 Y106.39 E.00763
G1 X106.35 Y104.599 E.12803
M73 P3 R21
G1 X106.35 Y103.65 E.04901
G1 X111.796 Y103.65 E.28112
G1 X113.65 Y105.504 E.1353
G1 X113.65 Y106.071 E.02929
G1 X113.65 Y127.296 E1.09557
G1 X111.796 Y129.15 E.1353
G1 X106.35 Y129.15 E.28112
G1 X106.35 Y128.2 E.04901
G1 X108.067 Y126.41 E.12803
G1 X108.215 Y126.41 E.00763
G1 X108.72 Y127.3 E.05283
G1 X108.91 Y127.41 E.01131
G1 X110.692 Y127.41 E.092
G1 X110.819 Y127.369 E.00687
G1 X110.892 Y127.228 E.00822
G1 E-3.5 F1800
;WIPE_START
G1 F900
G1 X110.892 Y126.728 E-1.5
;WIPE_END
G17
G3 Z.7 I1.211 J-.118 P1  F9000
G1 X108.72 Y104.528 Z.7
G1 Z.3
G1 E5 F1800
;TYPE:Inner wall
;WIDTH:0.514007
G1 F900
G1 X108.91 Y104.52 E.0101
;WIDTH:0.497523
G1 X110.692 Y104.52 E.09148
G1 E-3.5 F1800
;WIPE_START
G1 F900
G1 X110.192 Y104.52 E-1.5
;WIPE_END
G17
G3 Z.7 I-1.215 J-.066 P1  F9000
G1 X108.91 Y128.28 Z.7
G1 Z.3
G1 E5 F1800
G1 F900
G1 X110.692 Y128.28 E.09148
;WIDTH:0.514007
G1 X110.882 Y128.272 E.0101
G1 E-3.5 F1800
;WIPE_START
G1 F900
G1 X110.692 Y128.28 E-.56867
G1 X110.382 Y128.28 E-.93133
;WIPE_END
G17
G3 Z.7 I.704 J.993 P1  F9000
G1 X112.367 Y126.873 Z.7
G1 Z.3
G1 E5 F1800
;TYPE:Bottom surface
;WIDTH:0.5
G1 F1200
G1 X112.117 Y126.623 E.01828
G1 X112.443 Y126.333 F9000
G1 F1200
G1 X112.367 Y126.257 E.00556
G1 X112.443 Y126.181 E.00556
G1 X112.443 Y125.717 F9000
G1 F1200
G1 X112.117 Y125.39 E.02385
G1 X112.443 Y125.101 F9000
G1 F1200
G1 X112.117 Y124.774 E.02385
G1 X112.117 Y124.659 F9000
G1 F1200
G1 X112.367 Y124.409 E.01828
G1 X112.117 Y124.158 E.01828
G1 X112.443 Y123.869 F9000
G1 F1200
G1 X112.367 Y123.793 E.00556
G1 X112.443 Y123.716 E.00556
G1 X112.443 Y123.253 F9000
G1 F1200
G1 X112.117 Y122.926 E.02385
G1 X112.443 Y122.637 F9000
G1 F1200
G1 X112.367 Y122.561 E.00556
G1 X112.443 Y122.484 E.00556
G1 X112.117 Y122.195 F9000
G1 F1200
G1 X112.367 Y121.945 E.01828
G1 X112.117 Y121.694 E.01828
G1 X112.117 Y121.579 F9000
G1 F1200
G1 X112.367 Y121.328 E.01828
G1 X112.443 Y121.405 E.00556
G1 X112.117 Y120.963 F9000
G1 F1200
G1 X112.367 Y120.712 E.01828
G1 X112.443 Y120.789 E.00556
G1 X112.443 Y120.173 F9000
G1 F1200
G1 X112.367 Y120.096 E.00556
G1 X112.443 Y120.02 E.00556
G1 X112.117 Y119.731 F9000
G1 F1200
G1 X112.367 Y119.48 E.01828
G1 X112.117 Y119.23 E.01828
G1 X112.117 Y119.115 F9000
G1 F1200
G1 X112.367 Y118.864 E.01828
G1 X112.443 Y118.94 E.00556
G1 X112.117 Y118.499 F9000
G1 F1200
G1 X112.367 Y118.248 E.01828
G1 X112.443 Y118.324 E.00556
G1 X112.117 Y117.883 F9000
G1 F1200
G1 X112.367 Y117.632 E.01828
G1 X112.443 Y117.708 E.00556
G1 X112.117 Y117.267 F9000
G1 F1200
G1 X112.367 Y117.016 E.01828
G1 X112.117 Y116.766 E.01828
G1 X112.443 Y116.476 F9000
G1 F1200
G1 X112.367 Y116.4 E.00556
G1 X112.443 Y116.324 E.00556
