; HEADER_BLOCK_START
; generated by OrcaSlicer 1.7.0 on 2023-11-12 at 11:26:06
; total layer number: 253
; HEADER_BLOCK_END

; THUMBNAIL_BLOCK_START
; THUMBNAIL_BLOCK_END

; external perimeters extrusion width = 0.40mm
; perimeters extrusion width = 0.45mm
; infill extrusion width = 0.45mm
; solid infill extrusion width = 0.40mm
; top infill extrusion width = 0.40mm
; first layer extrusion width = 0.50mm

; EXECUTABLE_BLOCK_START
EXCLUDE_OBJECT_DEFINE NAME=Ender_3_C270_Camera_Mount_-_Part_1.stl_id_0_copy_0 CENTER=110,110 POLYGON=[[76.625,92.7513],[78.375,89.0913],[82.375,89.0913],[143.375,124.909],[143.375,130.909],[78.375,130.909],[76.625,127.251],[76.625,92.7513]]
M73 P0 R68
;TYPE:Custom
START_PRINT EXTRUDER_TEMP=250  BED_TEMP=80
G90
G21
M83 ; use relative distances for extrusion
; filament start gcode
M106 S0
;LAYER_CHANGE
;Z:0.2
;HEIGHT:0.2
;BEFORE_LAYER_CHANGE
;0.2
G92 E0

G1 E-4 F1800
;_SET_FAN_SPEED_CHANGING_LAYER
G1 Z.4 F12000
G1 X69.07 Y80.385
G1 Z.4
G1 Z.2
G1 E4 F1800
;TYPE:Skirt
;WIDTH:0.5
G1 F900
G1 X71.521 Y78.349 E.12111
G1 X74.401 Y76.984 E.12111
G1 X78.375 Y76.349 E.15295
G1 X82.375 Y76.349 E.15203
G1 X85.537 Y76.747 E.12111
G1 X88.827 Y78.103 E.13527
G1 X149.823 Y113.921 E2.68835
G1 X152.347 Y115.865 E.12111
G1 X154.31 Y118.375 E.12111
G1 X155.589 Y121.294 E.12111
M73 P0 R67
G1 X156.113 Y124.909 E.13883
G1 X156.113 Y130.909 E.22804
G1 X155.715 Y134.07 E.12111
G1 X154.544 Y137.034 E.12111
G1 X152.675 Y139.615 E.12111
G1 X150.224 Y141.651 E.12111
G1 X147.344 Y143.016 E.12111
G1 X143.37 Y143.651 E.15295
G1 X78.375 Y143.651 E2.47024
G1 X75.213 Y143.253 E.12111
G1 X72.25 Y142.082 E.12111
G1 X69.669 Y140.213 E.12111
G1 X67.633 Y137.762 E.12111
G1 X66.268 Y134.883 E.12111
G1 X65.633 Y130.909 E.15295
G1 X65.633 Y89.091 E1.58932
G1 X66.031 Y85.93 E.12111
G1 X67.201 Y82.966 E.12111
G1 X69.047 Y80.418 E.11959
G1 X69.428 Y80.7 F12000
G1 F900
G1 X69.522 Y80.574 E.00598
G1 X71.96 Y78.614 E.11891
G1 X74.815 Y77.333 E.11891
G1 X78.375 Y76.806 E.13679
G1 X82.375 Y76.806 E.15203
G1 X85.478 Y77.204 E.11891
G1 X88.596 Y78.497 E.12828
G1 X149.591 Y114.315 E2.68835
G1 X152.066 Y116.23 E.11891
G1 X153.976 Y118.707 E.11891
G1 X155.198 Y121.587 E.11891
G1 X155.656 Y124.909 E.12743
G1 X155.656 Y130.909 E.22804
G1 X155.258 Y134.012 E.11891
G1 X154.088 Y136.914 E.11891
G1 X152.224 Y139.426 E.11891
G1 X149.785 Y141.386 E.11891
G1 X146.931 Y142.667 E.11891
G1 X143.37 Y143.194 E.13679
G1 X78.375 Y143.194 E2.47024
G1 X75.272 Y142.796 E.11891
G1 X72.37 Y141.626 E.11891
G1 X69.857 Y139.762 E.11891
G1 X67.897 Y137.324 E.11891
G1 X66.617 Y134.469 E.11891
G1 X66.09 Y130.909 E.13679
G1 X66.09 Y89.091 E1.58932
G1 X66.488 Y85.988 E.11891
G1 X67.657 Y83.086 E.11891
G1 X69.404 Y80.732 E.1114
G1 X69.78 Y81.019 F12000
G1 F900
G1 X69.972 Y80.766 E.01205
G1 X72.397 Y78.885 E.11667
G1 X75.225 Y77.69 E.11667
G1 X78.375 Y77.263 E.12081
G1 X82.375 Y77.263 E.15203
G1 X85.419 Y77.661 E.11667
G1 X88.364 Y78.892 E.12133
G1 X149.36 Y114.709 E2.68835
M73 P1 R67
G1 X151.783 Y116.594 E.11667
G1 X153.639 Y119.038 E.11667
G1 X154.804 Y121.878 E.11667
G1 X155.199 Y124.909 E.11615
G1 X155.199 Y130.909 E.22804
G1 X154.801 Y133.952 E.11667
G1 X153.632 Y136.791 E.11667
G1 X151.773 Y139.234 E.11667
G1 X149.348 Y141.115 E.11667
G1 X146.52 Y142.31 E.11667
G1 X143.37 Y142.737 E.12081
G1 X78.375 Y142.737 E2.47024
G1 X75.331 Y142.339 E.11667
G1 X72.493 Y141.171 E.11667
G1 X70.05 Y139.311 E.11667
G1 X68.168 Y136.886 E.11667
G1 X66.974 Y134.058 E.11667
G1 X66.547 Y130.909 E.12081
G1 X66.547 Y89.091 E1.58932
G1 X66.945 Y86.048 E.11667
G1 X68.113 Y83.209 E.11667
G1 X69.756 Y81.051 E.10309
G1 X70.127 Y81.341 F12000
G1 F900
G1 X70.423 Y80.963 E.01821
G1 X72.833 Y79.162 E.11438
G1 X75.632 Y78.056 E.11438
G1 X78.375 Y77.72 E.10503
G1 X82.375 Y77.72 E.15203
G1 X85.358 Y78.118 E.11438
G1 X88.133 Y79.286 E.11442
G1 X149.128 Y115.103 E2.68835
G1 X151.499 Y116.957 E.11438
G1 X153.3 Y119.368 E.11438
G1 X154.406 Y122.167 E.11438
G1 X154.742 Y124.909 E.10499
G1 X154.742 Y130.909 E.22804
G1 X154.343 Y133.892 E.11438
G1 X153.177 Y136.666 E.11438
G1 X151.323 Y139.037 E.11438
G1 X148.912 Y140.838 E.11438
G1 X146.113 Y141.944 E.11438
G1 X143.37 Y142.28 E.10503
G1 X78.375 Y142.28 E2.47024
G1 X75.392 Y141.882 E.11438
G1 X72.618 Y140.715 E.11438
G1 X70.247 Y138.861 E.11438
G1 X68.446 Y136.45 E.11438
G1 X67.34 Y133.652 E.11438
M73 P1 R66
G1 X67.004 Y130.909 E.10503
G1 X67.004 Y89.091 E1.58932
G1 X67.402 Y86.108 E.11438
G1 X68.569 Y83.334 E.11438
G1 X70.103 Y81.372 E.09465
G1 X70.469 Y81.667 F12000
G1 F900
G1 X70.872 Y81.165 E.02447
G1 X73.267 Y79.446 E.11205
G1 X76.035 Y78.431 E.11205
G1 X78.375 Y78.177 E.08945
G1 X82.375 Y78.177 E.15203
G1 X85.296 Y78.575 E.11205
G1 X87.902 Y79.68 E.10755
G1 X148.897 Y115.497 E2.68835
G1 X151.214 Y117.32 E.11205
G1 X152.959 Y119.696 E.11205
G1 X154.005 Y122.452 E.11205
G1 X154.285 Y124.909 E.09396
G1 X154.285 Y130.909 E.22804
G1 X153.886 Y133.83 E.11205
G1 X152.721 Y136.538 E.11205
G1 X150.873 Y138.835 E.11205
G1 X148.478 Y140.554 E.11205
G1 X145.71 Y141.569 E.11205
G1 X143.37 Y141.823 E.08945
G1 X78.375 Y141.823 E2.47024
M73 P2 R66
G1 X75.454 Y141.425 E.11205
G1 X72.746 Y140.259 E.11205
G1 X70.449 Y138.411 E.11205
G1 X68.73 Y136.016 E.11205
G1 X67.715 Y133.249 E.11205
G1 X67.461 Y130.909 E.08945
G1 X67.461 Y89.091 E1.58932
G1 X67.859 Y86.17 E.11205
G1 X69.024 Y83.462 E.11205
G1 X70.444 Y81.698 E.08606
G1 X70.804 Y81.996 F12000
G1 F900
G1 X71.321 Y81.372 E.03083
G1 X73.699 Y79.738 E.10966
G1 X76.434 Y78.816 E.10966
G1 X78.375 Y78.634 E.07411
G1 X82.375 Y78.634 E.15203
G1 X85.233 Y79.032 E.10966
G1 X87.67 Y80.074 E.10074
G1 X148.666 Y115.891 E2.68835
G1 X150.928 Y117.682 E.10966
G1 X152.616 Y120.022 E.10966
G1 X153.599 Y122.735 E.10966
G1 X153.828 Y124.909 E.08307
G1 X153.828 Y130.909 E.22804
G1 X153.429 Y133.766 E.10966
G1 X152.266 Y136.407 E.10966
G1 X150.424 Y138.628 E.10966
G1 X148.046 Y140.262 E.10966
G1 X145.312 Y141.184 E.10966
G1 X143.37 Y141.366 E.07411
G1 X78.375 Y141.366 E2.47024
G1 X75.517 Y140.968 E.10966
G1 X72.877 Y139.804 E.10966
G1 X70.655 Y137.962 E.10966
G1 X69.021 Y135.584 E.10966
G1 X68.1 Y132.85 E.10966
G1 X67.918 Y130.909 E.07411
G1 X67.918 Y89.091 E1.58932
G1 X68.316 Y86.234 E.10966
G1 X69.48 Y83.593 E.10966
G1 X70.778 Y82.027 E.07731
; printing object Ender 3 C270 Camera Mount - Part 1.stl id:0 copy 0
G1 E-2.8 F1800
;WIPE_START
G1 F900
G1 X71.321 Y81.372 E-1.02145
G1 X71.444 Y81.287 E-.17855
;WIPE_END
EXCLUDE_OBJECT_START NAME=Ender_3_C270_Camera_Mount_-_Part_1.stl_id_0_copy_0
G1 Z.6 F12000
G1 X81.961 Y90.256 Z.6
G1 Z.2
G1 E4 F1800
;TYPE:Inner wall
;WIDTH:0.499999
G1 F900
G1 X125.646 Y125.816 E2.14085
G1 X125.854 Y125.951 E.00944
G1 X126.1 Y126.041 E.00995
G1 X126.367 Y126.073 E.01022
G1 X142.206 Y126.073 E.60198
G1 X142.206 Y127.909 E.06977
G1 X142.206 Y129.744 E.06977
G1 X105.447 Y129.744 E1.39709
G1 X105.447 Y127.907 E.06983
G1 X105.386 Y127.366 E.02072
G1 X105.306 Y127.071 E.01161
G1 X105.059 Y126.526 E.02272
G1 X104.702 Y126.061 E.02229
G1 X104.239 Y125.684 E.02267
G1 X103.981 Y125.535 E.01134
G1 X103.422 Y125.323 E.02272
G1 X102.83 Y125.245 E.02271
G1 X102.24 Y125.306 E.02253
G1 X101.952 Y125.383 E.01134
G1 X101.445 Y125.605 E.02102
G1 X101.011 Y125.926 E.02051
G1 X100.8 Y126.137 E.01134
G1 X100.484 Y126.562 E.02013
G1 X100.257 Y127.078 E.02141
G1 X100.18 Y127.366 E.01134
G1 X100.119 Y127.907 E.02072
G1 X100.119 Y129.744 E.06983
G1 X79.539 Y129.744 E.78215
G1 X79.539 Y90.256 E1.50083
G1 X81.921 Y90.256 E.09053
G1 X82.124 Y89.798 F12000
G1 F900
G1 X125.935 Y125.462 E2.14703
M73 P3 R66
G1 X126.06 Y125.543 E.00566
G1 X126.367 Y125.616 E.01202
G1 X142.663 Y125.616 E.61935
G1 X142.663 Y127.909 E.08715
G1 X142.663 Y130.202 E.08715
G1 X104.99 Y130.202 E1.43183
G1 X104.984 Y127.818 E.0906
G1 X104.884 Y127.248 E.02197
G1 X104.639 Y126.723 E.02206
G1 X104.276 Y126.289 E.02148
G1 X103.806 Y125.957 E.02186
G1 X103.266 Y125.759 E.02186
G1 X102.693 Y125.707 E.02186
G1 X102.127 Y125.805 E.02186
G1 X101.605 Y126.047 E.02186
G1 X101.192 Y126.38 E.02017
G1 X100.876 Y126.796 E.01984
G1 X100.653 Y127.33 E.02199
G1 X100.576 Y127.907 E.02213
G1 X100.576 Y130.202 E.0872
G1 X79.082 Y130.202 E.81689
M73 P3 R65
G1 X79.082 Y89.798 E1.53557
G1 X82.084 Y89.798 E.11408
G1 X82.286 Y89.341 F12000
;TYPE:Outer wall
G1 F900
G1 X126.223 Y125.107 E2.1532
G1 X126.367 Y125.159 E.00582
G1 X143.121 Y125.159 E.63672
G1 X143.121 Y127.909 E.10452
G1 X143.121 Y130.659 E.10452
G1 X104.533 Y130.659 E1.46657
G1 X104.533 Y127.907 E.10457
G1 X104.479 Y127.485 E.01618
G1 X104.305 Y127.051 E.01776
G1 X104.04 Y126.694 E.01692
G1 X103.683 Y126.41 E.01735
G1 X103.264 Y126.228 E.01735
G1 X102.813 Y126.16 E.01735
G1 X102.359 Y126.212 E.01735
G1 X101.935 Y126.38 E.01735
G1 X101.568 Y126.651 E.01735
G1 X101.284 Y127.009 E.01735
G1 X101.102 Y127.427 E.01735
G1 X101.033 Y127.907 E.01843
G1 X101.033 Y130.659 E.10457
G1 X78.625 Y130.659 E.85164
G1 X78.625 Y89.341 E1.57032
G1 X82.246 Y89.341 E.13762
G1 E-2.8 F1800
;WIPE_START
G1 F900
G1 X83.022 Y89.972 E-1.2
;WIPE_END
G1 Z.6 F12000
G1 X82.763 Y90.291 Z.6
G1 X126.131 Y125.594
G1 X141.955 Y126.764
G1 Z.2
G1 E4 F1800
;TYPE:Bottom surface
;WIDTH:0.5
G1 F1200
G1 X141.515 Y126.324 E.02366
G1 X140.868 Y126.324
G1 X141.955 Y127.411 E.05841
G1 X141.955 Y128.057
G1 X140.222 Y126.324 E.09315
G1 X139.575 Y126.324
G1 X141.955 Y128.704 E.12789
G1 X141.955 Y129.35
G1 X138.929 Y126.324 E.16264
G1 X138.283 Y126.324
G1 X141.452 Y129.493 E.17033
G1 X140.805 Y129.493
G1 X137.636 Y126.324 E.17033
G1 X136.99 Y126.324
G1 X140.159 Y129.493 E.17033
G1 X139.512 Y129.493
G1 X136.343 Y126.324 E.17033
G1 X135.697 Y126.324
G1 X138.866 Y129.493 E.17033
G1 X138.22 Y129.493
G1 X135.051 Y126.324 E.17033
G1 X134.404 Y126.324
G1 X137.573 Y129.493 E.17033
G1 X136.927 Y129.493
G1 X133.758 Y126.324 E.17033
G1 X133.111 Y126.324
G1 X136.28 Y129.493 E.17033
G1 X135.634 Y129.493
G1 X132.465 Y126.324 E.17033
G1 X131.819 Y126.324
G1 X134.987 Y129.493 E.17033
G1 X134.341 Y129.493
G1 X131.172 Y126.324 E.17033
G1 X130.526 Y126.324
G1 X133.695 Y129.493 E.17033
G1 X133.048 Y129.493
G1 X129.879 Y126.324 E.17033
G1 X129.233 Y126.324
G1 X132.402 Y129.493 E.17033
G1 X131.755 Y129.493
G1 X128.587 Y126.324 E.17033
G1 X127.94 Y126.324
G1 X131.109 Y129.493 E.17033
G1 X130.463 Y129.493
G1 X127.294 Y126.324 E.17033
G1 X126.647 Y126.324
G1 X129.816 Y129.493 E.17033
G1 X129.17 Y129.493
G1 X125.917 Y126.24 E.17484
G1 E-4 F1800
G1 Z.6 F12000
G1 X123.091 Y124.06 Z.6
G1 Z.2
G1 E4 F1800
G1 F1200
G1 X128.523 Y129.493 E.292
G1 X127.877 Y129.493
G1 X119.615 Y121.231 E.44408
G1 E-4 F1800
G1 Z.6 F12000
G1 X116.139 Y118.402 Z.6
G1 Z.2
G1 E4 F1800
G1 F1200
G1 X127.231 Y129.493 E.59616
G1 X126.584 Y129.493
G1 X112.663 Y115.572 E.74824
G1 E-4 F1800
G1 Z.6 F12000
G1 X109.187 Y112.743 Z.6
G1 Z.2
G1 E4 F1800
G1 F1200
G1 X125.938 Y129.493 E.90032
G1 X125.291 Y129.493
G1 X105.711 Y109.913 E1.0524
G1 E-4 F1800
G1 Z.6 F12000
G1 X102.236 Y107.084 Z.6
G1 Z.2
G1 E4 F1800
G1 F1200
G1 X124.645 Y129.493 E1.20448
G1 X123.999 Y129.493
G1 X98.76 Y104.254 E1.35656
M73 P4 R65
G1 E-4 F1800
G1 Z.6 F12000
G1 X95.284 Y101.425 Z.6
G1 Z.2
G1 E4 F1800
G1 F1200
G1 X123.352 Y129.493 E1.50864
G1 X122.706 Y129.493
G1 X91.808 Y98.595 E1.66072
G1 E-4 F1800
G1 Z.6 F12000
G1 X88.332 Y95.766 Z.6
G1 Z.2
G1 E4 F1800
G1 F1200
G1 X122.059 Y129.493 E1.8128
G1 X121.413 Y129.493
G1 X84.856 Y92.936 E1.96489
G1 E-4 F1800
G1 Z.6 F12000
G1 X81.78 Y90.507 Z.6
G1 Z.2
G1 E4 F1800
G1 F1200
G1 X120.767 Y129.493 E2.09547
G1 X120.12 Y129.493
G1 X81.134 Y90.507 E2.09547
G1 X80.488 Y90.507
G1 X119.474 Y129.493 E2.09547
G1 X118.827 Y129.493
G1 X79.841 Y90.507 E2.09547
G1 X79.791 Y91.103
G1 X118.181 Y129.493 E2.06345
M73 P4 R64
G1 X117.534 Y129.493
G1 X79.791 Y91.749 E2.0287
G1 X79.791 Y92.396
G1 X116.888 Y129.493 E1.99396
G1 X116.242 Y129.493
G1 X79.791 Y93.042 E1.95921
G1 X79.791 Y93.688
G1 X115.595 Y129.493 E1.92447
G1 X114.949 Y129.493
G1 X79.791 Y94.335 E1.88973
G1 X79.791 Y94.981
G1 X114.302 Y129.493 E1.85498
M73 P5 R64
G1 X113.656 Y129.493
G1 X79.791 Y95.628 E1.82024
G1 X79.791 Y96.274
G1 X113.01 Y129.493 E1.7855
G1 X112.363 Y129.493
G1 X79.791 Y96.92 E1.75075
G1 X79.791 Y97.567
G1 X111.717 Y129.493 E1.71601
G1 X111.07 Y129.493
G1 X79.791 Y98.213 E1.68126
G1 X79.791 Y98.86
G1 X110.424 Y129.493 E1.64652
G1 X109.778 Y129.493
G1 X79.791 Y99.506 E1.61178
G1 X79.791 Y100.152
G1 X109.131 Y129.493 E1.57703
G1 X108.485 Y129.493
G1 X104.847 Y125.856 E.19551
G1 X105.624 Y127.278 F12000
G1 F1200
G1 X107.838 Y129.493 E.11904
G1 X107.192 Y129.493
G1 X105.698 Y128 E.08028
G1 X105.698 Y128.646
G1 X106.546 Y129.493 E.04554
G1 E-4 F1800
G1 Z.6 F12000
G1 X104.784 Y125.792 Z.6
G1 Z.2
G1 E4 F1800
G1 F1200
G1 X79.791 Y100.799 E1.34338
G1 X79.791 Y101.445
G1 X103.414 Y125.069 E1.26975
G1 X102.699 Y125
G1 X79.791 Y102.092 E1.23132
G1 X79.791 Y102.738
G1 X102.125 Y125.073 E1.20047
G1 X101.648 Y125.242
G1 X79.791 Y103.384 E1.17483
G1 X79.791 Y104.031
G1 X101.22 Y125.46 E1.15179
G1 X100.848 Y125.735
G1 X79.791 Y104.677 E1.13184
G1 X79.791 Y105.324
G1 X100.543 Y126.076 E1.11542
G1 X100.263 Y126.443
G1 X79.791 Y105.97 E1.10039
G1 X79.791 Y106.617
G1 X100.067 Y126.893 E1.08985
G1 X99.93 Y127.402
G1 X79.791 Y107.263 E1.08245
G1 X79.791 Y107.909
G1 X99.877 Y127.996 E1.07964
G1 X99.873 Y128.638
G1 X79.791 Y108.556 E1.07942
M73 P6 R64
G1 X79.791 Y109.202
G1 X99.869 Y129.28 E1.07919
G1 X99.435 Y129.493
G1 X79.791 Y109.849 E1.05588
M73 P6 R63
G1 X79.791 Y110.495
G1 X98.789 Y129.493 E1.02113
G1 X98.142 Y129.493
G1 X79.791 Y111.141 E.98639
G1 X79.791 Y111.788
G1 X97.496 Y129.493 E.95164
G1 X96.849 Y129.493
G1 X79.791 Y112.434 E.9169
G1 X79.791 Y113.081
G1 X96.203 Y129.493 E.88216
G1 X95.557 Y129.493
G1 X79.791 Y113.727 E.84741
G1 X79.791 Y114.373
G1 X94.91 Y129.493 E.81267
G1 X94.264 Y129.493
G1 X79.791 Y115.02 E.77793
G1 X79.791 Y115.666
G1 X93.617 Y129.493 E.74318
G1 X92.971 Y129.493
G1 X79.791 Y116.313 E.70844
G1 X79.791 Y116.959
G1 X92.325 Y129.493 E.67369
G1 X91.678 Y129.493
G1 X79.791 Y117.605 E.63895
G1 X79.791 Y118.252
G1 X91.032 Y129.493 E.60421
G1 X90.385 Y129.493
G1 X79.791 Y118.898 E.56946
G1 X79.791 Y119.545
G1 X89.739 Y129.493 E.53472
G1 X89.093 Y129.493
G1 X79.791 Y120.191 E.49998
G1 X79.791 Y120.837
G1 X88.446 Y129.493 E.46523
G1 X87.8 Y129.493
G1 X79.791 Y121.484 E.43049
G1 X79.791 Y122.13
G1 X87.153 Y129.493 E.39574
G1 X86.507 Y129.493
G1 X79.791 Y122.777 E.361
G1 X79.791 Y123.423
G1 X85.861 Y129.493 E.32626
G1 X85.214 Y129.493
G1 X79.791 Y124.07 E.29151
G1 X79.791 Y124.716
G1 X84.568 Y129.493 E.25677
G1 X83.921 Y129.493
G1 X79.791 Y125.362 E.22202
G1 X79.791 Y126.009
G1 X83.275 Y129.493 E.18728
G1 X82.629 Y129.493
G1 X79.791 Y126.655 E.15254
G1 X79.791 Y127.302
G1 X81.982 Y129.493 E.11779
G1 X81.336 Y129.493
G1 X79.791 Y127.948 E.08305
G1 X79.791 Y128.594
G1 X80.689 Y129.493 E.04831
G1 E-4 F1800
G1 Z.6 F12000
G1 X98.687 Y104.327 Z.6
G1 Z.2
G1 E4 F1800
;TYPE:Gap infill
;WIDTH:0.281563
G1 F900
G1 X98.326 Y104.001 E.00966
;WIDTH:0.235615
G1 X97.964 Y103.675 E.0078
;WIDTH:0.189667
G1 X97.603 Y103.349 E.00594
;WIDTH:0.143718
G1 X97.242 Y103.023 E.00408
G1 E-4 F1800
G1 Z.6 F12000
G1 X102.163 Y107.157 Z.6
G1 Z.2
G1 E4 F1800
;WIDTH:0.281565
G1 F900
G1 X101.801 Y106.831 E.00966
;WIDTH:0.235616
G1 X101.44 Y106.504 E.0078
;WIDTH:0.189667
G1 X101.079 Y106.178 E.00594
;WIDTH:0.143719
G1 X100.718 Y105.852 E.00408
G1 E-4 F1800
G1 Z.6 F12000
G1 X105.639 Y109.986 Z.6
G1 Z.2
G1 E4 F1800
;WIDTH:0.281566
G1 F900
G1 X105.277 Y109.66 E.00966
;WIDTH:0.235617
G1 X104.916 Y109.334 E.0078
;WIDTH:0.189668
G1 X104.555 Y109.008 E.00594
;WIDTH:0.143719
G1 X104.193 Y108.682 E.00408
G1 E-4 F1800
G1 Z.6 F12000
G1 X109.114 Y112.816 Z.6
G1 Z.2
G1 E4 F1800
;WIDTH:0.281565
G1 F900
G1 X108.753 Y112.489 E.00966
;WIDTH:0.235616
G1 X108.392 Y112.163 E.0078
;WIDTH:0.189667
G1 X108.031 Y111.837 E.00594
;WIDTH:0.143719
G1 X107.669 Y111.511 E.00408
G1 E-4 F1800
G1 Z.6 F12000
G1 X112.59 Y115.645 Z.6
G1 Z.2
G1 E4 F1800
;WIDTH:0.281565
G1 F900
G1 X112.229 Y115.319 E.00966
;WIDTH:0.235616
G1 X111.868 Y114.993 E.0078
;WIDTH:0.189667
G1 X111.506 Y114.667 E.00594
;WIDTH:0.143719
G1 X111.145 Y114.341 E.00408
