; HEADER_BLOCK_START
; generated by OrcaSlicer 1.7.0 on 2023-11-20 at 10:16:58
; total layer number: 7
; HEADER_BLOCK_END

; THUMBNAIL_BLOCK_START
; THUMBNAIL_BLOCK_END

; external perimeters extrusion width = 0.40mm
; perimeters extrusion width = 0.45mm
; infill extrusion width = 0.45mm
; solid infill extrusion width = 0.48mm
; top infill extrusion width = 0.48mm
; first layer extrusion width = 0.50mm

; external perimeters extrusion width = 0.40mm
; perimeters extrusion width = 0.45mm
; infill extrusion width = 0.45mm
; solid infill extrusion width = 0.48mm
; top infill extrusion width = 0.48mm
; first layer extrusion width = 0.50mm

; external perimeters extrusion width = 0.40mm
; perimeters extrusion width = 0.45mm
; infill extrusion width = 0.45mm
; solid infill extrusion width = 0.48mm
; top infill extrusion width = 0.48mm
; first layer extrusion width = 0.50mm

; external perimeters extrusion width = 0.40mm
; perimeters extrusion width = 0.45mm
; infill extrusion width = 0.45mm
; solid infill extrusion width = 0.48mm
; top infill extrusion width = 0.48mm
; first layer extrusion width = 0.50mm

; external perimeters extrusion width = 0.40mm
; perimeters extrusion width = 0.45mm
; infill extrusion width = 0.45mm
; solid infill extrusion width = 0.48mm
; top infill extrusion width = 0.48mm
; first layer extrusion width = 0.50mm

; external perimeters extrusion width = 0.40mm
; perimeters extrusion width = 0.45mm
; infill extrusion width = 0.45mm
; solid infill extrusion width = 0.48mm
; top infill extrusion width = 0.48mm
; first layer extrusion width = 0.50mm

; external perimeters extrusion width = 0.40mm
; perimeters extrusion width = 0.45mm
; infill extrusion width = 0.45mm
; solid infill extrusion width = 0.48mm
; top infill extrusion width = 0.48mm
; first layer extrusion width = 0.50mm

; external perimeters extrusion width = 0.40mm
; perimeters extrusion width = 0.45mm
; infill extrusion width = 0.45mm
; solid infill extrusion width = 0.48mm
; top infill extrusion width = 0.48mm
; first layer extrusion width = 0.50mm

; external perimeters extrusion width = 0.40mm
; perimeters extrusion width = 0.45mm
; infill extrusion width = 0.45mm
; solid infill extrusion width = 0.48mm
; top infill extrusion width = 0.48mm
; first layer extrusion width = 0.50mm

; EXECUTABLE_BLOCK_START
EXCLUDE_OBJECT_DEFINE NAME=flowrate_0_id_0_copy_0 CENTER=110,110 POLYGON=[[90,95],[130,95],[130,115],[120,125],[100,125],[90,115],[90,95]]
EXCLUDE_OBJECT_DEFINE NAME=flowrate_10_id_1_copy_0 CENTER=152,142 POLYGON=[[132,127],[172,127],[172,147],[162,157],[142,157],[132,147],[132,127]]
EXCLUDE_OBJECT_DEFINE NAME=flowrate_15_id_2_copy_0 CENTER=110,142 POLYGON=[[90,127],[130,127],[130,147],[120,157],[100,157],[90,147],[90,127]]
EXCLUDE_OBJECT_DEFINE NAME=flowrate_20_id_3_copy_0 CENTER=68,142 POLYGON=[[48,127],[88,127],[88,147],[78,157],[58,157],[48,147],[48,127]]
EXCLUDE_OBJECT_DEFINE NAME=flowrate_5_id_4_copy_0 CENTER=68,110 POLYGON=[[48,95],[88,95],[88,115],[78,125],[58,125],[48,115],[48,95]]
EXCLUDE_OBJECT_DEFINE NAME=flowrate_m10_id_5_copy_0 CENTER=152,78 POLYGON=[[132,63],[172,63],[172,83],[162,93],[142,93],[132,83],[132,63]]
EXCLUDE_OBJECT_DEFINE NAME=flowrate_m15_id_6_copy_0 CENTER=110,78 POLYGON=[[90,63],[130,63],[130,83],[120,93],[100,93],[90,83],[90,63]]
EXCLUDE_OBJECT_DEFINE NAME=flowrate_m20_id_7_copy_0 CENTER=68,78 POLYGON=[[48,63],[88,63],[88,83],[78,93],[58,93],[48,83],[48,63]]
EXCLUDE_OBJECT_DEFINE NAME=flowrate_m5_id_8_copy_0 CENTER=152,110 POLYGON=[[132,95],[172,95],[172,115],[162,125],[142,125],[132,115],[132,95]]
M73 P0 R73
;TYPE:Custom
START_PRINT EXTRUDER_TEMP=255  BED_TEMP=80
G90
G21
M83 ; use relative distances for extrusion
; filament start gcode
M106 S0
;LAYER_CHANGE
;Z:0.2
;HEIGHT:0.2
;BEFORE_LAYER_CHANGE
;0.2
G92 E0

G1 E-5 F3600
;_SET_FAN_SPEED_CHANGING_LAYER
SET_VELOCITY_LIMIT ACCEL=500 ACCEL_TO_DECEL=250
G1 X46.985 Y60.762 F9000
G1 Z.4
G1 Z.2
G1 E5 F2400
;TYPE:Skirt
;WIDTH:0.5
G1 F900
G1 X48 Y60.543 E.03945
G1 X172 Y60.543 E4.71278
G1 X173.331 Y60.935 E.05274
G1 X174.238 Y61.985 E.05274
G1 X174.457 Y63 E.03945
G1 X174.457 Y147 E3.19253
G1 X173.737 Y148.737 E.07147
G1 X163.737 Y158.737 E.53749
G1 X162 Y159.457 E.07147
G1 X58 Y159.457 E3.95266
G1 X56.263 Y158.737 E.07147
G1 X46.263 Y148.737 E.53749
G1 X45.543 Y147 E.07147
G1 X45.543 Y63 E3.19253
G1 X45.935 Y61.669 E.05274
G1 X46.955 Y60.788 E.05122
; printing object flowrate_m20 id:7 copy 0
G1 E-3.5 F3600
;WIPE_START
G1 F900
G1 X47.929 Y60.56 E-1.5
;WIPE_END
EXCLUDE_OBJECT_START NAME=flowrate_m20_id_7_copy_0
G17
G3 Z.6 I-1.087 J.547 P1  F9000
G1 X59.141 Y82.835 Z.6
G1 Z.2
G1 E5 F2400
;TYPE:Inner wall
;WIDTH:0.499999
G1 F900
G1 X59.116 Y82.65 E.00568
G1 X58.969 Y82.339 E.01046
G1 X58.707 Y82.064 E.01153
G1 X58.392 Y81.898 E.01084
G1 X58.021 Y81.836 E.01142
G1 X49.164 Y81.836 E.26931
G1 X49.164 Y64.164 E.53731
G1 X86.836 Y64.164 E1.14541
G1 X86.836 Y73 E.26865
G1 X86.836 Y81.836 E.26865
G1 X78 Y81.836 E.26865
G1 X77.789 Y81.852 E.00642
G1 X77.441 Y81.97 E.0112
G1 X77.113 Y82.233 E.01277
G1 X76.909 Y82.577 E.01218
G1 X76.836 Y82.979 E.0124
G1 X76.836 Y91.836 E.26931
G1 X59.164 Y91.836 E.53731
G1 X59.164 Y83 E.26865
G1 X59.147 Y82.875 E.00384
G1 X58.695 Y82.909 F9000
G1 F900
G1 X58.678 Y82.782 E.0039
G1 X58.541 Y82.531 E.00869
G1 X58.295 Y82.35 E.00928
G1 X58.021 Y82.293 E.0085
G1 X48.707 Y82.293 E.2832
G1 X48.707 Y63.707 E.5651
G1 X87.293 Y63.707 E1.1732
M73 P1 R73
G1 X87.293 Y73 E.28255
G1 X87.293 Y82.293 E.28255
G1 X78 Y82.293 E.28255
G1 X77.81 Y82.314 E.00582
G1 X77.528 Y82.462 E.00968
G1 X77.353 Y82.697 E.0089
G1 X77.293 Y82.979 E.00875
G1 X77.293 Y92.293 E.2832
G1 X58.707 Y92.293 E.5651
G1 X58.707 Y83 E.28255
G1 X58.7 Y82.948 E.00159
G1 X58.25 Y82.979 F9000
;TYPE:Outer wall
G1 F900
G1 X58.184 Y82.818 E.00529
G1 X58.021 Y82.75 E.00535
G1 X48.25 Y82.75 E.2971
G1 X48.25 Y63.25 E.5929
M73 P1 R72
G1 X87.75 Y63.25 E1.201
G1 X87.75 Y73 E.29645
G1 X87.75 Y82.75 E.29645
G1 X77.979 Y82.75 E.2971
G1 X77.816 Y82.818 E.00535
G1 X77.75 Y82.979 E.00529
G1 X77.75 Y92.75 E.2971
G1 X58.25 Y92.75 E.5929
G1 X58.25 Y83.019 E.29589
G1 E-5 F3600
G17
G3 Z.6 I.645 J1.032 P1  F9000
G1 X86.69 Y65.244 Z.6
G1 Z.2
G1 E5 F2400
;TYPE:Bottom surface
;WIDTH:0.504641
G1 F1200
G1 X85.961 Y64.516 E.03163
G1 X85.308 Y64.516 E.02006
G1 X86.484 Y65.692 E.05106
G1 X86.484 Y66.344 E.02006
G1 X84.656 Y64.516 E.07942
G1 X84.003 Y64.516 E.02006
G1 X86.484 Y66.997 E.10778
G1 X86.484 Y67.65 E.02006
G1 X83.35 Y64.516 E.13614
G1 X82.697 Y64.516 E.02006
G1 X86.484 Y68.303 E.16451
G1 X86.484 Y68.956 E.02006
G1 X82.044 Y64.516 E.19287
G1 X81.391 Y64.516 E.02006
G1 X86.484 Y69.609 E.22123
G1 X86.484 Y70.262 E.02006
G1 X80.738 Y64.516 E.24959
G1 X80.085 Y64.516 E.02006
G1 X86.484 Y70.915 E.27795
G1 X86.484 Y71.568 E.02006
G1 X79.432 Y64.516 E.30632
G1 X78.779 Y64.516 E.02006
G1 X86.484 Y72.221 E.33468
G1 X86.484 Y72.874 E.02006
G1 X78.126 Y64.516 E.36304
G1 X77.473 Y64.516 E.02006
G1 X86.484 Y73.527 E.3914
G1 X86.484 Y74.18 E.02006
G1 X76.82 Y64.516 E.41977
G1 X76.167 Y64.516 E.02006
G1 X86.484 Y74.833 E.44813
G1 X86.484 Y75.486 E.02006
G1 X75.514 Y64.516 E.47649
G1 X74.861 Y64.516 E.02006
G1 X86.484 Y76.139 E.50485
G1 X86.484 Y76.792 E.02006
G1 X74.208 Y64.516 E.53322
G1 X73.555 Y64.516 E.02006
G1 X86.484 Y77.445 E.56158
G1 X86.484 Y78.098 E.02006
G1 X72.902 Y64.516 E.58994
G1 X72.249 Y64.516 E.02006
G1 X86.484 Y78.751 E.6183
G1 X86.484 Y79.404 E.02006
G1 X71.596 Y64.516 E.64667
G1 X70.943 Y64.516 E.02006
G1 X86.484 Y80.057 E.67503
G1 X86.484 Y80.71 E.02006
G1 X70.29 Y64.516 E.70339
G1 X69.637 Y64.516 E.02006
G1 X86.484 Y81.363 E.73175
G1 X86.484 Y81.484 E.00372
G1 X85.952 Y81.484 E.01633
G1 X68.984 Y64.516 E.73703
G1 X68.331 Y64.516 E.02006
G1 X85.3 Y81.485 E.73704
G1 X84.647 Y81.485 E.02004
G1 X67.678 Y64.516 E.73706
G1 X67.025 Y64.516 E.02006
G1 X83.994 Y81.485 E.73707
G1 X83.342 Y81.486 E.02004
G1 X66.372 Y64.516 E.73709
G1 X65.719 Y64.516 E.02006
G1 X82.689 Y81.486 E.7371
G1 X82.037 Y81.486 E.02004
G1 X65.066 Y64.516 E.73712
G1 X64.413 Y64.516 E.02006
G1 X81.384 Y81.487 E.73713
G1 X80.731 Y81.487 E.02004
G1 X63.76 Y64.516 E.73715
M73 P2 R72
G1 X63.107 Y64.516 E.02006
G1 X80.079 Y81.487 E.73717
G1 X79.426 Y81.488 E.02004
G1 X62.454 Y64.516 E.73718
G1 X61.801 Y64.516 E.02006
G1 X78.774 Y81.488 E.7372
G1 X78.121 Y81.489 E.02004
G1 X61.149 Y64.516 E.73721
G1 X60.496 Y64.516 E.02006
G1 X77.535 Y81.555 E.74012
G1 X77.382 Y81.608 E.00497
G1 X77.173 Y81.719 E.00726
G1 X77.102 Y81.776 E.00279
G1 X59.843 Y64.516 E.74969
G1 X59.19 Y64.516 E.02006
G1 X76.774 Y82.1 E.76378
G1 X76.615 Y82.366 E.00951
G1 X76.558 Y82.537 E.00554
G1 X58.537 Y64.516 E.78275
G1 X57.884 Y64.516 E.02006
G1 X76.488 Y83.12 E.80808
G1 X76.487 Y83.773 E.02005
G1 X57.231 Y64.516 E.83643
G1 X56.578 Y64.516 E.02006
G1 X76.487 Y84.425 E.86478
G1 X76.487 Y85.078 E.02005
G1 X55.925 Y64.516 E.89313
G1 X55.272 Y64.516 E.02006
G1 X76.486 Y85.731 E.92148
G1 X76.486 Y86.384 E.02005
G1 X54.619 Y64.516 E.94983
G1 X53.966 Y64.516 E.02006
G1 X76.486 Y87.036 E.97818
G1 X76.486 Y87.689 E.02005
G1 X53.313 Y64.516 E1.00653
M73 P2 R71
G1 X52.66 Y64.516 E.02006
G1 X76.485 Y88.342 E1.03488
G1 X76.485 Y88.994 E.02005
G1 X52.007 Y64.516 E1.06323
G1 X51.354 Y64.516 E.02006
G1 X76.485 Y89.647 E1.09158
G1 X76.484 Y90.3 E.02005
G1 X50.701 Y64.516 E1.11993
G1 X50.048 Y64.516 E.02006
G1 X76.484 Y90.952 E1.14828
G1 X76.484 Y91.484 E.01633
G1 X76.363 Y91.484 E.00372
G1 X49.516 Y64.637 E1.16611
G1 X49.516 Y65.29 E.02006
G1 X75.71 Y91.484 E1.13775
G1 X75.057 Y91.484 E.02006
G1 X49.516 Y65.943 E1.10939
G1 X49.516 Y66.596 E.02006
G1 X74.404 Y91.484 E1.08102
G1 X73.751 Y91.484 E.02006
G1 X49.516 Y67.249 E1.05266
G1 X49.516 Y67.902 E.02006
G1 X73.098 Y91.484 E1.0243
G1 X72.445 Y91.484 E.02006
G1 X49.516 Y68.555 E.99594
M73 P3 R71
G1 X49.516 Y69.208 E.02006
G1 X71.792 Y91.484 E.96757
G1 X71.139 Y91.484 E.02006
G1 X49.516 Y69.861 E.93921
G1 X49.516 Y70.514 E.02006
G1 X70.486 Y91.484 E.91085
G1 X69.833 Y91.484 E.02006
G1 X49.516 Y71.167 E.88249
G1 X49.516 Y71.82 E.02006
G1 X69.18 Y91.484 E.85412
G1 X68.527 Y91.484 E.02006
G1 X49.516 Y72.473 E.82576
G1 X49.516 Y73.126 E.02006
G1 X57.879 Y81.489 E.36324
G1 X57.225 Y81.488 E.02007
G1 X49.516 Y73.779 E.33486
G1 X49.516 Y74.432 E.02006
G1 X56.572 Y81.488 E.30649
G1 X55.919 Y81.487 E.02007
G1 X49.516 Y75.085 E.27811
G1 X49.516 Y75.738 E.02006
G1 X55.265 Y81.487 E.24973
G1 X54.612 Y81.487 E.02007
G1 X49.516 Y76.391 E.22135
G1 X49.516 Y77.044 E.02006
G1 X53.959 Y81.486 E.19297
G1 X53.306 Y81.486 E.02007
G1 X49.516 Y77.697 E.1646
G1 X49.516 Y78.35 E.02006
G1 X52.652 Y81.486 E.13622
G1 X51.999 Y81.485 E.02007
G1 X49.516 Y79.003 E.10784
G1 X49.516 Y79.656 E.02006
G1 X51.346 Y81.485 E.07946
G1 X50.692 Y81.485 E.02007
G1 X49.516 Y80.309 E.05109
G1 X49.516 Y80.961 E.02006
G1 X50.245 Y81.69 E.03165
G1 E-5 F3600
G17
G3 Z.6 I-.163 J1.206 P1  F9000
G1 X59.307 Y82.916 Z.6
G1 Z.2
G1 E5 F2400
G1 F1200
G1 X67.874 Y91.484 E.37214
G1 X67.221 Y91.484 E.02006
G1 X59.513 Y83.775 E.33483
G1 X59.513 Y84.429 E.02006
G1 X66.568 Y91.484 E.30645
G1 X65.915 Y91.484 E.02006
G1 X59.513 Y85.082 E.27808
G1 X59.514 Y85.735 E.02006
G1 X65.262 Y91.484 E.2497
G1 X64.609 Y91.484 E.02006
G1 X59.514 Y86.388 E.22133
G1 X59.514 Y87.042 E.02006
G1 X63.956 Y91.484 E.19295
G1 X63.303 Y91.484 E.02006
G1 X59.514 Y87.695 E.16458
G1 X59.515 Y88.348 E.02006
G1 X62.65 Y91.484 E.1362
G1 X61.997 Y91.484 E.02006
G1 X59.515 Y89.001 E.10783
G1 X59.515 Y89.655 E.02006
G1 X61.344 Y91.484 E.07945
G1 X60.691 Y91.484 E.02006
G1 X59.516 Y90.308 E.05108
G1 X59.516 Y90.961 E.02006
G1 X60.244 Y91.69 E.03164
; stop printing object flowrate_m20 id:7 copy 0
; printing object flowrate_5 id:4 copy 0
G1 E-3.5 F3600
;WIPE_START
G1 F1200
G1 X59.537 Y90.982 E-1.5
;WIPE_END
EXCLUDE_OBJECT_END NAME=flowrate_m20_id_7_copy_0
EXCLUDE_OBJECT_START NAME=flowrate_5_id_4_copy_0
G17
G3 Z.6 I-1.217 J-.02 P1  F9000
G1 X59.141 Y114.835 Z.6
G1 Z.2
G1 E5 F2400
;TYPE:Inner wall
;WIDTH:0.499999
G1 F900
G1 X59.116 Y114.65 E.00746
G1 X58.969 Y114.339 E.01373
G1 X58.707 Y114.064 E.01514
G1 X58.392 Y113.898 E.01422
G1 X58.021 Y113.836 E.01499
G1 X49.164 Y113.836 E.35346
G1 X49.164 Y96.164 E.70522
G1 X86.836 Y96.164 E1.50335
G1 X86.836 Y105 E.35261
G1 X86.836 Y113.836 E.35261
G1 X78 Y113.836 E.35261
G1 X77.789 Y113.852 E.00843
G1 X77.441 Y113.97 E.0147
G1 X77.113 Y114.233 E.01676
G1 X76.909 Y114.577 E.01599
G1 X76.836 Y114.979 E.01627
G1 X76.836 Y123.836 E.35346
G1 X59.164 Y123.836 E.70522
G1 X59.164 Y115 E.35261
G1 X59.147 Y114.875 E.00504
G1 X58.695 Y114.909 F9000
G1 F900
G1 X58.678 Y114.782 E.00511
G1 X58.541 Y114.531 E.0114
G1 X58.295 Y114.35 E.01217
G1 X58.021 Y114.293 E.01116
G1 X48.707 Y114.293 E.37171
G1 X48.707 Y95.707 E.7417
G1 X87.293 Y95.707 E1.53983
G1 X87.293 Y105 E.37085
G1 X87.293 Y114.293 E.37085
G1 X78 Y114.293 E.37085
G1 X77.81 Y114.314 E.00764
G1 X77.528 Y114.462 E.01271
G1 X77.353 Y114.697 E.01169
G1 X77.293 Y114.979 E.01148
G1 X77.293 Y124.293 E.37171
G1 X58.707 Y124.293 E.7417
M73 P3 R70
G1 X58.707 Y115 E.37085
G1 X58.7 Y114.948 E.00209
G1 X58.25 Y114.979 F9000
;TYPE:Outer wall
G1 F900
G1 X58.184 Y114.818 E.00695
G1 X58.021 Y114.75 E.00702
G1 X48.25 Y114.75 E.38995
G1 X48.25 Y95.25 E.77818
G1 X87.75 Y95.25 E1.57631
G1 X87.75 Y105 E.38909
G1 X87.75 Y114.75 E.38909
M73 P4 R70
G1 X77.979 Y114.75 E.38995
G1 X77.816 Y114.818 E.00702
G1 X77.75 Y114.979 E.00695
G1 X77.75 Y124.75 E.38995
G1 X58.25 Y124.75 E.77818
G1 X58.25 Y115.019 E.38835
G1 E-5 F3600
G17
G3 Z.6 I.645 J1.032 P1  F9000
G1 X86.69 Y97.244 Z.6
G1 Z.2
G1 E5 F2400
;TYPE:Bottom surface
;WIDTH:0.504641
G1 F1200
G1 X85.961 Y96.516 E.04151
G1 X85.308 Y96.516 E.02632
G1 X86.484 Y97.692 E.06701
G1 X86.484 Y98.344 E.02632
G1 X84.656 Y96.516 E.10424
G1 X84.003 Y96.516 E.02632
G1 X86.484 Y98.997 E.14146
G1 X86.484 Y99.65 E.02632
G1 X83.35 Y96.516 E.17869
G1 X82.697 Y96.516 E.02632
G1 X86.484 Y100.303 E.21591
G1 X86.484 Y100.956 E.02632
G1 X82.044 Y96.516 E.25314
G1 X81.391 Y96.516 E.02632
G1 X86.484 Y101.609 E.29036
G1 X86.484 Y102.262 E.02632
G1 X80.738 Y96.516 E.32759
G1 X80.085 Y96.516 E.02632
G1 X86.484 Y102.915 E.36482
G1 X86.484 Y103.568 E.02632
G1 X79.432 Y96.516 E.40204
G1 X78.779 Y96.516 E.02632
G1 X86.484 Y104.221 E.43927
G1 X86.484 Y104.874 E.02632
G1 X78.126 Y96.516 E.47649
G1 X77.473 Y96.516 E.02632
G1 X86.484 Y105.527 E.51372
G1 X86.484 Y106.18 E.02632
G1 X76.82 Y96.516 E.55094
G1 X76.167 Y96.516 E.02632
G1 X86.484 Y106.833 E.58817
G1 X86.484 Y107.486 E.02632
G1 X75.514 Y96.516 E.6254
G1 X74.861 Y96.516 E.02632
G1 X86.484 Y108.139 E.66262
G1 X86.484 Y108.792 E.02632
G1 X74.208 Y96.516 E.69985
G1 X73.555 Y96.516 E.02632
G1 X86.484 Y109.445 E.73707
G1 X86.484 Y110.098 E.02632
G1 X72.902 Y96.516 E.7743
G1 X72.249 Y96.516 E.02632
G1 X86.484 Y110.751 E.81152
G1 X86.484 Y111.404 E.02632
G1 X71.596 Y96.516 E.84875
G1 X70.943 Y96.516 E.02632
G1 X86.484 Y112.057 E.88598
G1 X86.484 Y112.71 E.02632
G1 X70.29 Y96.516 E.9232
G1 X69.637 Y96.516 E.02632
G1 X86.484 Y113.363 E.96043
G1 X86.484 Y113.484 E.00488
G1 X85.952 Y113.484 E.02143
G1 X68.984 Y96.516 E.96735
G1 X68.331 Y96.516 E.02632
G1 X85.3 Y113.485 E.96737
G1 X84.647 Y113.485 E.02631
G1 X67.678 Y96.516 E.96739
G1 X67.025 Y96.516 E.02632
G1 X83.994 Y113.485 E.96741
G1 X83.342 Y113.486 E.02631
G1 X66.372 Y96.516 E.96743
G1 X65.719 Y96.516 E.02632
G1 X82.689 Y113.486 E.96745
G1 X82.037 Y113.486 E.02631
G1 X65.066 Y96.516 E.96747
G1 X64.413 Y96.516 E.02632
G1 X81.384 Y113.487 E.96749
G1 X80.731 Y113.487 E.02631
G1 X63.76 Y96.516 E.96751
G1 X63.107 Y96.516 E.02632
G1 X80.079 Y113.487 E.96753
G1 X79.426 Y113.488 E.02631
G1 X62.454 Y96.516 E.96755
G1 X61.801 Y96.516 E.02632
G1 X78.774 Y113.488 E.96757
G1 X78.121 Y113.489 E.02631
G1 X61.149 Y96.516 E.96759
G1 X60.496 Y96.516 E.02632
G1 X77.535 Y113.555 E.9714
G1 X77.382 Y113.608 E.00653
G1 X77.173 Y113.719 E.00953
G1 X77.102 Y113.776 E.00366
G1 X59.843 Y96.516 E.98397
G1 X59.19 Y96.516 E.02632
G1 X76.774 Y114.1 E1.00246
G1 X76.615 Y114.366 E.01248
G1 X76.558 Y114.537 E.00727
G1 X58.537 Y96.516 E1.02737
G1 X57.884 Y96.516 E.02632
