; HEADER_BLOCK_START
; generated by OrcaSlicer 1.7.0 on 2023-11-11 at 22:22:31
; total layer number: 7
; HEADER_BLOCK_END

; THUMBNAIL_BLOCK_START
; THUMBNAIL_BLOCK_END

; external perimeters extrusion width = 0.40mm
; perimeters extrusion width = 0.45mm
; infill extrusion width = 0.45mm
; solid infill extrusion width = 0.48mm
; top infill extrusion width = 0.48mm
; first layer extrusion width = 0.50mm

; external perimeters extrusion width = 0.40mm
; perimeters extrusion width = 0.45mm
; infill extrusion width = 0.45mm
; solid infill extrusion width = 0.48mm
; top infill extrusion width = 0.48mm
; first layer extrusion width = 0.50mm

; external perimeters extrusion width = 0.40mm
; perimeters extrusion width = 0.45mm
; infill extrusion width = 0.45mm
; solid infill extrusion width = 0.48mm
; top infill extrusion width = 0.48mm
; first layer extrusion width = 0.50mm

; external perimeters extrusion width = 0.40mm
; perimeters extrusion width = 0.45mm
; infill extrusion width = 0.45mm
; solid infill extrusion width = 0.48mm
; top infill extrusion width = 0.48mm
; first layer extrusion width = 0.50mm

; external perimeters extrusion width = 0.40mm
; perimeters extrusion width = 0.45mm
; infill extrusion width = 0.45mm
; solid infill extrusion width = 0.48mm
; top infill extrusion width = 0.48mm
; first layer extrusion width = 0.50mm

; external perimeters extrusion width = 0.40mm
; perimeters extrusion width = 0.45mm
; infill extrusion width = 0.45mm
; solid infill extrusion width = 0.48mm
; top infill extrusion width = 0.48mm
; first layer extrusion width = 0.50mm

; external perimeters extrusion width = 0.40mm
; perimeters extrusion width = 0.45mm
; infill extrusion width = 0.45mm
; solid infill extrusion width = 0.48mm
; top infill extrusion width = 0.48mm
; first layer extrusion width = 0.50mm

; external perimeters extrusion width = 0.40mm
; perimeters extrusion width = 0.45mm
; infill extrusion width = 0.45mm
; solid infill extrusion width = 0.48mm
; top infill extrusion width = 0.48mm
; first layer extrusion width = 0.50mm

; external perimeters extrusion width = 0.40mm
; perimeters extrusion width = 0.45mm
; infill extrusion width = 0.45mm
; solid infill extrusion width = 0.48mm
; top infill extrusion width = 0.48mm
; first layer extrusion width = 0.50mm

; EXECUTABLE_BLOCK_START
EXCLUDE_OBJECT_DEFINE NAME=flowrate_0_id_0_copy_0 CENTER=110,110 POLYGON=[[90,95],[130,95],[130,115],[120,125],[100,125],[90,115],[90,95]]
EXCLUDE_OBJECT_DEFINE NAME=flowrate_10_id_1_copy_0 CENTER=152,142 POLYGON=[[132,127],[172,127],[172,147],[162,157],[142,157],[132,147],[132,127]]
EXCLUDE_OBJECT_DEFINE NAME=flowrate_15_id_2_copy_0 CENTER=110,142 POLYGON=[[90,127],[130,127],[130,147],[120,157],[100,157],[90,147],[90,127]]
EXCLUDE_OBJECT_DEFINE NAME=flowrate_20_id_3_copy_0 CENTER=68,142 POLYGON=[[48,127],[88,127],[88,147],[78,157],[58,157],[48,147],[48,127]]
EXCLUDE_OBJECT_DEFINE NAME=flowrate_5_id_4_copy_0 CENTER=68,110 POLYGON=[[48,95],[88,95],[88,115],[78,125],[58,125],[48,115],[48,95]]
EXCLUDE_OBJECT_DEFINE NAME=flowrate_m10_id_5_copy_0 CENTER=152,78 POLYGON=[[132,63],[172,63],[172,83],[162,93],[142,93],[132,83],[132,63]]
EXCLUDE_OBJECT_DEFINE NAME=flowrate_m15_id_6_copy_0 CENTER=110,78 POLYGON=[[90,63],[130,63],[130,83],[120,93],[100,93],[90,83],[90,63]]
EXCLUDE_OBJECT_DEFINE NAME=flowrate_m20_id_7_copy_0 CENTER=68,78 POLYGON=[[48,63],[88,63],[88,83],[78,93],[58,93],[48,83],[48,63]]
EXCLUDE_OBJECT_DEFINE NAME=flowrate_m5_id_8_copy_0 CENTER=152,110 POLYGON=[[132,95],[172,95],[172,115],[162,125],[142,125],[132,115],[132,95]]
M73 P0 R62
;TYPE:Custom
START_PRINT EXTRUDER_TEMP=250  BED_TEMP=80
G90
G21
M83 ; use relative distances for extrusion
; filament start gcode
M106 S0
;LAYER_CHANGE
;Z:0.2
;HEIGHT:0.2
;BEFORE_LAYER_CHANGE
;0.2
G92 E0

G1 E-4 F1800
;_SET_FAN_SPEED_CHANGING_LAYER
G1 Z.4 F12000
G1 X41.146 Y52.258
G1 Z.4
G1 Z.2
G1 E4 F1800
;TYPE:Skirt
;WIDTH:0.5
G1 F900
G1 X44.026 Y50.893 E.12111
G1 X48 Y50.258 E.15295
G1 X172 Y50.258 E4.71278
G1 X175.162 Y50.656 E.12111
G1 X178.125 Y51.826 E.12111
G1 X180.706 Y53.695 E.12111
G1 X182.742 Y56.146 E.12111
G1 X184.107 Y59.026 E.12111
G1 X184.742 Y63 E.15295
G1 X184.742 Y147 E3.19253
G1 X184.344 Y150.162 E.12111
G1 X183.174 Y153.125 E.12111
G1 X181.01 Y156.01 E.13705
G1 X171.01 Y166.01 E.53749
G1 X168.493 Y167.964 E.12111
G1 X165.57 Y169.232 E.12111
G1 X162 Y169.742 E.13705
G1 X58 Y169.742 E3.95266
G1 X54.838 Y169.344 E.12111
G1 X51.875 Y168.174 E.12111
G1 X48.99 Y166.01 E.13705
G1 X38.99 Y156.01 E.53749
G1 X37.036 Y153.493 E.12111
G1 X35.768 Y150.57 E.12111
G1 X35.258 Y147 E.13705
G1 X35.258 Y63 E3.19253
G1 X35.656 Y59.838 E.12111
G1 X36.826 Y56.875 E.12111
G1 X38.695 Y54.294 E.12111
G1 X41.116 Y52.283 E.11959
G1 X41.417 Y52.658 F12000
G1 F900
G1 X41.585 Y52.522 E.00821
G1 X44.44 Y51.242 E.11891
G1 X48 Y50.715 E.13679
G1 X172 Y50.715 E4.71278
M73 P1 R61
G1 X175.103 Y51.113 E.11891
G1 X178.005 Y52.282 E.11891
G1 X180.518 Y54.147 E.11891
G1 X182.478 Y56.585 E.11891
G1 X183.758 Y59.44 E.11891
G1 X184.285 Y63 E.13679
G1 X184.285 Y147 E3.19253
G1 X183.887 Y150.103 E.11891
G1 X182.718 Y153.005 E.11891
G1 X180.687 Y155.687 E.12785
G1 X170.687 Y165.687 E.53749
G1 X168.211 Y167.6 E.11891
G1 X165.332 Y168.825 E.11891
G1 X162 Y169.285 E.12785
G1 X58 Y169.285 E3.95266
G1 X54.897 Y168.887 E.11891
G1 X51.995 Y167.718 E.11891
G1 X49.313 Y165.687 E.12785
G1 X39.313 Y155.687 E.53749
G1 X37.4 Y153.211 E.11891
G1 X36.175 Y150.332 E.11891
G1 X35.715 Y147 E.12785
G1 X35.715 Y63 E3.19253
G1 X36.113 Y59.897 E.11891
G1 X37.282 Y56.995 E.11891
G1 X39.147 Y54.482 E.11891
G1 X41.386 Y52.683 E.10918
G1 X41.678 Y53.06 F12000
G1 F900
G1 X42.022 Y52.793 E.01655
G1 X44.85 Y51.599 E.11667
G1 X48 Y51.172 E.12081
G1 X172 Y51.172 E4.71278
M73 P2 R61
G1 X175.044 Y51.57 E.11667
G1 X177.882 Y52.738 E.11667
G1 X180.325 Y54.597 E.11667
G1 X182.207 Y57.022 E.11667
G1 X183.401 Y59.85 E.11667
G1 X183.828 Y63 E.12081
G1 X183.828 Y147 E3.19253
G1 X183.43 Y150.044 E.11667
G1 X182.262 Y152.882 E.11667
G1 X180.364 Y155.364 E.11874
G1 X170.364 Y165.364 E.53749
G1 X167.93 Y167.234 E.11667
G1 X165.097 Y168.416 E.11667
G1 X162 Y168.828 E.11874
G1 X58 Y168.828 E3.95266
G1 X54.956 Y168.43 E.11667
G1 X52.118 Y167.262 E.11667
G1 X49.636 Y165.364 E.11874
G1 X39.636 Y155.364 E.53749
G1 X37.766 Y152.93 E.11667
G1 X36.584 Y150.097 E.11667
G1 X36.172 Y147 E.11874
G1 X36.172 Y63 E3.19253
M73 P2 R60
G1 X36.57 Y59.956 E.11667
G1 X37.738 Y57.118 E.11667
G1 X39.597 Y54.675 E.11667
G1 X41.647 Y53.085 E.0986
G1 X41.931 Y53.465 F12000
G1 F900
G1 X42.458 Y53.071 E.02502
G1 X45.257 Y51.965 E.11438
G1 X48 Y51.629 E.10503
G1 X172 Y51.629 E4.71278
G1 X174.983 Y52.027 E.11438
G1 X177.757 Y53.194 E.11438
G1 X180.128 Y55.048 E.11438
G1 X181.929 Y57.458 E.11438
G1 X183.035 Y60.257 E.11438
G1 X183.371 Y63 E.10503
G1 X183.371 Y147 E3.19253
M73 P3 R60
G1 X182.973 Y149.983 E.11438
G1 X181.806 Y152.757 E.11438
G1 X180.041 Y155.041 E.1097
G1 X170.041 Y165.041 E.53749
G1 X167.65 Y166.868 E.11438
G1 X164.863 Y168.005 E.11438
G1 X162 Y168.371 E.1097
G1 X58 Y168.371 E3.95266
G1 X55.017 Y167.973 E.11438
G1 X52.243 Y166.806 E.11438
G1 X49.959 Y165.041 E.1097
G1 X39.959 Y155.041 E.53749
G1 X38.132 Y152.65 E.11438
G1 X36.995 Y149.863 E.11438
G1 X36.629 Y147 E.1097
G1 X36.629 Y63 E3.19253
G1 X37.027 Y60.017 E.11438
G1 X38.194 Y57.243 E.11438
G1 X40.048 Y54.872 E.11438
G1 X41.899 Y53.489 E.08784
G1 X42.173 Y53.871 F12000
G1 F900
G1 X42.892 Y53.355 E.03364
G1 X45.66 Y52.34 E.11205
G1 X48 Y52.086 E.08945
G1 X172 Y52.086 E4.71278
G1 X174.921 Y52.484 E.11205
G1 X177.629 Y53.649 E.11205
G1 X179.926 Y55.497 E.11205
G1 X181.645 Y57.892 E.11205
G1 X182.66 Y60.66 E.11205
G1 X182.914 Y63 E.08945
G1 X182.914 Y147 E3.19253
G1 X182.516 Y149.921 E.11205
G1 X181.351 Y152.629 E.11205
M73 P4 R60
G1 X179.717 Y154.717 E.10076
G1 X169.717 Y164.717 E.53749
G1 X167.37 Y166.501 E.11205
G1 X164.631 Y167.592 E.11205
G1 X162 Y167.914 E.10076
G1 X58 Y167.914 E3.95266
G1 X55.079 Y167.516 E.11205
G1 X52.371 Y166.351 E.11205
G1 X50.283 Y164.717 E.10076
G1 X40.283 Y154.717 E.53749
M73 P4 R59
G1 X38.499 Y152.37 E.11205
G1 X37.408 Y149.631 E.11205
G1 X37.086 Y147 E.10076
G1 X37.086 Y63 E3.19253
G1 X37.484 Y60.079 E.11205
G1 X38.649 Y57.371 E.11205
G1 X40.497 Y55.074 E.11205
G1 X42.141 Y53.894 E.07688
G1 X42.405 Y54.278 F12000
G1 F900
G1 X43.324 Y53.646 E.04242
G1 X46.059 Y52.725 E.10966
G1 X48 Y52.543 E.07411
G1 X172 Y52.543 E4.71278
G1 X174.858 Y52.941 E.10966
G1 X177.498 Y54.105 E.10966
G1 X179.72 Y55.946 E.10966
G1 X181.354 Y58.324 E.10966
G1 X182.275 Y61.059 E.10966
G1 X182.457 Y63 E.07411
G1 X182.457 Y147 E3.19253
G1 X182.059 Y149.858 E.10966
G1 X180.895 Y152.498 E.10966
G1 X179.394 Y154.394 E.09191
G1 X169.394 Y164.394 E.53749
G1 X167.092 Y166.134 E.10966
G1 X164.402 Y167.177 E.10966
G1 X162 Y167.457 E.09191
G1 X58 Y167.457 E3.95266
M73 P5 R59
G1 X55.142 Y167.059 E.10966
G1 X52.502 Y165.895 E.10966
G1 X50.606 Y164.394 E.09191
G1 X40.606 Y154.394 E.53749
G1 X38.866 Y152.092 E.10966
G1 X37.823 Y149.402 E.10966
G1 X37.543 Y147 E.09191
G1 X37.543 Y63 E3.19253
G1 X37.941 Y60.142 E.10966
G1 X39.105 Y57.502 E.10966
G1 X40.946 Y55.28 E.10966
G1 X42.372 Y54.301 E.06573
; printing object flowrate_m20 id:7 copy 0
G1 E-2.8 F1800
;WIPE_START
G1 F900
G1 X43.196 Y53.735 E-1.2
;WIPE_END
EXCLUDE_OBJECT_START NAME=flowrate_m20_id_7_copy_0
G1 Z.6 F12000
G1 X59.141 Y82.835 Z.6
G1 Z.2
G1 E4 F1800
;TYPE:Inner wall
;WIDTH:0.499999
G1 F900
G1 X59.116 Y82.65 E.00568
G1 X58.969 Y82.339 E.01046
G1 X58.707 Y82.064 E.01153
G1 X58.392 Y81.898 E.01084
G1 X58.021 Y81.836 E.01142
G1 X49.164 Y81.836 E.26931
G1 X49.164 Y64.164 E.53731
G1 X86.836 Y64.164 E1.14541
G1 X86.836 Y73 E.26865
G1 X86.836 Y81.836 E.26865
G1 X78 Y81.836 E.26865
G1 X77.789 Y81.852 E.00642
G1 X77.441 Y81.97 E.0112
G1 X77.113 Y82.233 E.01277
G1 X76.909 Y82.577 E.01218
G1 X76.836 Y82.979 E.0124
G1 X76.836 Y91.836 E.26931
G1 X59.164 Y91.836 E.53731
G1 X59.164 Y83 E.26865
G1 X59.147 Y82.875 E.00384
G1 X58.695 Y82.909 F12000
G1 F900
G1 X58.678 Y82.782 E.0039
G1 X58.541 Y82.531 E.00869
G1 X58.295 Y82.35 E.00928
G1 X58.021 Y82.293 E.0085
G1 X48.707 Y82.293 E.2832
G1 X48.707 Y63.707 E.5651
G1 X87.293 Y63.707 E1.1732
G1 X87.293 Y73 E.28255
G1 X87.293 Y82.293 E.28255
G1 X78 Y82.293 E.28255
G1 X77.81 Y82.314 E.00582
G1 X77.528 Y82.462 E.00968
G1 X77.353 Y82.697 E.0089
G1 X77.293 Y82.979 E.00875
G1 X77.293 Y92.293 E.2832
G1 X58.707 Y92.293 E.5651
G1 X58.707 Y83 E.28255
G1 X58.7 Y82.948 E.00159
G1 X58.25 Y82.979 F12000
;TYPE:Outer wall
G1 F900
G1 X58.184 Y82.818 E.00529
G1 X58.021 Y82.75 E.00535
G1 X48.25 Y82.75 E.2971
G1 X48.25 Y63.25 E.5929
M73 P5 R58
G1 X87.75 Y63.25 E1.201
G1 X87.75 Y73 E.29645
G1 X87.75 Y82.75 E.29645
G1 X77.979 Y82.75 E.2971
G1 X77.816 Y82.818 E.00535
G1 X77.75 Y82.979 E.00529
G1 X77.75 Y92.75 E.2971
M73 P6 R58
G1 X58.25 Y92.75 E.5929
G1 X58.25 Y83.019 E.29589
G1 E-4 F1800
G1 Z.6 F12000
G1 X86.584 Y65.234 Z.6
G1 Z.2
G1 E4 F1800
;TYPE:Bottom surface
;WIDTH:0.5
G1 F1200
G1 X85.766 Y64.416 E.03518
G1 X85.12 Y64.416
G1 X86.584 Y65.88 E.06298
G1 X86.584 Y66.527
G1 X84.473 Y64.416 E.09077
G1 X83.827 Y64.416
G1 X86.584 Y67.173 E.11857
G1 X86.584 Y67.819
G1 X83.181 Y64.416 E.14636
G1 X82.534 Y64.416
G1 X86.584 Y68.466 E.17416
G1 X86.584 Y69.112
G1 X81.888 Y64.416 E.20195
G1 X81.241 Y64.416
G1 X86.584 Y69.759 E.22975
G1 X86.584 Y70.405
G1 X80.595 Y64.416 E.25754
G1 X79.949 Y64.416
G1 X86.584 Y71.051 E.28534
G1 X86.584 Y71.698
G1 X79.302 Y64.416 E.31313
G1 X78.656 Y64.416
G1 X86.584 Y72.344 E.34093
G1 X86.584 Y72.991
G1 X78.009 Y64.416 E.36872
G1 X77.363 Y64.416
G1 X86.584 Y73.637 E.39652
G1 X86.584 Y74.283
G1 X76.717 Y64.416 E.42431
G1 X76.07 Y64.416
G1 X86.584 Y74.93 E.45211
G1 X86.584 Y75.576
G1 X75.424 Y64.416 E.4799
G1 X74.777 Y64.416
G1 X86.584 Y76.223 E.5077
G1 X86.584 Y76.869
G1 X74.131 Y64.416 E.53549
G1 X73.484 Y64.416
G1 X86.584 Y77.516 E.56329
G1 X86.584 Y78.162
G1 X72.838 Y64.416 E.59108
G1 X72.192 Y64.416
G1 X86.584 Y78.808 E.61888
G1 X86.584 Y79.455
G1 X71.545 Y64.416 E.64667
G1 X70.899 Y64.416
G1 X86.584 Y80.101 E.67447
G1 X86.584 Y80.748
G1 X70.252 Y64.416 E.70226
G1 X69.606 Y64.416
G1 X86.584 Y81.394 E.73006
G1 X86.129 Y81.585
G1 X68.96 Y64.416 E.73826
G1 X68.313 Y64.416
G1 X85.483 Y81.585 E.73828
G1 X84.837 Y81.585
G1 X67.667 Y64.416 E.73829
G1 X67.02 Y64.416
G1 X84.191 Y81.586 E.73831
G1 X83.545 Y81.586
G1 X66.374 Y64.416 E.73832
G1 X65.728 Y64.416
G1 X82.899 Y81.586 E.73834
G1 X82.252 Y81.587
G1 X65.081 Y64.416 E.73835
G1 X64.435 Y64.416
G1 X81.606 Y81.587 E.73837
G1 X80.96 Y81.588
G1 X63.788 Y64.416 E.73838
G1 X63.142 Y64.416
G1 X80.314 Y81.588 E.7384
G1 X79.668 Y81.588
G1 X62.496 Y64.416 E.73841
G1 X61.849 Y64.416
G1 X79.022 Y81.589 E.73843
G1 X78.376 Y81.589
G1 X61.203 Y64.416 E.73844
M73 P7 R58
G1 X60.556 Y64.416
G1 X77.749 Y81.608 E.73927
G1 X77.274 Y81.779
G1 X59.91 Y64.416 E.74663
G1 X59.264 Y64.416
G1 X76.924 Y82.076 E.75938
G1 X76.682 Y82.481
G1 X58.617 Y64.416 E.77679
G1 X57.971 Y64.416
G1 X76.588 Y83.033 E.80054
G1 X76.588 Y83.679
G1 X57.324 Y64.416 E.82832
G1 X56.678 Y64.416
G1 X76.588 Y84.325 E.8561
G1 X76.587 Y84.971
G1 X56.031 Y64.416 E.88389
G1 X55.385 Y64.416
G1 X76.587 Y85.618 E.91167
G1 X76.587 Y86.264
G1 X54.739 Y64.416 E.93945
G1 X54.092 Y64.416
G1 X76.587 Y86.91 E.96724
G1 X76.586 Y87.556
G1 X53.446 Y64.416 E.99502
M73 P7 R57
G1 X52.799 Y64.416
G1 X76.586 Y88.202 E1.0228
G1 X76.586 Y88.848
G1 X52.153 Y64.416 E1.05058
G1 X51.507 Y64.416
G1 X76.585 Y89.494 E1.07837
G1 X76.585 Y90.14
G1 X50.86 Y64.416 E1.10615
G1 X50.214 Y64.416
G1 X76.585 Y90.787 E1.13393
G1 X76.585 Y91.433
G1 X49.567 Y64.416 E1.16172
G1 X49.416 Y64.91
G1 X76.09 Y91.584 E1.14698
G1 X75.444 Y91.584
G1 X49.416 Y65.556 E1.11918
G1 X49.416 Y66.203
G1 X74.797 Y91.584 E1.09139
G1 X74.151 Y91.584
G1 X49.416 Y66.849 E1.06359
G1 X49.416 Y67.496
G1 X73.504 Y91.584 E1.0358
M73 P8 R57
G1 X72.858 Y91.584
G1 X49.416 Y68.142 E1.008
G1 X49.416 Y68.789
G1 X72.211 Y91.584 E.98021
G1 X71.565 Y91.584
G1 X49.416 Y69.435 E.95241
G1 X49.416 Y70.081
G1 X70.919 Y91.584 E.92462
G1 X70.272 Y91.584
G1 X49.416 Y70.728 E.89682
G1 X49.416 Y71.374
G1 X69.626 Y91.584 E.86903
G1 X68.979 Y91.584
G1 X49.416 Y72.021 E.84123
G1 X49.416 Y72.667
G1 X58.382 Y81.633 E.38554
G1 X57.691 Y81.589
G1 X49.416 Y73.313 E.35584
G1 X49.416 Y73.96
G1 X57.044 Y81.589 E.32803
G1 X56.398 Y81.588
G1 X49.416 Y74.606 E.30022
G1 X49.416 Y75.253
G1 X55.751 Y81.588 E.27241
G1 X55.104 Y81.588
G1 X49.416 Y75.899 E.2446
G1 X49.416 Y76.545
G1 X54.457 Y81.587 E.21679
G1 X53.811 Y81.587
G1 X49.416 Y77.192 E.18898
G1 X49.416 Y77.838
G1 X53.164 Y81.587 E.16117
G1 X52.517 Y81.586
G1 X49.416 Y78.485 E.13336
G1 X49.416 Y79.131
G1 X51.87 Y81.586 E.10555
G1 X51.224 Y81.585
G1 X49.416 Y79.777 E.07774
G1 X49.416 Y80.424
G1 X50.577 Y81.585 E.04993
G1 X49.93 Y81.585
G1 X49.416 Y81.07 E.02212
G1 E-4 F1800
G1 Z.6 F12000
G1 X59.362 Y82.613 Z.6
G1 Z.2
G1 E4 F1800
G1 F1200
G1 X68.333 Y91.584 E.38575
G1 X67.687 Y91.584
G1 X59.412 Y83.31 E.35581
G1 X59.412 Y83.956
G1 X67.04 Y91.584 E.328
G1 X66.394 Y91.584
G1 X59.412 Y84.603 E.30019
G1 X59.413 Y85.25
G1 X65.747 Y91.584 E.27239
G1 X65.101 Y91.584
G1 X59.413 Y85.896 E.24458
G1 X59.413 Y86.543
G1 X64.455 Y91.584 E.21677
G1 X63.808 Y91.584
G1 X59.414 Y87.19 E.18896
G1 X59.414 Y87.837
G1 X63.162 Y91.584 E.16116
G1 X62.515 Y91.584
G1 X59.414 Y88.483 E.13335
G1 X59.414 Y89.13
G1 X61.869 Y91.584 E.10554
G1 X61.223 Y91.584
G1 X59.415 Y89.777 E.07773
G1 X59.415 Y90.423
G1 X60.576 Y91.584 E.04993
G1 X59.93 Y91.584
G1 X59.415 Y91.07 E.02212
G1 E-4 F1800
G1 Z.6 F12000
G1 X59.444 Y82.531 Z.6
G1 Z.2
G1 E4 F1800
;TYPE:Gap infill
;WIDTH:0.203919
G1 F900
G1 X59.34 Y82.378 E.00198
;WIDTH:0.198397
G1 X59.269 Y82.284 E.00122
;WIDTH:0.163681
G1 X59.192 Y82.183 E.00101
;WIDTH:0.118201
G1 X59.015 Y81.988 E.00132
G1 X58.782 Y81.779 E.00157
;WIDTH:0.140828
G1 X58.694 Y81.714 E.00071
;WIDTH:0.192618
G1 X58.463 Y81.552 E.00282
; stop printing object flowrate_m20 id:7 copy 0
; printing object flowrate_5 id:4 copy 0
G1 E-2.8 F1800
;WIPE_START
G1 F900
G1 X58.694 Y81.714 E-1.2
;WIPE_END
