; HEADER_BLOCK_START
; generated by OrcaSlicer 1.7.0 on 2023-10-30 at 19:57:19
; total layer number: 7
; HEADER_BLOCK_END

; THUMBNAIL_BLOCK_START
; THUMBNAIL_BLOCK_END

; external perimeters extrusion width = 0.40mm
; perimeters extrusion width = 0.45mm
; infill extrusion width = 0.45mm
; solid infill extrusion width = 0.48mm
; top infill extrusion width = 0.48mm
; first layer extrusion width = 0.50mm

; external perimeters extrusion width = 0.40mm
; perimeters extrusion width = 0.45mm
; infill extrusion width = 0.45mm
; solid infill extrusion width = 0.48mm
; top infill extrusion width = 0.48mm
; first layer extrusion width = 0.50mm

; external perimeters extrusion width = 0.40mm
; perimeters extrusion width = 0.45mm
; infill extrusion width = 0.45mm
; solid infill extrusion width = 0.48mm
; top infill extrusion width = 0.48mm
; first layer extrusion width = 0.50mm

; external perimeters extrusion width = 0.40mm
; perimeters extrusion width = 0.45mm
; infill extrusion width = 0.45mm
; solid infill extrusion width = 0.48mm
; top infill extrusion width = 0.48mm
; first layer extrusion width = 0.50mm

; external perimeters extrusion width = 0.40mm
; perimeters extrusion width = 0.45mm
; infill extrusion width = 0.45mm
; solid infill extrusion width = 0.48mm
; top infill extrusion width = 0.48mm
; first layer extrusion width = 0.50mm

; external perimeters extrusion width = 0.40mm
; perimeters extrusion width = 0.45mm
; infill extrusion width = 0.45mm
; solid infill extrusion width = 0.48mm
; top infill extrusion width = 0.48mm
; first layer extrusion width = 0.50mm

; external perimeters extrusion width = 0.40mm
; perimeters extrusion width = 0.45mm
; infill extrusion width = 0.45mm
; solid infill extrusion width = 0.48mm
; top infill extrusion width = 0.48mm
; first layer extrusion width = 0.50mm

; external perimeters extrusion width = 0.40mm
; perimeters extrusion width = 0.45mm
; infill extrusion width = 0.45mm
; solid infill extrusion width = 0.48mm
; top infill extrusion width = 0.48mm
; first layer extrusion width = 0.50mm

; external perimeters extrusion width = 0.40mm
; perimeters extrusion width = 0.45mm
; infill extrusion width = 0.45mm
; solid infill extrusion width = 0.48mm
; top infill extrusion width = 0.48mm
; first layer extrusion width = 0.50mm

; external perimeters extrusion width = 0.40mm
; perimeters extrusion width = 0.45mm
; infill extrusion width = 0.45mm
; solid infill extrusion width = 0.48mm
; top infill extrusion width = 0.48mm
; first layer extrusion width = 0.50mm

; EXECUTABLE_BLOCK_START
EXCLUDE_OBJECT_DEFINE NAME=flowrate_0_id_0_copy_0 CENTER=110,158 POLYGON=[[90,143],[130,143],[130,163],[120,173],[100,173],[90,163],[90,143]]
EXCLUDE_OBJECT_DEFINE NAME=flowrate_m1_id_1_copy_0 CENTER=68,126 POLYGON=[[48,111],[88,111],[88,131],[78,141],[58,141],[48,131],[48,111]]
EXCLUDE_OBJECT_DEFINE NAME=flowrate_m2_id_2_copy_0 CENTER=110,126 POLYGON=[[90,111],[130,111],[130,131],[120,141],[100,141],[90,131],[90,111]]
EXCLUDE_OBJECT_DEFINE NAME=flowrate_m3_id_3_copy_0 CENTER=152,126 POLYGON=[[132,111],[172,111],[172,131],[162,141],[142,141],[132,131],[132,111]]
EXCLUDE_OBJECT_DEFINE NAME=flowrate_m4_id_4_copy_0 CENTER=68,94 POLYGON=[[48,79],[88,79],[88,99],[78,109],[58,109],[48,99],[48,79]]
EXCLUDE_OBJECT_DEFINE NAME=flowrate_m5_id_5_copy_0 CENTER=110,94 POLYGON=[[90,79],[130,79],[130,99],[120,109],[100,109],[90,99],[90,79]]
EXCLUDE_OBJECT_DEFINE NAME=flowrate_m6_id_6_copy_0 CENTER=152,94 POLYGON=[[132,79],[172,79],[172,99],[162,109],[142,109],[132,99],[132,79]]
EXCLUDE_OBJECT_DEFINE NAME=flowrate_m7_id_7_copy_0 CENTER=152,62 POLYGON=[[132,47],[172,47],[172,67],[162,77],[142,77],[132,67],[132,47]]
EXCLUDE_OBJECT_DEFINE NAME=flowrate_m8_id_8_copy_0 CENTER=110,62 POLYGON=[[90,47],[130,47],[130,67],[120,77],[100,77],[90,67],[90,47]]
EXCLUDE_OBJECT_DEFINE NAME=flowrate_m9_id_9_copy_0 CENTER=68,62 POLYGON=[[48,47],[88,47],[88,67],[78,77],[58,77],[48,67],[48,47]]
M73 P0 R81
;TYPE:Custom
START_PRINT EXTRUDER_TEMP=240  BED_TEMP=80
G90
G21
M83 ; use relative distances for extrusion
; filament start gcode
M106 S0
;LAYER_CHANGE
;Z:0.2
;HEIGHT:0.2
;BEFORE_LAYER_CHANGE
;0.2
G92 E0

G1 E-5 F3600
;_SET_FAN_SPEED_CHANGING_LAYER
SET_VELOCITY_LIMIT ACCEL=500 ACCEL_TO_DECEL=250
G1 Z.4 F9000
G1 X43.619 Y43.027
G1 Z.4
G1 Z.2
G1 E5 F2400
;TYPE:Skirt
;WIDTH:0.5
G1 F900
G1 X45.343 Y41.716 E.08232
G1 X48 Y41.086 E.10377
G1 X172 Y41.086 E4.71278
G1 X174.129 Y41.482 E.08232
G1 X175.973 Y42.619 E.08232
G1 X177.284 Y44.343 E.08232
G1 X177.914 Y47 E.10377
G1 X177.914 Y131 E3.19253
G1 X177.518 Y133.129 E.08232
G1 X176.182 Y135.182 E.09307
M73 P0 R80
G1 X166.182 Y145.182 E.53749
G1 X165.584 Y145.704 E.03017
G1 X123.584 Y177.704 E2.00679
G1 X121.65 Y178.679 E.08232
G1 X120 Y178.914 E.06335
G1 X100 Y178.914 E.76013
G1 X97.871 Y178.518 E.08232
G1 X96.416 Y177.704 E.06335
G1 X54.416 Y145.704 E2.00679
G1 X53.818 Y145.182 E.03017
G1 X43.818 Y135.182 E.53749
G1 X42.593 Y133.396 E.08232
G1 X42.086 Y131 E.09307
G1 X42.086 Y47 E3.19253
G1 X42.482 Y44.871 E.08232
G1 X43.598 Y43.061 E.0808
G1 X44 Y43.322 F9000
G1 F900
G1 X44.071 Y43.213 E.00492
G1 X45.773 Y42.018 E.07905
G1 X48 Y41.543 E.08655
G1 X172 Y41.543 E4.71278
G1 X174.042 Y41.939 E.07905
G1 X175.787 Y43.071 E.07905
G1 X176.982 Y44.773 E.07905
G1 X177.457 Y47 E.08655
G1 X177.457 Y131 E3.19253
G1 X177.061 Y133.042 E.07905
G1 X175.859 Y134.859 E.0828
G1 X165.307 Y145.341 E.56527
M73 P1 R80
G1 X123.307 Y177.341 E2.00679
G1 X121.443 Y178.263 E.07905
G1 X120 Y178.457 E.05534
G1 X100 Y178.457 E.76013
G1 X97.958 Y178.061 E.07905
G1 X96.693 Y177.341 E.05534
G1 X54.693 Y145.341 E2.00679
G1 X44.141 Y134.859 E.56527
G1 X42.978 Y133.135 E.07905
G1 X42.543 Y131 E.0828
G1 X42.543 Y47 E3.19253
G1 X42.939 Y44.958 E.07905
G1 X43.979 Y43.355 E.07261
; printing object flowrate_m3 id:3 copy 0
G1 E-3.5 F3600
;WIPE_START
G1 F900
G1 X44.071 Y43.213 E-.25411
G1 X44.75 Y42.736 E-1.24589
;WIPE_END
EXCLUDE_OBJECT_START NAME=flowrate_m3_id_3_copy_0
G1 Z.6 F9000
G1 X143.141 Y130.835 Z.6
G1 Z.2
G1 E5 F2400
;TYPE:Inner wall
;WIDTH:0.499999
G1 F900
G1 X143.116 Y130.65 E.00689
G1 X142.969 Y130.339 E.01269
G1 X142.707 Y130.064 E.01399
G1 X142.392 Y129.898 E.01314
G1 X142.021 Y129.836 E.01385
G1 X133.164 Y129.836 E.32653
G1 X133.164 Y112.164 E.65149
G1 X170.836 Y112.164 E1.38881
G1 X170.836 Y121 E.32574
G1 X170.836 Y129.836 E.32574
G1 X162 Y129.836 E.32574
G1 X161.789 Y129.852 E.00779
G1 X161.441 Y129.97 E.01358
G1 X161.113 Y130.233 E.01548
G1 X160.909 Y130.577 E.01477
G1 X160.836 Y130.979 E.01503
G1 X160.836 Y139.836 E.32653
G1 X143.164 Y139.836 E.65149
G1 X143.164 Y131 E.32574
G1 X143.147 Y130.875 E.00465
G1 X142.695 Y130.909 F9000
G1 F900
G1 X142.678 Y130.782 E.00472
G1 X142.541 Y130.531 E.01053
G1 X142.295 Y130.35 E.01125
G1 X142.021 Y130.293 E.01031
G1 X132.707 Y130.293 E.34338
M73 P1 R79
G1 X132.707 Y111.707 E.68519
G1 X171.293 Y111.707 E1.42251
G1 X171.293 Y121 E.34259
G1 X171.293 Y130.293 E.34259
G1 X162 Y130.293 E.34259
G1 X161.81 Y130.314 E.00706
G1 X161.528 Y130.462 E.01174
G1 X161.353 Y130.697 E.0108
G1 X161.293 Y130.979 E.01061
G1 X161.293 Y140.293 E.34338
G1 X142.707 Y140.293 E.68519
G1 X142.707 Y131 E.34259
G1 X142.7 Y130.948 E.00193
G1 X142.25 Y130.979 F9000
;TYPE:Outer wall
G1 F900
G1 X142.184 Y130.818 E.00642
G1 X142.021 Y130.75 E.00648
G1 X132.25 Y130.75 E.36024
G1 X132.25 Y111.25 E.71889
G1 X171.75 Y111.25 E1.45621
G1 X171.75 Y121 E.35944
G1 X171.75 Y130.75 E.35944
G1 X161.979 Y130.75 E.36024
G1 X161.816 Y130.818 E.00648
G1 X161.75 Y130.979 E.00642
G1 X161.75 Y140.75 E.36024
G1 X142.25 Y140.75 E.71889
G1 X142.25 Y131.019 E.35876
G1 E-5 F3600
G1 Z.6 F9000
G1 X170.69 Y113.244 Z.6
G1 Z.2
G1 E5 F2400
;TYPE:Bottom surface
;WIDTH:0.504641
G1 F1200
G1 X169.961 Y112.516 E.03835
G1 X169.308 Y112.516 E.02432
G1 X170.484 Y113.692 E.0619
G1 X170.484 Y114.344 E.02432
G1 X168.656 Y112.516 E.09629
G1 X168.003 Y112.516 E.02432
G1 X170.484 Y114.997 E.13068
G1 X170.484 Y115.65 E.02432
G1 X167.35 Y112.516 E.16507
G1 X166.697 Y112.516 E.02432
G1 X170.484 Y116.303 E.19946
G1 X170.484 Y116.956 E.02432
G1 X166.044 Y112.516 E.23385
G1 X165.391 Y112.516 E.02432
G1 X170.484 Y117.609 E.26824
G1 X170.484 Y118.262 E.02432
G1 X164.738 Y112.516 E.30263
G1 X164.085 Y112.516 E.02432
G1 X170.484 Y118.915 E.33702
M73 P2 R79
G1 X170.484 Y119.568 E.02432
G1 X163.432 Y112.516 E.37141
G1 X162.779 Y112.516 E.02432
G1 X170.484 Y120.221 E.4058
G1 X170.484 Y120.874 E.02432
G1 X162.126 Y112.516 E.44019
G1 X161.473 Y112.516 E.02432
G1 X170.484 Y121.527 E.47458
G1 X170.484 Y122.18 E.02432
G1 X160.82 Y112.516 E.50897
G1 X160.167 Y112.516 E.02432
G1 X170.484 Y122.833 E.54336
G1 X170.484 Y123.486 E.02432
G1 X159.514 Y112.516 E.57775
G1 X158.861 Y112.516 E.02432
G1 X170.484 Y124.139 E.61214
G1 X170.484 Y124.792 E.02432
G1 X158.208 Y112.516 E.64653
G1 X157.555 Y112.516 E.02432
G1 X170.484 Y125.445 E.68091
G1 X170.484 Y126.098 E.02432
G1 X156.902 Y112.516 E.7153
G1 X156.249 Y112.516 E.02432
G1 X170.484 Y126.751 E.74969
G1 X170.484 Y127.404 E.02432
G1 X155.596 Y112.516 E.78408
G1 X154.943 Y112.516 E.02432
G1 X170.484 Y128.057 E.81847
G1 X170.484 Y128.71 E.02432
G1 X154.29 Y112.516 E.85286
G1 X153.637 Y112.516 E.02432
G1 X170.484 Y129.363 E.88725
G1 X170.484 Y129.484 E.00451
G1 X169.952 Y129.484 E.0198
G1 X152.984 Y112.516 E.89365
G1 X152.331 Y112.516 E.02432
G1 X169.3 Y129.485 E.89366
G1 X168.647 Y129.485 E.0243
G1 X151.678 Y112.516 E.89368
G1 X151.025 Y112.516 E.02432
G1 X167.994 Y129.485 E.8937
G1 X167.342 Y129.486 E.0243
G1 X150.372 Y112.516 E.89372
G1 X149.719 Y112.516 E.02432
G1 X166.689 Y129.486 E.89374
G1 X166.037 Y129.486 E.0243
G1 X149.066 Y112.516 E.89376
G1 X148.413 Y112.516 E.02432
G1 X165.384 Y129.487 E.89378
G1 X164.731 Y129.487 E.0243
G1 X147.76 Y112.516 E.89379
G1 X147.107 Y112.516 E.02432
G1 X164.079 Y129.487 E.89381
G1 X163.426 Y129.488 E.0243
G1 X146.454 Y112.516 E.89383
G1 X145.801 Y112.516 E.02432
G1 X162.774 Y129.488 E.89385
G1 X162.121 Y129.489 E.0243
G1 X145.149 Y112.516 E.89387
G1 X144.496 Y112.516 E.02432
G1 X161.535 Y129.555 E.89739
G1 X161.382 Y129.608 E.00603
G1 X161.173 Y129.719 E.0088
G1 X161.102 Y129.776 E.00338
G1 X143.843 Y112.516 E.909
G1 X143.19 Y112.516 E.02432
G1 X160.774 Y130.1 E.92608
G1 X160.615 Y130.366 E.01153
G1 X160.558 Y130.537 E.00672
G1 X142.537 Y112.516 E.94909
G1 X141.884 Y112.516 E.02432
G1 X160.488 Y131.12 E.9798
G1 X160.487 Y131.773 E.02431
G1 X141.231 Y112.516 E1.01417
M73 P2 R78
G1 X140.578 Y112.516 E.02432
G1 X160.487 Y132.425 E1.04855
G1 X160.487 Y133.078 E.02431
G1 X139.925 Y112.516 E1.08292
G1 X139.272 Y112.516 E.02432
G1 X160.486 Y133.731 E1.11729
G1 X160.486 Y134.384 E.02431
G1 X138.619 Y112.516 E1.15167
G1 X137.966 Y112.516 E.02432
G1 X160.486 Y135.036 E1.18604
G1 X160.486 Y135.689 E.02431
G1 X137.313 Y112.516 E1.22042
G1 X136.66 Y112.516 E.02432
G1 X160.485 Y136.342 E1.25479
M73 P3 R78
G1 X160.485 Y136.994 E.02431
G1 X136.007 Y112.516 E1.28917
G1 X135.354 Y112.516 E.02432
G1 X160.485 Y137.647 E1.32354
G1 X160.484 Y138.3 E.02431
G1 X134.701 Y112.516 E1.35791
G1 X134.048 Y112.516 E.02432
G1 X160.484 Y138.952 E1.39229
G1 X160.484 Y139.484 E.0198
G1 X160.363 Y139.484 E.00451
G1 X133.516 Y112.637 E1.41391
G1 X133.516 Y113.29 E.02432
G1 X159.71 Y139.484 E1.37952
G1 X159.057 Y139.484 E.02432
G1 X133.516 Y113.943 E1.34513
G1 X133.516 Y114.596 E.02432
G1 X158.404 Y139.484 E1.31074
G1 X157.751 Y139.484 E.02432
G1 X133.516 Y115.249 E1.27635
G1 X133.516 Y115.902 E.02432
G1 X157.098 Y139.484 E1.24196
G1 X156.445 Y139.484 E.02432
G1 X133.516 Y116.555 E1.20757
G1 X133.516 Y117.208 E.02432
G1 X155.792 Y139.484 E1.17318
G1 X155.139 Y139.484 E.02432
G1 X133.516 Y117.861 E1.13879
G1 X133.516 Y118.514 E.02432
G1 X154.486 Y139.484 E1.10441
G1 X153.833 Y139.484 E.02432
G1 X133.516 Y119.167 E1.07002
G1 X133.516 Y119.82 E.02432
G1 X153.18 Y139.484 E1.03563
G1 X152.527 Y139.484 E.02432
G1 X133.516 Y120.473 E1.00124
G1 X133.516 Y121.126 E.02432
G1 X141.879 Y129.489 E.44043
G1 X141.225 Y129.488 E.02433
G1 X133.516 Y121.779 E.40602
G1 X133.516 Y122.432 E.02432
G1 X140.572 Y129.488 E.37161
G1 X139.919 Y129.487 E.02433
G1 X133.516 Y123.085 E.33721
G1 X133.516 Y123.738 E.02432
G1 X139.265 Y129.487 E.3028
G1 X138.612 Y129.487 E.02433
G1 X133.516 Y124.391 E.26839
G1 X133.516 Y125.044 E.02432
G1 X137.959 Y129.486 E.23398
G1 X137.306 Y129.486 E.02433
G1 X133.516 Y125.697 E.19957
G1 X133.516 Y126.35 E.02432
G1 X136.652 Y129.486 E.16517
G1 X135.999 Y129.485 E.02433
G1 X133.516 Y127.003 E.13076
G1 X133.516 Y127.656 E.02432
G1 X135.346 Y129.485 E.09635
G1 X134.692 Y129.485 E.02433
G1 X133.516 Y128.309 E.06194
G1 X133.516 Y128.961 E.02432
G1 X134.245 Y129.69 E.03837
G1 E-5 F3600
G1 Z.6 F9000
G1 X143.307 Y130.916 Z.6
G1 Z.2
G1 E5 F2400
G1 F1200
G1 X151.874 Y139.484 E.45122
G1 X151.221 Y139.484 E.02432
G1 X143.513 Y131.775 E.40598
G1 X143.513 Y132.429 E.02433
G1 X150.568 Y139.484 E.37157
G1 X149.915 Y139.484 E.02432
G1 X143.513 Y133.082 E.33717
G1 X143.514 Y133.735 E.02433
G1 X149.262 Y139.484 E.30277
G1 X148.609 Y139.484 E.02432
G1 X143.514 Y134.388 E.26836
G1 X143.514 Y135.042 E.02433
G1 X147.956 Y139.484 E.23396
G1 X147.303 Y139.484 E.02432
G1 X143.514 Y135.695 E.19955
G1 X143.515 Y136.348 E.02433
G1 X146.65 Y139.484 E.16515
G1 X145.997 Y139.484 E.02432
G1 X143.515 Y137.001 E.13074
G1 X143.515 Y137.655 E.02433
G1 X145.344 Y139.484 E.09634
G1 X144.691 Y139.484 E.02432
G1 X143.516 Y138.308 E.06193
G1 X143.516 Y138.961 E.02433
G1 X144.244 Y139.69 E.03836
; stop printing object flowrate_m3 id:3 copy 0
; printing object flowrate_m6 id:6 copy 0
G1 E-3.5 F3600
;WIPE_START
G1 F1200
G1 X143.537 Y138.982 E-1.5
;WIPE_END
EXCLUDE_OBJECT_END NAME=flowrate_m3_id_3_copy_0
EXCLUDE_OBJECT_START NAME=flowrate_m6_id_6_copy_0
G1 Z.6 F9000
G1 X143.141 Y98.835 Z.6
G1 Z.2
G1 E5 F2400
;TYPE:Inner wall
;WIDTH:0.499999
G1 F900
G1 X143.116 Y98.65 E.00668
G1 X142.969 Y98.339 E.01229
G1 X142.707 Y98.064 E.01355
G1 X142.392 Y97.898 E.01273
G1 X142.021 Y97.836 E.01342
G1 X133.164 Y97.836 E.31644
G1 X133.164 Y80.164 E.63134
G1 X170.836 Y80.164 E1.34585
G1 X170.836 Y89 E.31567
G1 X170.836 Y97.836 E.31567
G1 X162 Y97.836 E.31567
G1 X161.789 Y97.852 E.00754
G1 X161.441 Y97.97 E.01316
G1 X161.113 Y98.233 E.015
G1 X160.909 Y98.577 E.01432
G1 X160.836 Y98.979 E.01457
G1 X160.836 Y107.836 E.31644
M73 P4 R78
G1 X143.164 Y107.836 E.63134
M73 P4 R77
G1 X143.164 Y99 E.31567
G1 X143.147 Y98.875 E.00451
G1 X142.695 Y98.909 F9000
G1 F900
G1 X142.678 Y98.782 E.00458
G1 X142.541 Y98.531 E.01021
G1 X142.295 Y98.35 E.0109
G1 X142.021 Y98.293 E.00999
G1 X132.707 Y98.293 E.33276
G1 X132.707 Y79.707 E.664
G1 X171.293 Y79.707 E1.37851
G1 X171.293 Y89 E.332
G1 X171.293 Y98.293 E.332
G1 X162 Y98.293 E.332
G1 X161.81 Y98.314 E.00684
G1 X161.528 Y98.462 E.01138
G1 X161.353 Y98.697 E.01046
G1 X161.293 Y98.979 E.01028
G1 X161.293 Y108.293 E.33276
G1 X142.707 Y108.293 E.664
G1 X142.707 Y99 E.332
G1 X142.7 Y98.948 E.00187
G1 X142.25 Y98.979 F9000
;TYPE:Outer wall
G1 F900
G1 X142.184 Y98.818 E.00622
G1 X142.021 Y98.75 E.00628
G1 X132.25 Y98.75 E.34909
G1 X132.25 Y79.25 E.69666
G1 X171.75 Y79.25 E1.41117
G1 X171.75 Y89 E.34833
G1 X171.75 Y98.75 E.34833
G1 X161.979 Y98.75 E.34909
G1 X161.816 Y98.818 E.00628
G1 X161.75 Y98.979 E.00622
G1 X161.75 Y108.75 E.34909
G1 X142.25 Y108.75 E.69666
G1 X142.25 Y99.019 E.34767
G1 E-5 F3600
G1 Z.6 F9000
G1 X170.69 Y81.244 Z.6
G1 Z.2
G1 E5 F2400
;TYPE:Bottom surface
;WIDTH:0.504641
G1 F1200
G1 X169.961 Y80.516 E.03716
G1 X169.308 Y80.516 E.02356
G1 X170.484 Y81.692 E.05999
G1 X170.484 Y82.344 E.02356
G1 X168.656 Y80.516 E.09332
G1 X168.003 Y80.516 E.02356
G1 X170.484 Y82.997 E.12664
G1 X170.484 Y83.65 E.02356
G1 X167.35 Y80.516 E.15997
G1 X166.697 Y80.516 E.02356
G1 X170.484 Y84.303 E.19329
G1 X170.484 Y84.956 E.02356
G1 X166.044 Y80.516 E.22662
G1 X165.391 Y80.516 E.02356
G1 X170.484 Y85.609 E.25995
G1 X170.484 Y86.262 E.02356
G1 X164.738 Y80.516 E.29327
G1 X164.085 Y80.516 E.02356
G1 X170.484 Y86.915 E.3266
G1 X170.484 Y87.568 E.02356
G1 X163.432 Y80.516 E.35992
G1 X162.779 Y80.516 E.02356
G1 X170.484 Y88.221 E.39325
