; HEADER_BLOCK_START
; generated by OrcaSlicer 1.7.0 on 2023-12-17 at 17:09:53
; total layer number: 43
; HEADER_BLOCK_END

; THUMBNAIL_BLOCK_START
; THUMBNAIL_BLOCK_END

; external perimeters extrusion width = 0.40mm
; perimeters extrusion width = 0.45mm
; infill extrusion width = 0.45mm
; solid infill extrusion width = 0.40mm
; top infill extrusion width = 0.40mm
; first layer extrusion width = 0.50mm

; EXECUTABLE_BLOCK_START
EXCLUDE_OBJECT_DEFINE NAME=Gridfinity_Caliper_Holder_-_Gridfinity_Caliper_Holder.stl_id_0_copy_0 CENTER=110,110 POLYGON=[[68.25,93],[68.2675,92.6385],[68.2705,92.608],[68.3266,92.2457],[68.3319,92.2203],[68.427,91.8614],[68.4335,91.8412],[68.5675,91.4898],[68.5742,91.4747],[68.7465,91.1352],[68.7524,91.125],[68.962,90.8015],[68.9662,90.7958],[69.2116,90.4925],[69.2132,90.4908],[69.4908,90.2132],[69.4925,90.2116],[69.7958,89.9662],[69.8015,89.962],[70.125,89.7524],[70.1352,89.7465],[70.4747,89.5742],[70.4898,89.5675],[70.8412,89.4335],[70.8614,89.427],[71.2203,89.3319],[71.2457,89.3266],[71.608,89.2705],[71.6385,89.2675],[72,89.25],[148,89.25],[148.392,89.2705],[148.78,89.3319],[149.159,89.4335],[149.525,89.5742],[149.875,89.7524],[150.204,89.9662],[150.509,90.2132],[150.787,90.4908],[151.034,90.7958],[151.248,91.125],[151.426,91.4747],[151.566,91.8412],[151.668,92.2203],[151.729,92.608],[151.75,93],[151.75,127],[151.748,127.11],[151.729,127.392],[151.715,127.514],[151.668,127.78],[151.638,127.911],[151.566,128.159],[151.518,128.298],[151.426,128.525],[151.358,128.67],[151.248,128.875],[151.158,129.022],[151.034,129.204],[150.922,129.35],[150.787,129.509],[150.652,129.652],[150.509,129.787],[150.35,129.922],[150.204,130.034],[150.022,130.158],[149.875,130.248],[149.67,130.358],[149.525,130.426],[149.298,130.518],[149.159,130.566],[148.911,130.638],[148.78,130.668],[148.514,130.715],[148.392,130.729],[148.11,130.748],[148,130.75],[72,130.75],[71.6408,130.733],[71.6385,130.733],[71.608,130.729],[71.2503,130.674],[71.2457,130.673],[71.2203,130.668],[70.8681,130.575],[70.8614,130.573],[70.8412,130.566],[70.4985,130.436],[70.4898,130.432],[70.4747,130.426],[70.1454,130.259],[70.1352,130.253],[70.125,130.248],[69.813,130.046],[69.8015,130.038],[69.7958,130.034],[69.5048,129.799],[69.4925,129.788],[69.4908,129.787],[69.2243,129.521],[69.2116,129.507],[68.9745,129.216],[68.9662,129.204],[68.962,129.198],[68.7583,128.885],[68.7524,128.875],[68.7465,128.865],[68.578,128.534],[68.5742,128.525],[68.5675,128.51],[68.4357,128.166],[68.4335,128.159],[68.427,128.139],[68.3329,127.784],[68.3319,127.78],[68.3266,127.754],[68.2708,127.394],[68.2705,127.392],[68.2675,127.361],[68.25,127],[68.25,93]]
M73 P0 R70
;TYPE:Custom
START_PRINT EXTRUDER_TEMP=255  BED_TEMP=80
G90
G21
M83 ; use relative distances for extrusion
; filament start gcode
M106 S0
;LAYER_CHANGE
;Z:0.3
;HEIGHT:0.3
;BEFORE_LAYER_CHANGE
;0.3
G92 E0

G1 E-5 F1800
;_SET_FAN_SPEED_CHANGING_LAYER
G1 X62.684 Y81.176 F9000
G1 Z.4
G1 Z.3
G1 E5 F1800
;TYPE:Skirt
;WIDTH:0.5
G1 F900
G1 X63.975 Y80.265 E.08156
G1 X65.354 Y79.493 E.08156
G1 X66.432 Y79.015 E.06085
G1 X67.915 Y78.512 E.08083
G1 X69.452 Y78.164 E.08133
G1 X71.408 Y77.959 E.10155
G1 X148.592 Y77.959 E3.98392
G1 X150.548 Y78.164 E.10155
G1 X152.085 Y78.512 E.08133
G1 X153.211 Y78.878 E.06109
G1 X154.658 Y79.5 E.08132
G1 X156.033 Y80.27 E.08133
G1 X157.625 Y81.426 E.10155
G1 X158.782 Y82.496 E.08133
G1 X159.821 Y83.68 E.08132
G1 X160.517 Y84.638 E.06109
G1 X161.322 Y85.992 E.08133
G1 X162.122 Y87.789 E.10155
G1 X162.59 Y89.294 E.08134
G1 X162.897 Y90.839 E.08132
G1 X163.057 Y93 E.11186
G1 X163.056 Y127.084 E1.75928
G1 X162.927 Y128.961 E.09708
G1 X162.661 Y130.429 E.07702
G1 X162.213 Y131.969 E.08277
G1 X161.589 Y133.481 E.08447
G1 X160.84 Y134.863 E.08111
G1 X159.938 Y136.173 E.08209
G1 X158.886 Y137.401 E.08346
G1 X157.565 Y138.625 E.09297
G1 X156.061 Y139.715 E.09589
G1 X154.343 Y140.655 E.10107
G1 X152.281 Y141.434 E.11374
G1 X150.378 Y141.865 E.10072
G1 X148.251 Y142.054 E.11026
G1 X71.408 Y142.041 E3.96631
M73 P0 R69
G1 X69.524 Y141.849 E.09774
G1 X67.958 Y141.499 E.08285
G1 X66.432 Y140.985 E.08312
G1 X65.043 Y140.349 E.07884
G1 X64.034 Y139.772 E.06001
G1 X62.733 Y138.862 E.08194
G1 X61.255 Y137.542 E.10231
G1 X60.207 Y136.355 E.08171
G1 X59.257 Y135.015 E.0848
G1 X58.512 Y133.683 E.07877
G1 X58.028 Y132.602 E.06116
G1 X57.517 Y131.103 E.08171
G1 X57.166 Y129.56 E.08169
G1 X56.98 Y127.988 E.0817
G1 X56.98 Y92.003 E1.85741
G1 X57.162 Y90.466 E.07988
G1 X57.407 Y89.309 E.06104
G1 X57.876 Y87.795 E.08186
G1 X58.479 Y86.383 E.07921
G1 X59.265 Y84.975 E.08324
G1 X60.424 Y83.378 E.10184
G1 X61.496 Y82.218 E.08156
G1 X62.654 Y81.202 E.0795
G1 X62.941 Y81.53 F9000
G1 F900
G1 X62.958 Y81.515 E.00119
G1 X64.212 Y80.63 E.0792
G1 X65.552 Y79.882 E.0792
G1 X66.588 Y79.421 E.05851
G1 X68.028 Y78.933 E.07849
G1 X69.52 Y78.595 E.07897
G1 X71.431 Y78.394 E.0992
G1 X148.569 Y78.394 E3.98157
G1 X150.48 Y78.595 E.0992
G1 X151.972 Y78.933 E.07898
G1 X153.055 Y79.284 E.05874
G1 X154.461 Y79.888 E.07897
G1 X155.796 Y80.635 E.07897
G1 X157.351 Y81.765 E.0992
G1 X158.474 Y82.804 E.07898
G1 X159.482 Y83.954 E.07897
G1 X160.151 Y84.875 E.05874
G1 X160.934 Y86.19 E.07897
G1 X161.716 Y87.945 E.09919
G1 X162.169 Y89.407 E.07898
G1 X162.467 Y90.907 E.07896
G1 X162.621 Y93 E.10833
G1 X162.62 Y127.084 E1.75928
G1 X162.496 Y128.9 E.09395
G1 X162.236 Y130.331 E.07504
G1 X161.801 Y131.826 E.08038
G1 X161.197 Y133.29 E.08177
G1 X160.467 Y134.637 E.07903
G1 X159.595 Y135.904 E.07945
G1 X158.57 Y137.101 E.08132
G1 X157.286 Y138.291 E.09037
G1 X155.83 Y139.346 E.09281
G1 X154.157 Y140.261 E.0984
G1 X152.161 Y141.015 E.11014
G1 X150.305 Y141.436 E.09821
G1 X148.244 Y141.619 E.10681
G1 X71.431 Y141.606 E3.9648
G1 X69.591 Y141.418 E.09548
G1 X68.069 Y141.078 E.08049
G1 X66.588 Y140.579 E.08069
G1 X65.239 Y139.96 E.07655
G1 X64.269 Y139.406 E.0577
G1 X63.006 Y138.523 E.07957
G1 X61.562 Y137.233 E.09994
G1 X60.545 Y136.08 E.07934
G1 X59.623 Y134.778 E.08232
G1 X58.9 Y133.485 E.07651
G1 X58.434 Y132.445 E.0588
G1 X57.938 Y130.99 E.07934
G1 X57.535 Y129.102 E.09964
G1 X57.394 Y127.572 E.07934
G1 X57.415 Y92.026 E1.8347
M73 P1 R69
G1 X57.592 Y90.534 E.07757
G1 X57.827 Y89.422 E.05869
G1 X58.282 Y87.95 E.0795
G1 X58.868 Y86.58 E.07693
G1 X59.63 Y85.212 E.08082
G1 X60.762 Y83.652 E.09948
G1 X61.804 Y82.526 E.0792
G1 X62.911 Y81.556 E.07595
G1 X63.198 Y81.884 F9000
G1 F900
G1 X63.232 Y81.853 E.00238
G1 X64.449 Y80.995 E.07684
G1 X65.749 Y80.27 E.07684
G1 X66.743 Y79.828 E.05616
G1 X68.14 Y79.353 E.07615
G1 X69.976 Y78.963 E.09685
G1 X72 Y78.814 E.10478
G1 X148.546 Y78.829 E3.95102
G1 X150.412 Y79.025 E.09684
G1 X151.86 Y79.353 E.07662
G1 X152.899 Y79.691 E.05639
G1 X154.263 Y80.276 E.07662
G1 X155.559 Y81 E.07662
G1 X157.077 Y82.103 E.09684
G1 X158.166 Y83.112 E.07663
G1 X159.144 Y84.228 E.07662
G1 X159.786 Y85.112 E.05639
G1 X160.546 Y86.387 E.07662
G1 X161.309 Y88.101 E.09684
G1 X161.748 Y89.519 E.07663
G1 X162.037 Y90.975 E.07661
G1 X162.186 Y93 E.1048
G1 X162.184 Y127.084 E1.75928
G1 X162.064 Y128.84 E.09083
G1 X161.812 Y130.233 E.07306
G1 X161.39 Y131.683 E.07799
G1 X160.805 Y133.1 E.07907
G1 X160.095 Y134.41 E.07694
G1 X159.252 Y135.636 E.0768
G1 X158.254 Y136.801 E.07918
G1 X157.007 Y137.957 E.08778
G1 X155.599 Y138.976 E.08973
G1 X153.972 Y139.867 E.09573
G1 X152.041 Y140.596 E.10654
G1 X150.232 Y141.006 E.09571
G1 X148.238 Y141.183 E.10337
G1 X71.454 Y141.171 E3.96329
G1 X69.657 Y140.988 E.09321
G1 X68.18 Y140.657 E.07814
G1 X66.744 Y140.172 E.07826
G1 X65.436 Y139.572 E.07426
G1 X64.504 Y139.039 E.05538
G1 X63.278 Y138.183 E.07719
G1 X61.869 Y136.924 E.09757
G1 X60.882 Y135.805 E.07697
G1 X59.989 Y134.542 E.07984
G1 X59.287 Y133.286 E.07426
G1 X58.841 Y132.288 E.05644
G1 X58.358 Y130.877 E.07698
G1 X57.965 Y129.034 E.09728
G1 X57.829 Y127.549 E.07697
G1 X57.85 Y92.05 E1.83232
G1 X58.022 Y90.602 E.07526
G1 X58.248 Y89.534 E.05634
G1 X58.689 Y88.106 E.07714
G1 X59.257 Y86.776 E.07465
G1 X59.996 Y85.449 E.07839
G1 X61.101 Y83.926 E.09712
G1 X62.112 Y82.834 E.07684
G1 X63.167 Y81.91 E.0724
; printing object Gridfinity Caliper Holder - Gridfinity Caliper Holder.stl id:0 copy 0
G1 E-3.5 F1800
;WIPE_START
G1 F900
G1 X63.232 Y81.853 E-.25851
G1 X63.571 Y81.615 E-1.24149
;WIPE_END
EXCLUDE_OBJECT_START NAME=Gridfinity_Caliper_Holder_-_Gridfinity_Caliper_Holder.stl_id_0_copy_0
G17
G3 Z.7 I-1.074 J.572 P1  F9000
G1 X69.425 Y92.6 Z.7
G1 Z.3
G1 E5 F1800
;TYPE:Inner wall
;WIDTH:0.5
G1 F900
G1 X69.494 Y92.215 E.02016
G1 X69.727 Y91.691 E.02964
G1 X70.051 Y91.245 E.0284
G1 X70.459 Y90.878 E.02838
G1 X70.936 Y90.603 E.02841
G1 X71.454 Y90.435 E.02812
G1 X72.058 Y90.371 E.03132
G1 X147.951 Y90.376 E3.91733
G1 X148.39 Y90.416 E.02276
G1 X148.914 Y90.554 E.02793
G1 X149.401 Y90.797 E.02808
G1 X149.828 Y91.136 E.02815
G1 X150.176 Y91.558 E.02823
G1 X150.429 Y92.044 E.02831
G1 X150.59 Y92.641 E.03192
G1 X150.629 Y93.067 E.02209
G1 X150.628 Y127.012 E1.75209
G1 X150.548 Y127.624 E.03189
G1 X150.456 Y127.894 E.01467
G1 X150.226 Y128.392 E.02833
G1 X149.892 Y128.81 E.02762
G1 X149.443 Y129.193 E.03048
G1 X149.007 Y129.418 E.02531
G1 X148.573 Y129.545 E.02333
G1 X147.971 Y129.629 E.03141
G1 X72.056 Y129.629 E3.91843
M73 P1 R68
G1 X71.479 Y129.57 E.02993
G1 X70.933 Y129.396 E.02958
G1 X70.47 Y129.13 E.02758
G1 X70.053 Y128.758 E.02881
G1 X69.9 Y128.552 E.01326
G1 X69.612 Y128.088 E.02818
G1 X69.435 Y127.548 E.02935
G1 X69.371 Y126.942 E.03145
G1 X69.375 Y93.202 E1.74155
G1 X69.404 Y92.722 E.02481
G1 X69.418 Y92.639 E.00432
G1 X68.998 Y92.526 F9000
G1 F900
G1 X69.082 Y92.07 E.02396
G1 X69.348 Y91.472 E.03378
G1 X69.725 Y90.952 E.03313
G1 X70.202 Y90.523 E.03312
G1 X70.758 Y90.202 E.03314
G1 X71.363 Y90.006 E.03284
G1 X72.035 Y89.936 E.03486
G1 X148.057 Y89.941 E3.92394
M73 P2 R68
G1 X148.634 Y90.005 E.02999
G1 X149.245 Y90.204 E.03315
G1 X149.799 Y90.524 E.03303
G1 X150.275 Y90.952 E.03303
G1 X150.651 Y91.47 E.03303
G1 X150.911 Y92.054 E.03303
G1 X151.016 Y92.55 E.02619
G1 X151.064 Y93.067 E.02679
G1 X151.063 Y127.04 E1.75355
G1 X150.974 Y127.723 E.03558
G1 X150.795 Y128.251 E.02877
G1 X150.478 Y128.788 E.03216
G1 X150.05 Y129.275 E.03351
G1 X149.49 Y129.668 E.03529
G1 X148.957 Y129.909 E.03018
G1 X148.539 Y129.997 E.02205
G1 X147.982 Y130.064 E.02896
G1 X72.034 Y130.064 E3.92016
G1 X71.39 Y129.999 E.03342
G1 X70.756 Y129.797 E.03432
G1 X70.213 Y129.485 E.03231
G1 X69.73 Y129.054 E.03345
G1 X69.49 Y128.73 E.02082
G1 X69.21 Y128.26 E.02821
G1 X69.007 Y127.639 E.03373
G1 X68.936 Y126.965 E.03501
G1 X68.94 Y93.201 E1.74273
G1 X68.971 Y92.673 E.0273
G1 X68.991 Y92.566 E.00566
G1 X68.558 Y92.447 F9000
;TYPE:Outer wall
G1 F900
G1 X68.67 Y91.924 E.02758
G1 X68.969 Y91.253 E.03792
G1 X69.4 Y90.659 E.03787
G1 X69.945 Y90.169 E.03786
G1 X70.58 Y89.802 E.03787
G1 X71.273 Y89.578 E.03756
G1 X72.012 Y89.5 E.03839
G1 X148.081 Y89.505 E3.92638
G1 X148.727 Y89.577 E.03353
G1 X149.423 Y89.804 E.03779
G1 X150.057 Y90.169 E.03775
G1 X150.6 Y90.659 E.03775
G1 X151.03 Y91.251 E.03775
G1 X151.328 Y91.919 E.03775
G1 X151.443 Y92.46 E.02855
G1 X151.5 Y93.067 E.03149
G1 X151.499 Y127.068 E1.75501
G1 X151.4 Y127.823 E.03927
G1 X151.196 Y128.425 E.03284
G1 X150.967 Y128.854 E.02509
G1 X150.522 Y129.411 E.03682
G1 X150.134 Y129.76 E.02691
G1 X149.705 Y130.046 E.02662
G1 X149.085 Y130.327 E.03517
G1 X148.63 Y130.424 E.02402
G1 X147.993 Y130.5 E.03307
G1 X72.012 Y130.5 E3.92188
G1 X71.3 Y130.428 E.03691
G1 X70.58 Y130.198 E.03905
G1 X69.957 Y129.84 E.03704
G1 X69.407 Y129.349 E.03809
G1 X69.14 Y128.989 E.02311
G1 X68.807 Y128.432 E.03348
G1 X68.578 Y127.731 E.0381
G1 X68.5 Y126.988 E.03857
G1 X68.504 Y93.127 E1.74776
G1 X68.554 Y92.486 E.03316
G1 E-3.5 F1800
;WIPE_START
G1 F900
G1 X68.655 Y91.997 E-1.5
;WIPE_END
G17
G3 Z.7 I-.016 J1.217 P1  F9000
G1 X146.681 Y93.029 Z.7
G1 Z.3
G1 E5 F1800
;TYPE:Inner wall
G1 F900
G1 X146.882 Y93.029 E.01041
G1 X147.342 Y93.13 E.02429
G1 X147.611 Y93.308 E.01666
G1 X147.85 Y93.619 E.02022
G1 X147.971 Y94.118 E.02651
G1 X147.971 Y111.182 E.8808
G1 X147.912 Y111.535 E.01848
G1 X147.753 Y111.836 E.01753
G1 X147.536 Y112.053 E.0159
G1 X147.301 Y112.187 E.01394
G1 X146.882 Y112.271 E.02205
G1 X126.818 Y112.271 E1.03565
G1 X126.326 Y112.154 E.02609
G1 X125.999 Y111.9 E.02135
G1 X125.759 Y111.439 E.02684
G1 X125.729 Y110.699 E.03822
G1 X125.729 Y94.118 E.85587
G1 X125.813 Y93.699 E.02205
G1 X125.947 Y93.464 E.01394
G1 X126.164 Y93.247 E.0159
G1 X126.465 Y93.088 E.01753
G1 X126.818 Y93.029 E.01848
G1 X146.641 Y93.029 E1.02317
G1 X146.855 Y93.464 F9000
G1 F900
G1 X146.882 Y93.464 E.0014
G1 X147.221 Y93.559 E.01815
G1 X147.319 Y93.632 E.00634
G1 X147.477 Y93.847 E.01373
G1 X147.536 Y94.118 E.01432
G1 X147.536 Y111.182 E.8808
G1 X147.5 Y111.394 E.01109
G1 X147.405 Y111.574 E.01052
G1 X147.134 Y111.785 E.01775
G1 X146.882 Y111.836 E.01323
G1 X126.818 Y111.836 E1.03565
G1 X126.523 Y111.765 E.01566
G1 X126.283 Y111.558 E.01638
G1 X126.17 Y111.267 E.0161
G1 X126.164 Y110.699 E.02929
G1 X126.164 Y94.118 E.85587
G1 X126.215 Y93.866 E.01323
G1 X126.426 Y93.595 E.01775
G1 X126.705 Y93.474 E.0157
G1 X126.818 Y93.464 E.00585
G1 X146.815 Y93.464 E1.03218
G1 X147.028 Y93.956 F9000
;TYPE:Outer wall
G1 F900
G1 X147.1 Y94.118 E.00915
G1 X147.1 Y111.182 E.8808
G1 X147.056 Y111.313 E.00711
G1 X146.921 Y111.396 E.00819
M73 P3 R68
G1 X146.882 Y111.4 E.00204
G1 X126.818 Y111.4 E1.03565
G1 X126.654 Y111.326 E.00928
G1 X126.6 Y111.182 E.00792
G1 X126.6 Y94.118 E.8808
G1 X126.644 Y93.987 E.00711
G1 X126.78 Y93.903 E.00827
G1 X126.818 Y93.9 E.00195
G1 X146.882 Y93.9 E1.03565
G1 X146.991 Y93.942 E.00599
G1 E-3.5 F1800
;WIPE_START
G1 F900
G1 X147.1 Y94.118 E-.62221
G1 X147.1 Y94.41 E-.87779
;WIPE_END
G17
G3 Z.7 I-.777 J-.937 P1  F9000
G1 X124.539 Y113.113 Z.7
G1 Z.3
G1 E5 F1800
;TYPE:Inner wall
G1 F900
G1 X125.077 Y113.738 E.04258
G1 X125.591 Y114.484 E.04678
G1 X126.021 Y115.282 E.04678
G1 X126.363 Y116.122 E.04678
G1 X126.611 Y116.993 E.04678
G1 X126.777 Y118.004 E.05286
G1 X126.82 Y118.791 E.0407
G1 X126.777 Y119.696 E.04678
G1 X126.637 Y120.592 E.04679
G1 X126.37 Y121.545 E.05108
G1 X126.071 Y122.311 E.04245
G1 X125.652 Y123.114 E.04678
G1 X125.149 Y123.868 E.04678
G1 X124.567 Y124.563 E.04678
G1 X123.913 Y125.191 E.04678
G1 X123.196 Y125.744 E.04678
G1 X122.423 Y126.217 E.04678
G1 X121.603 Y126.603 E.04678
G1 X120.746 Y126.899 E.04678
G1 X119.862 Y127.1 E.04678
G1 X118.962 Y127.204 E.04678
G1 X118.056 Y127.211 E.04678
G1 X117.154 Y127.119 E.04678
G1 X116.268 Y126.93 E.04678
G1 X115.407 Y126.647 E.04678
G1 X114.582 Y126.272 E.04678
G1 X113.802 Y125.811 E.04678
G1 X113.077 Y125.267 E.04678
G1 X112.414 Y124.649 E.04678
G1 X111.823 Y123.962 E.04678
G1 X111.309 Y123.216 E.04678
G1 X110.879 Y122.418 E.04678
G1 X110.537 Y121.578 E.04678
G1 X110.289 Y120.707 E.04679
G1 X110.13 Y119.73 E.05108
G1 X110.08 Y118.909 E.04245
G1 X110.123 Y118.004 E.04678
G1 X110.263 Y117.108 E.04678
G1 X110.5 Y116.233 E.04678
G1 X110.78 Y115.513 E.03992
G1 X111.248 Y114.586 E.05361
G1 X111.73 Y113.863 E.04482
G1 X112.333 Y113.137 E.04873
G1 X112.908 Y112.592 E.04086
G1 X113.704 Y111.956 E.05263
G1 X114.477 Y111.483 E.04678
G1 X115.297 Y111.097 E.04678
G1 X116.154 Y110.801 E.04678
G1 X117.038 Y110.6 E.04678
G1 X117.938 Y110.496 E.04678
G1 X118.844 Y110.489 E.04678
G1 X119.746 Y110.581 E.04678
G1 X120.632 Y110.77 E.04678
G1 X121.493 Y111.053 E.04679
G1 X122.391 Y111.47 E.05108
G1 X123.098 Y111.889 E.04245
G1 X123.913 Y112.509 E.05285
G1 X124.486 Y113.051 E.0407
G1 X124.513 Y113.083 E.00213
G1 X124.213 Y113.399 F9000
G1 F900
G1 X124.745 Y114.02 E.04224
G1 X125.231 Y114.729 E.04435
G1 X125.636 Y115.486 E.04435
G1 X125.958 Y116.283 E.04435
G1 X126.192 Y117.11 E.04435
G1 X126.342 Y118.027 E.04799
G1 X126.385 Y118.815 E.0407
G1 X126.342 Y119.673 E.04435
G1 X126.207 Y120.521 E.04435
G1 X125.952 Y121.424 E.04844
G1 X125.666 Y122.15 E.04023
G1 X125.267 Y122.91 E.04435
G1 X124.788 Y123.624 E.04435
G1 X124.235 Y124.281 E.04435
G1 X123.614 Y124.875 E.04435
G1 X122.932 Y125.398 E.04435
G1 X122.198 Y125.844 E.04435
G1 X121.42 Y126.208 E.04435
G1 X120.607 Y126.486 E.04435
G1 X119.769 Y126.674 E.04435
