; HEADER_BLOCK_START
; generated by OrcaSlicer 1.7.0 on 2023-12-10 at 00:03:01
; total layer number: 195
; HEADER_BLOCK_END

; THUMBNAIL_BLOCK_START
; THUMBNAIL_BLOCK_END

; external perimeters extrusion width = 0.40mm
; perimeters extrusion width = 0.45mm
; infill extrusion width = 0.45mm
; solid infill extrusion width = 0.40mm
; top infill extrusion width = 0.40mm
; first layer extrusion width = 0.50mm

; EXECUTABLE_BLOCK_START
EXCLUDE_OBJECT_DEFINE NAME=Gridfinity_Caliper_Holder_-_Gridfinity_Caliper_Holder_4_.stl_id_0_copy_0 CENTER=110,86.75 POLYGON=[[68.25,69.75],[68.2521,69.6243],[68.2536,69.5864],[68.261,69.4634],[68.2643,69.4232],[68.2767,69.3031],[68.2821,69.2605],[68.2994,69.1436],[68.307,69.0988],[68.3288,68.9852],[68.3389,68.9383],[68.3651,68.8282],[68.3778,68.7794],[68.408,68.6729],[68.4236,68.6223],[68.4576,68.5197],[68.4762,68.4674],[68.5137,68.3686],[68.5354,68.3149],[68.5762,68.2202],[68.6013,68.1652],[68.6451,68.0745],[68.6737,68.0184],[68.7202,67.932],[68.7524,67.875],[68.8013,67.7928],[68.8373,67.7351],[68.8883,67.6572],[68.9282,67.5991],[68.981,67.5255],[69.0249,67.4671],[69.0794,67.3979],[69.1273,67.3395],[69.1831,67.2746],[69.2352,67.2165],[69.292,67.1559],[69.3484,67.0983],[69.4059,67.042],[69.4665,66.9852],[69.5246,66.9331],[69.5895,66.8773],[69.6479,66.8294],[69.7171,66.7749],[69.7755,66.731],[69.8491,66.6782],[69.9072,66.6383],[69.9851,66.5873],[70.0428,66.5513],[70.125,66.5024],[70.182,66.4702],[70.2684,66.4237],[70.3246,66.3951],[70.4152,66.3513],[70.4702,66.3262],[70.5649,66.2854],[70.6187,66.2637],[70.7174,66.2262],[70.7697,66.2076],[70.8724,66.1736],[70.923,66.158],[71.0294,66.1278],[71.0782,66.1151],[71.1884,66.0889],[71.2352,66.0788],[71.3488,66.057],[71.3936,66.0494],[71.5105,66.0321],[71.5531,66.0267],[71.6732,66.0143],[71.7134,66.011],[71.8364,66.0036],[71.8743,66.0021],[72,66],[148,66],[148.159,66.0034],[148.164,66.0036],[148.318,66.0135],[148.327,66.0143],[148.476,66.0304],[148.489,66.0321],[148.634,66.0539],[148.651,66.057],[148.79,66.0842],[148.812,66.0889],[148.945,66.121],[148.971,66.1278],[149.098,66.1644],[149.128,66.1736],[149.249,66.2142],[149.283,66.2262],[149.398,66.2704],[149.435,66.2854],[149.545,66.3329],[149.585,66.3513],[149.688,66.4015],[149.732,66.4237],[149.829,66.4762],[149.875,66.5024],[149.966,66.5568],[150.015,66.5873],[150.1,66.6431],[150.151,66.6782],[150.23,66.735],[150.283,66.7749],[150.356,66.8324],[150.41,66.8773],[150.478,66.935],[150.533,66.9852],[150.595,67.0427],[150.652,67.0983],[150.707,67.1552],[150.765,67.2165],[150.815,67.2725],[150.873,67.3395],[150.918,67.3942],[150.975,67.4671],[151.015,67.5201],[151.072,67.5991],[151.107,67.6501],[151.163,67.7351],[151.193,67.7838],[151.248,67.875],[151.274,67.9211],[151.326,68.0184],[151.348,68.0617],[151.399,68.1652],[151.417,68.2054],[151.465,68.3149],[151.48,68.3518],[151.524,68.4674],[151.536,68.5007],[151.576,68.6223],[151.586,68.6519],[151.622,68.7794],[151.629,68.8051],[151.661,68.9383],[151.666,68.96],[151.693,69.0988],[151.696,69.1162],[151.718,69.2605],[151.72,69.2737],[151.736,69.4232],[151.736,69.432],[151.746,69.5864],[151.747,69.5908],[151.75,69.75],[151.75,103.75],[151.75,103.779],[151.747,103.909],[151.746,103.914],[151.745,103.941],[151.736,104.068],[151.736,104.077],[151.733,104.103],[151.72,104.226],[151.718,104.239],[151.715,104.264],[151.696,104.384],[151.693,104.401],[151.689,104.424],[151.666,104.54],[151.661,104.562],[151.656,104.582],[151.629,104.695],[151.622,104.721],[151.617,104.74],[151.586,104.848],[151.576,104.878],[151.571,104.895],[151.536,104.999],[151.524,105.033],[151.518,105.048],[151.48,105.148],[151.465,105.185],[151.459,105.199],[151.417,105.295],[151.399,105.335],[151.393,105.347],[151.348,105.438],[151.326,105.482],[151.321,105.492],[151.274,105.579],[151.248,105.625],[151.243,105.633],[151.193,105.716],[151.163,105.765],[151.158,105.772],[151.107,105.85],[151.072,105.901],[151.068,105.906],[151.015,105.98],[150.975,106.033],[150.972,106.037],[150.918,106.106],[150.873,106.16],[150.871,106.163],[150.815,106.228],[150.765,106.283],[150.764,106.285],[150.707,106.345],[150.652,106.402],[150.595,106.457],[150.535,106.514],[150.533,106.515],[150.478,106.565],[150.413,106.621],[150.41,106.623],[150.356,106.668],[150.287,106.722],[150.283,106.725],[150.23,106.765],[150.156,106.818],[150.151,106.822],[150.1,106.857],[150.022,106.908],[150.015,106.913],[149.966,106.943],[149.883,106.993],[149.875,106.998],[149.829,107.024],[149.742,107.071],[149.732,107.076],[149.688,107.098],[149.597,107.143],[149.585,107.149],[149.545,107.167],[149.449,107.209],[149.435,107.215],[149.398,107.23],[149.298,107.268],[149.283,107.274],[149.249,107.286],[149.145,107.321],[149.128,107.326],[149.098,107.336],[148.99,107.367],[148.971,107.372],[148.945,107.379],[148.832,107.406],[148.812,107.411],[148.79,107.416],[148.674,107.439],[148.651,107.443],[148.634,107.446],[148.514,107.465],[148.489,107.468],[148.476,107.47],[148.353,107.483],[148.327,107.486],[148.318,107.486],[148.191,107.495],[148.164,107.496],[148.159,107.497],[148.029,107.5],[148,107.5],[72,107.5],[71.8752,107.498],[71.8743,107.498],[71.8408,107.497],[71.7153,107.489],[71.7134,107.489],[71.682,107.486],[71.5559,107.474],[71.5531,107.473],[71.5237,107.47],[71.3973,107.451],[71.3936,107.451],[71.3662,107.446],[71.2399,107.422],[71.2352,107.421],[71.21,107.416],[71.0838,107.386],[71.0782,107.385],[71.0551,107.379],[70.9293,107.344],[70.923,107.342],[70.9019,107.336],[70.7769,107.295],[70.7697,107.292],[70.7507,107.286],[70.6266,107.239],[70.6187,107.236],[70.6018,107.23],[70.4789,107.178],[70.4702,107.174],[70.4554,107.167],[70.334,107.11],[70.3246,107.105],[70.3117,107.098],[70.192,107.035],[70.182,107.03],[70.1711,107.024],[70.0534,106.955],[70.0428,106.949],[70.0338,106.943],[69.9183,106.869],[69.9072,106.862],[69.9001,106.857],[69.7871,106.777],[69.7755,106.769],[69.7701,106.765],[69.6598,106.68],[69.6479,106.671],[69.6442,106.668],[69.5368,106.578],[69.5246,106.567],[69.5225,106.565],[69.4184,106.47],[69.4059,106.458],[69.4052,106.457],[69.3046,106.357],[69.2927,106.345],[69.292,106.344],[69.1957,106.24],[69.185,106.228],[69.1831,106.225],[69.092,106.118],[69.0824,106.106],[69.0794,106.102],[68.9936,105.991],[68.985,105.98],[68.981,105.974],[68.9006,105.861],[68.8931,105.85],[68.8883,105.843],[68.8133,105.727],[68.8068,105.716],[68.8013,105.707],[68.7318,105.589],[68.7262,105.579],[68.7202,105.568],[68.6563,105.448],[68.6515,105.438],[68.6451,105.425],[68.5868,105.303],[68.5829,105.295],[68.5762,105.28],[68.5236,105.156],[68.5204,105.148],[68.5137,105.131],[68.4668,105.006],[68.4642,104.999],[68.4576,104.98],[68.4163,104.854],[68.4144,104.848],[68.408,104.827],[68.3724,104.7],[68.371,104.695],[68.3651,104.672],[68.3352,104.545],[68.3342,104.54],[68.3288,104.515],[68.3046,104.388],[68.3039,104.384],[68.2994,104.356],[68.2807,104.229],[68.2804,104.226],[68.2767,104.197],[68.2637,104.07],[68.2635,104.068],[68.261,104.037],[68.2534,103.91],[68.2534,103.909],[68.2521,103.876],[68.25,103.75],[68.25,69.75]]
M73 P0 R190
;TYPE:Custom
START_PRINT EXTRUDER_TEMP=255  BED_TEMP=80
G90
G21
M83 ; use relative distances for extrusion
; filament start gcode
M106 S0
;LAYER_CHANGE
;Z:0.2
;HEIGHT:0.2
;BEFORE_LAYER_CHANGE
;0.2
G92 E0

G1 E-5 F1800
;_SET_FAN_SPEED_CHANGING_LAYER
; printing object Gridfinity Caliper Holder - Gridfinity Caliper Holder (4).stl id:0 copy 0
EXCLUDE_OBJECT_START NAME=Gridfinity_Caliper_Holder_-_Gridfinity_Caliper_Holder_4_.stl_id_0_copy_0
G1 X105.668 Y71.194 F9000
G1 Z.4
G1 Z.2
G1 E5 F1800
;TYPE:Inner wall
;WIDTH:0.634476
G1 F900
G1 X105.488 Y70.941 E.01451
G1 X105.102 Y70.52 E.02667
G1 X104.543 Y70.082 E.0332
G1 X105.668 Y70.082 E.05257
G1 X105.668 Y71.154 E.05009
G1 E-3.5 F1800
;WIPE_START
G1 F900
G1 X105.488 Y70.941 E-.27888
G1 X105.102 Y70.52 E-.57073
G1 X104.59 Y70.119 E-.65039
;WIPE_END
G17
G3 Z.6 I-1.195 J.23 P1  F9000
G1 X105.735 Y76.079 Z.6
G1 Z.2
G1 E5 F1800
;WIDTH:0.499999
G1 F900
G1 X105.736 Y97.435 E.77108
M73 P0 R189
G1 X105.438 Y96.987 E.01943
G1 X104.906 Y96.431 E.02777
G1 X104.263 Y95.966 E.02865
G1 X103.39 Y95.566 E.03467
G1 X102.427 Y95.364 E.03554
G1 X101.326 Y95.391 E.03978
G1 X100.556 Y95.584 E.02866
G1 X99.688 Y95.995 E.03466
G1 X98.947 Y96.566 E.03377
G1 X98.427 Y97.166 E.02866
G1 X97.953 Y98 E.03465
G1 X97.673 Y98.893 E.03377
G1 X97.59 Y99.657 E.02777
G1 X97.641 Y100.424 E.02776
G1 X97.834 Y101.194 E.02866
G1 X98.245 Y102.062 E.03466
G1 X98.816 Y102.803 E.03377
G1 X99.236 Y103.188 E.02059
G1 X99.672 Y103.486 E.01905
G1 X78.339 Y103.486 E.77025
G1 X78.929 Y103.046 E.02656
G1 X79.573 Y102.334 E.03466
G1 X80.039 Y101.523 E.03377
G1 X80.289 Y100.771 E.02865
G1 X80.41 Y99.843 E.03377
G1 X80.359 Y99.076 E.02777
G1 X80.166 Y98.306 E.02866
G1 X79.755 Y97.438 E.03466
G1 X79.165 Y96.681 E.03465
G1 X78.448 Y96.081 E.03377
G1 X77.75 Y95.703 E.02866
G1 X76.857 Y95.423 E.03377
G1 X76.093 Y95.34 E.02777
G1 X75.301 Y95.397 E.02865
G1 X74.398 Y95.64 E.03377
G1 X73.688 Y95.995 E.02867
G1 X72.946 Y96.567 E.03381
G1 X72.558 Y96.992 E.02081
G1 X72.264 Y97.434 E.01916
G1 X72.264 Y76.091 E.77064
G1 X72.334 Y76.203 E.00479
G1 X72.816 Y76.803 E.02777
G1 X73.394 Y77.309 E.02776
G1 X74.075 Y77.717 E.02866
G1 X74.955 Y78.035 E.03377
G1 X75.74 Y78.151 E.02866
G1 X76.699 Y78.103 E.03465
G1 X77.603 Y77.859 E.03381
G1 X78.317 Y77.501 E.02885
G1 X79.053 Y76.934 E.03353
G1 X79.573 Y76.334 E.02867
G1 X80.039 Y75.523 E.03377
G1 X80.289 Y74.771 E.02865
G1 X80.409 Y73.818 E.03465
G1 X80.326 Y72.886 E.03378
G1 X80.11 Y72.148 E.02777
G1 X79.755 Y71.438 E.02866
G1 X79.165 Y70.681 E.03465
G1 X78.63 Y70.211 E.02571
G1 X78.333 Y70.014 E.01287
G1 X99.662 Y70.014 E.77012
G1 X98.947 Y70.566 E.0326
G1 X98.441 Y71.144 E.02776
G1 X98.033 Y71.826 E.02866
G1 X97.711 Y72.729 E.03465
G1 X97.59 Y73.657 E.03377
G1 X97.647 Y74.449 E.02867
G1 X97.816 Y75.141 E.02571
G1 X98.021 Y75.618 E.01876
G1 X98.334 Y76.203 E.02397
G1 X98.816 Y76.803 E.02777
G1 X99.416 Y77.323 E.02866
G1 X100.227 Y77.789 E.03377
G1 X100.955 Y78.035 E.02776
G1 X101.74 Y78.151 E.02866
G1 X102.699 Y78.103 E.03465
G1 X103.602 Y77.86 E.03377
G1 X104.312 Y77.505 E.02867
G1 X105.053 Y76.934 E.03377
G1 X105.438 Y76.514 E.02059
G1 X105.713 Y76.112 E.01757
G1 E-3.5 F1800
;WIPE_START
G1 F900
G1 X105.714 Y77.612 E-1.5
;WIPE_END
G17
G3 Z.6 I1.216 J.054 P1  F9000
G1 X105.894 Y73.57 Z.6
G1 Z.2
G1 E5 F1800
;WIDTH:0.395457
G1 F900
G1 X105.892 Y74.049 E.01333
;WIDTH:0.42346
G1 X105.852 Y74.38 E.01004
;WIDTH:0.451463
G1 X105.811 Y74.712 E.01077
;WIDTH:0.499999
G1 X105.541 Y75.509 E.0304
G1 X105.174 Y76.11 E.02543
G1 X104.716 Y76.625 E.02489
G1 X104.041 Y77.136 E.03054
G1 X103.408 Y77.446 E.02544
G1 X102.59 Y77.659 E.03054
G1 X101.73 Y77.695 E.03107
G1 X101.034 Y77.585 E.02543
G1 X100.316 Y77.331 E.02752
G1 X99.653 Y76.932 E.02793
G1 X99.125 Y76.466 E.02543
G1 X98.697 Y75.925 E.0249
G1 X98.431 Y75.416 E.02074
G1 X98.26 Y75.032 E.01517
G1 X98.091 Y74.34 E.02571
G1 X98.047 Y73.637 E.02544
G1 X98.162 Y72.799 E.03054
G1 X98.459 Y71.991 E.03107
G1 X98.826 Y71.39 E.02543
G1 X99.284 Y70.875 E.02489
G1 X99.959 Y70.364 E.03054
G1 X100.591 Y70.054 E.02543
G1 X101.005 Y69.966 E.01528
;WIDTH:0.460945
G1 X101.419 Y69.878 E.01397
;WIDTH:0.421891
G1 X102.427 Y69.869 E.03018
;WIDTH:0.451595
G1 X102.854 Y69.94 E.01398
;WIDTH:0.499999
G1 X103.282 Y70.01 E.01564
G1 X103.925 Y70.295 E.02543
G1 X104.615 Y70.785 E.03054
G1 X105.101 Y71.295 E.02544
G1 X105.551 Y72.012 E.03054
G1 X105.791 Y72.674 E.02542
;WIDTH:0.471551
G1 X105.843 Y73.092 E.01428
;WIDTH:0.433478
G1 X105.894 Y73.511 E.01301
;WIDTH:0.395457
G1 X105.894 Y73.53 E.00053
G1 E-3.5 F1800
;WIPE_START
G1 F900
G1 X105.892 Y74.049 E-.51856
G1 X105.852 Y74.38 E-.33388
G1 X105.811 Y74.712 E-.33388
G1 X105.711 Y75.009 E-.31369
;WIPE_END
G17
G3 Z.6 I-1.216 J-.05 P1  F9000
G1 X104.544 Y103.418 Z.6
G1 Z.2
G1 E5 F1800
;WIDTH:0.634718
G1 F900
G1 X104.926 Y103.137 E.02221
G1 X105.154 Y102.923 E.01464
G1 X105.668 Y102.309 E.03741
G1 X105.668 Y103.418 E.05185
G1 X104.584 Y103.418 E.05072
G1 X103.981 Y103.165 F9000
;WIDTH:0.499999
G1 F900
G1 X103.409 Y103.445 E.02298
G1 X102.995 Y103.533 E.01529
;WIDTH:0.461003
G1 X102.581 Y103.622 E.01399
;WIDTH:0.422007
G1 X101.885 Y103.649 E.02086
;WIDTH:0.42072
G1 X101.469 Y103.606 E.01248
;WIDTH:0.450136
G1 X101.053 Y103.563 E.01345
;WIDTH:0.499999
G1 X100.241 Y103.291 E.0309
G1 X99.64 Y102.924 E.02543
G1 X99.125 Y102.466 E.02489
G1 X98.614 Y101.791 E.03054
G1 X98.252 Y101.01 E.03108
G1 X98.087 Y100.325 E.02543
G1 X98.047 Y99.637 E.02489
G1 X98.126 Y98.952 E.0249
G1 X98.386 Y98.147 E.03054
G1 X98.818 Y97.403 E.03107
G1 X99.284 Y96.875 E.02543
G1 X99.959 Y96.364 E.03054
G1 X100.74 Y96.002 E.03108
G1 X101.425 Y95.837 E.02543
G1 X102.427 Y95.821 E.0362
G1 X103.282 Y96.01 E.03161
G1 X104.061 Y96.376 E.03108
G1 X104.628 Y96.794 E.02542
G1 X105.101 Y97.295 E.0249
G1 X105.551 Y98.012 E.03055
G1 X105.791 Y98.674 E.02542
;WIDTH:0.471663
G1 X105.843 Y99.092 E.01429
;WIDTH:0.433628
G1 X105.894 Y99.511 E.01302
;WIDTH:0.395643
G1 X105.892 Y100.049 E.01498
;WIDTH:0.423648
G1 X105.852 Y100.38 E.01004
;WIDTH:0.451653
G1 X105.811 Y100.712 E.01078
;WIDTH:0.499999
G1 X105.541 Y101.509 E.0304
G1 X105.174 Y102.11 E.02543
G1 X104.768 Y102.568 E.02211
G1 X104.047 Y103.133 E.03305
G1 X104.016 Y103.148 E.00122
G1 E-3.5 F1800
;WIPE_START
G1 F900
G1 X103.409 Y103.445 E-.6764
G1 X102.995 Y103.533 E-.42349
G1 X102.604 Y103.617 E-.40012
;WIPE_END
G17
G3 Z.6 I.053 J-1.216 P1  F9000
G1 X72.332 Y102.293 Z.6
G1 Z.2
G1 E5 F1800
;WIDTH:0.634727
G1 F900
G1 X72.771 Y102.852 E.03324
G1 X73.191 Y103.238 E.02667
G1 X73.444 Y103.418 E.01454
G1 X72.332 Y103.418 E.05201
G1 X72.332 Y102.333 E.05074
G1 E-3.5 F1800
;WIPE_START
G1 F900
G1 X72.771 Y102.852 E-.68004
G1 X73.191 Y103.238 E-.57048
G1 X73.394 Y103.383 E-.24948
;WIPE_END
G17
G3 Z.6 I1.199 J.207 P1  F9000
G1 X74.665 Y96.035 Z.6
G1 Z.2
G1 E5 F1800
;WIDTH:0.499999
G1 F900
G1 X75.41 Y95.841 E.02779
G1 X76.113 Y95.797 E.02542
G1 X76.798 Y95.876 E.0249
G1 X77.603 Y96.136 E.03054
G1 X78.219 Y96.477 E.02543
G1 X78.864 Y97.024 E.03054
G1 X79.386 Y97.709 E.03107
G1 X79.748 Y98.49 E.03108
G1 X79.913 Y99.175 E.02543
G1 X79.953 Y99.863 E.0249
G1 X79.838 Y100.701 E.03054
G1 X79.609 Y101.367 E.02542
G1 X79.182 Y102.097 E.03054
G1 X78.598 Y102.73 E.03108
G1 X78.029 Y103.145 E.02543
G1 X77.409 Y103.446 E.02489
G1 X77.073 Y103.524 E.01245
;WIDTH:0.467623
G1 X76.737 Y103.603 E.01157
;WIDTH:0.435246
G1 X75.898 Y103.649 E.02603
;WIDTH:0.420959
G1 X75.476 Y103.606 E.01269
;WIDTH:0.450133
G1 X75.053 Y103.563 E.01367
;WIDTH:0.471682
G1 X74.924 Y103.541 E.00444
;WIDTH:0.499999
G1 X74.383 Y103.359 E.0206
G1 X73.653 Y102.932 E.03054
G1 X73.182 Y102.518 E.02265
G1 X72.614 Y101.791 E.03328
G1 X72.252 Y101.01 E.03108
G1 X72.19 Y100.663 E.01272
;WIDTH:0.458955
G1 X72.127 Y100.317 E.01158
;WIDTH:0.41791
G1 X72.101 Y99.635 E.02022
;WIDTH:0.420722
G1 X72.144 Y99.219 E.01248
;WIDTH:0.450136
G1 X72.187 Y98.803 E.01345
;WIDTH:0.499999
G1 X72.391 Y98.133 E.02528
G1 X72.814 Y97.408 E.03031
G1 X73.284 Y96.875 E.02564
G1 X73.959 Y96.364 E.03057
G1 X74.592 Y96.054 E.02544
G1 X74.627 Y96.045 E.00132
G1 E-3.5 F1800
;WIPE_START
G1 F900
G1 X75.41 Y95.841 E-.80955
G1 X76.099 Y95.798 E-.69045
;WIPE_END
G17
G3 Z.6 I1.211 J-.124 P1  F9000
G1 X73.457 Y70.082 Z.6
G1 Z.2
G1 E5 F1800
;WIDTH:0.634722
G1 F900
G1 X73.075 Y70.362 E.02217
G1 X72.846 Y70.577 E.01469
G1 X72.332 Y71.191 E.03741
G1 X72.332 Y70.082 E.05185
G1 X73.417 Y70.082 E.05074
G1 E-3.5 F1800
;WIPE_START
G1 F900
G1 X73.075 Y70.362 E-.44264
G1 X72.846 Y70.577 E-.31432
G1 X72.368 Y71.147 E-.74304
;WIPE_END
G17
G3 Z.6 I-.42 J1.142 P1  F9000
G1 X79.941 Y73.931 Z.6
G1 Z.2
G1 E5 F1800
;WIDTH:0.499999
G1 F900
G1 X79.838 Y74.701 E.02806
G1 X79.609 Y75.367 E.02542
G1 X79.182 Y76.097 E.03054
G1 X78.716 Y76.625 E.02544
G1 X78.047 Y77.133 E.03031
G1 X77.409 Y77.445 E.02563
G1 X76.59 Y77.659 E.03057
G1 X75.73 Y77.695 E.03107
G1 X75.034 Y77.585 E.02543
G1 X74.241 Y77.291 E.03054
G1 X73.64 Y76.924 E.02543
G1 X73.125 Y76.466 E.02489
G1 X72.697 Y75.925 E.0249
G1 X72.311 Y75.172 E.03055
G1 X72.22 Y74.751 E.01554
