; HEADER_BLOCK_START
; generated by OrcaSlicer 1.7.0 on 2023-12-17 at 18:23:09
; total layer number: 56
; HEADER_BLOCK_END

; THUMBNAIL_BLOCK_START
; THUMBNAIL_BLOCK_END

; external perimeters extrusion width = 0.40mm
; perimeters extrusion width = 0.45mm
; infill extrusion width = 0.45mm
; solid infill extrusion width = 0.40mm
; top infill extrusion width = 0.40mm
; first layer extrusion width = 0.50mm

; EXECUTABLE_BLOCK_START
EXCLUDE_OBJECT_DEFINE NAME=Gridfinity_Caliper_Holder_-_Gridfinity_Caliper_Holder_1_.stl_id_0_copy_0 CENTER=110.262,106.522 POLYGON=[[68.5119,89.5216],[68.5293,89.1601],[68.5324,89.1296],[68.5885,88.7673],[68.5938,88.742],[68.6889,88.383],[68.6954,88.3628],[68.8294,88.0114],[68.8361,87.9964],[69.0084,87.6568],[69.0143,87.6466],[69.2239,87.3232],[69.2281,87.3174],[69.4735,87.0141],[69.4751,87.0124],[69.7526,86.7348],[69.7544,86.7333],[70.0577,86.4878],[70.0634,86.4837],[70.3869,86.274],[70.3971,86.2682],[70.7366,86.0958],[70.7517,86.0892],[71.1031,85.9552],[71.1233,85.9487],[71.4822,85.8536],[71.5076,85.8483],[71.8699,85.7922],[71.9004,85.7891],[72.2619,85.7716],[148.262,85.7716],[148.654,85.7922],[149.042,85.8536],[149.421,85.9552],[149.787,86.0958],[150.137,86.274],[150.466,86.4878],[150.771,86.7348],[151.049,87.0124],[151.296,87.3174],[151.509,87.6466],[151.688,87.9964],[151.828,88.3628],[151.93,88.742],[151.991,89.1296],[152.012,89.5216],[152.012,123.522],[152.01,123.632],[151.991,123.914],[151.977,124.035],[151.93,124.301],[151.899,124.433],[151.828,124.68],[151.78,124.82],[151.688,125.047],[151.62,125.191],[151.509,125.397],[151.42,125.543],[151.296,125.726],[151.184,125.872],[151.049,126.031],[150.914,126.173],[150.771,126.308],[150.612,126.444],[150.466,126.555],[150.284,126.68],[150.137,126.769],[149.931,126.879],[149.787,126.947],[149.56,127.04],[149.421,127.088],[149.173,127.159],[149.042,127.19],[148.776,127.236],[148.654,127.251],[148.372,127.27],[148.262,127.272],[72.2619,127.272],[71.9027,127.254],[71.9004,127.254],[71.8699,127.251],[71.5122,127.196],[71.5076,127.195],[71.4822,127.19],[71.13,127.097],[71.1233,127.095],[71.1031,127.088],[70.7603,126.958],[70.7517,126.954],[70.7366,126.947],[70.4073,126.781],[70.3971,126.775],[70.3869,126.769],[70.0749,126.568],[70.0634,126.56],[70.0577,126.555],[69.7667,126.321],[69.7544,126.31],[69.7526,126.308],[69.4861,126.043],[69.4735,126.029],[69.2364,125.737],[69.2281,125.726],[69.2239,125.72],[69.0202,125.407],[69.0143,125.397],[69.0084,125.386],[68.8399,125.055],[68.8361,125.047],[68.8294,125.032],[68.6976,124.687],[68.6954,124.68],[68.6889,124.66],[68.5948,124.306],[68.5938,124.301],[68.5885,124.276],[68.5327,123.916],[68.5324,123.914],[68.5293,123.883],[68.5119,123.522],[68.5119,89.5216]]
M73 P0 R76
;TYPE:Custom
START_PRINT EXTRUDER_TEMP=255  BED_TEMP=80
G90
G21
M83 ; use relative distances for extrusion
; filament start gcode
M106 S0
;LAYER_CHANGE
;Z:0.3
;HEIGHT:0.3
;BEFORE_LAYER_CHANGE
;0.3
G92 E0

G1 E-5 F1800
;_SET_FAN_SPEED_CHANGING_LAYER
G1 X62.641 Y77.944 F9000
G1 Z.4
G1 Z.3
G1 E5 F1800
;TYPE:Skirt
;WIDTH:0.5
G1 F900
G1 X64.24 Y76.785 E.10194
G1 X65.62 Y76.013 E.08164
G1 X66.696 Y75.535 E.06078
G1 X68.177 Y75.034 E.08067
G1 X69.713 Y74.686 E.08133
G1 X71.67 Y74.48 E.10155
G1 X148.854 Y74.48 E3.98392
M73 P0 R75
G1 X150.81 Y74.686 E.10155
G1 X152.347 Y75.034 E.08133
G1 X153.473 Y75.399 E.06109
G1 X155.27 Y76.2 E.10155
G1 X156.624 Y77.005 E.08133
G1 X157.887 Y77.948 E.08132
G1 X159.044 Y79.017 E.08134
G1 X160.083 Y80.202 E.08132
G1 X160.778 Y81.159 E.06109
G1 X161.584 Y82.513 E.08133
G1 X162.384 Y84.311 E.10155
G1 X162.852 Y85.816 E.08134
G1 X163.159 Y87.361 E.08132
G1 X163.319 Y89.522 E.11184
G1 X163.319 Y123.522 E1.75495
G1 X163.183 Y125.521 E.10342
G1 X162.925 Y126.94 E.07449
G1 X162.442 Y128.578 E.0881
G1 X161.87 Y129.963 E.07736
G1 X160.95 Y131.624 E.09799
G1 X159.913 Y133.056 E.09128
G1 X158.971 Y134.102 E.07265
G1 X157.655 Y135.286 E.0914
G1 X156.363 Y136.21 E.08195
G1 X154.605 Y137.177 E.10358
G1 X152.543 Y137.955 E.11374
G1 X150.615 Y138.391 E.10205
G1 X148.337 Y138.577 E.11794
G1 X71.719 Y138.565 E3.95477
G1 X69.97 Y138.398 E.09065
G1 X68.239 Y138.028 E.09137
G1 X66.775 Y137.539 E.07971
G1 X65.293 Y136.864 E.08405
G1 X63.909 Y136.045 E.08299
G1 X62.947 Y135.347 E.06132
G1 X61.77 Y134.316 E.08079
G1 X60.466 Y132.873 E.10038
G1 X59.55 Y131.584 E.08161
G1 X58.768 Y130.193 E.08236
G1 X58.284 Y129.109 E.06129
G1 X57.783 Y127.641 E.08004
G1 X57.424 Y126.061 E.08365
G1 X57.241 Y124.509 E.08063
G1 X57.239 Y88.561 E1.85551
G1 X57.429 Y86.957 E.08339
G1 X57.769 Y85.452 E.07963
G1 X58.272 Y83.966 E.08097
G1 X58.753 Y82.88 E.06131
G1 X59.514 Y81.515 E.08066
G1 X60.437 Y80.207 E.08262
G1 X61.479 Y79.018 E.08164
G1 X62.612 Y77.972 E.07958
G1 X62.907 Y78.291 F9000
G1 F900
G1 X62.915 Y78.283 E.00058
G1 X64.477 Y77.15 E.09958
G1 X65.818 Y76.401 E.07928
G1 X66.852 Y75.942 E.05844
G1 X68.289 Y75.454 E.07833
G1 X69.782 Y75.116 E.07897
G1 X71.693 Y74.915 E.0992
G1 X148.831 Y74.915 E3.98157
G1 X150.742 Y75.116 E.0992
G1 X152.234 Y75.454 E.07898
G1 X153.317 Y75.806 E.05874
G1 X155.072 Y76.588 E.0992
G1 X156.387 Y77.37 E.07897
G1 X157.613 Y78.286 E.07897
G1 X158.736 Y79.325 E.07898
G1 X159.744 Y80.476 E.07897
G1 X160.413 Y81.397 E.05874
G1 X161.196 Y82.711 E.07898
G1 X161.977 Y84.467 E.09919
G1 X162.431 Y85.928 E.07898
G1 X162.729 Y87.429 E.07896
G1 X162.883 Y89.522 E.10831
G1 X162.883 Y123.522 E1.75495
G1 X162.752 Y125.459 E.10022
G1 X162.5 Y126.842 E.07258
G1 X162.033 Y128.428 E.0853
G1 X161.476 Y129.777 E.07538
G1 X160.582 Y131.392 E.09526
G1 X159.578 Y132.777 E.08832
G1 X158.659 Y133.798 E.0709
G1 X157.385 Y134.944 E.08843
G1 X156.131 Y135.842 E.07959
G1 X154.419 Y136.783 E.10085
G1 X152.423 Y137.537 E.11014
G1 X150.542 Y137.961 E.09951
G1 X148.337 Y138.142 E.11419
G1 X71.74 Y138.13 E3.95369
G1 X70.034 Y137.968 E.08843
G1 X68.351 Y137.607 E.08887
G1 X66.928 Y137.131 E.07743
G1 X65.489 Y136.475 E.08163
G1 X64.146 Y135.679 E.08058
G1 X63.221 Y135.008 E.05896
G1 X62.077 Y134.007 E.07846
G1 X60.804 Y132.598 E.09805
G1 X59.915 Y131.346 E.07925
G1 X59.156 Y129.995 E.07998
G1 X58.691 Y128.953 E.05893
G1 X58.204 Y127.527 E.07773
G1 X57.855 Y125.993 E.08123
G1 X57.656 Y124.093 E.0986
G1 X57.674 Y88.584 E1.83286
G1 X57.859 Y87.026 E.08098
G1 X58.19 Y85.565 E.07733
G1 X58.679 Y84.122 E.07864
G1 X59.142 Y83.078 E.05895
G1 X59.88 Y81.752 E.07834
G1 X60.775 Y80.481 E.08022
G1 X61.787 Y79.326 E.07928
G1 X62.877 Y78.318 E.07663
G1 X63.173 Y78.637 F9000
G1 F900
G1 X63.189 Y78.622 E.00115
G1 X64.714 Y77.516 E.09721
G1 X66.015 Y76.79 E.07692
G1 X67.008 Y76.349 E.05609
G1 X68.402 Y75.875 E.07599
G1 X70.237 Y75.485 E.09685
G1 X72.262 Y75.336 E.10478
G1 X148.808 Y75.35 E3.95102
M73 P1 R75
G1 X150.674 Y75.546 E.09684
G1 X152.122 Y75.875 E.07662
G1 X153.161 Y76.213 E.05639
G1 X154.875 Y76.976 E.09684
G1 X156.15 Y77.736 E.07662
G1 X157.338 Y78.625 E.07662
G1 X158.428 Y79.633 E.07663
G1 X159.406 Y80.75 E.07662
G1 X160.048 Y81.634 E.05638
G1 X160.808 Y82.909 E.07662
G1 X161.571 Y84.623 E.09684
G1 X162.01 Y86.041 E.07663
G1 X162.298 Y87.497 E.07661
G1 X162.447 Y89.522 E.10478
G1 X162.447 Y123.522 E1.75495
G1 X162.321 Y125.397 E.09701
G1 X162.076 Y126.744 E.07068
G1 X161.624 Y128.277 E.08251
G1 X161.082 Y129.592 E.07339
G1 X160.213 Y131.16 E.09253
G1 X159.243 Y132.499 E.08535
G1 X158.347 Y133.494 E.06914
G1 X157.116 Y134.602 E.08546
G1 X155.899 Y135.473 E.07723
G1 X154.233 Y136.388 E.09812
G1 X152.303 Y137.118 E.10654
G1 X150.47 Y137.532 E.09697
G1 X148.337 Y137.706 E.11044
G1 X71.76 Y137.695 E3.95261
G1 X70.098 Y137.537 E.08621
G1 X68.462 Y137.185 E.08636
G1 X67.081 Y136.723 E.07514
G1 X65.685 Y136.086 E.07921
G1 X64.383 Y135.313 E.07816
G1 X63.495 Y134.669 E.0566
G1 X62.385 Y133.699 E.07613
G1 X61.142 Y132.323 E.09573
G1 X60.28 Y131.108 E.07689
G1 X59.544 Y129.797 E.0776
G1 X59.097 Y128.796 E.05656
G1 X58.624 Y127.414 E.07542
G1 X58.285 Y125.925 E.07881
G1 X58.091 Y124.07 E.09626
G1 X58.109 Y88.606 E1.83053
G1 X58.289 Y87.094 E.07856
G1 X58.611 Y85.677 E.07503
G1 X59.085 Y84.277 E.0763
G1 X59.53 Y83.275 E.05659
G1 X60.246 Y81.988 E.07601
G1 X61.114 Y80.755 E.07782
G1 X62.095 Y79.634 E.07691
G1 X63.143 Y78.664 E.0737
; printing object Gridfinity Caliper Holder - Gridfinity Caliper Holder (1).stl id:0 copy 0
G1 E-3.5 F1800
;WIPE_START
G1 F900
G1 X63.189 Y78.622 E-.18698
G1 X63.543 Y78.365 E-1.31303
;WIPE_END
EXCLUDE_OBJECT_START NAME=Gridfinity_Caliper_Holder_-_Gridfinity_Caliper_Holder_1_.stl_id_0_copy_0
G17
G3 Z.7 I-.182 J1.203 P1  F9000
G1 X150.891 Y91.555 Z.7
G1 Z.3
G1 E5 F1800
;TYPE:Inner wall
;WIDTH:0.5
G1 F900
G1 X150.891 Y93.393 E.09487
;WIDTH:0.546243
G1 X150.867 Y93.745 E.02015
;WIDTH:0.592486
G1 X150.844 Y94.097 E.02209
;WIDTH:0.638901
G1 X150.821 Y94.197 E.00696
;WIDTH:0.685316
G1 X150.798 Y94.296 E.00752
G1 X150.813 Y94.683 E.02848
;WIDTH:0.655472
G1 X150.828 Y95.07 E.02711
;WIDTH:0.625629
G1 X150.835 Y95.671 E.03995
;WIDTH:0.610849
G1 X150.835 Y104.672 E.58285
;WIDTH:0.611298
G1 X150.834 Y104.73 E.00377
;WIDTH:0.625755
G1 X150.83 Y106.032 E.0866
;WIDTH:0.620234
G1 X150.85 Y106.219 E.01235
;WIDTH:0.580156
G1 X150.87 Y106.405 E.01146
;WIDTH:0.540078
G1 X150.89 Y106.591 E.01057
;WIDTH:0.5
G1 X150.89 Y123.417 E.86845
M73 P1 R74
G1 X150.853 Y123.937 E.02691
G1 X150.691 Y124.504 E.03047
G1 X150.446 Y124.977 E.02748
G1 X150.117 Y125.377 E.02671
G1 X149.718 Y125.706 E.02671
G1 X149.262 Y125.943 E.02654
G1 X148.805 Y126.073 E.02449
G1 X148.303 Y126.149 E.02622
G1 X73.094 Y126.15 E3.88197
G1 X72.047 Y126.126 E.0541
G1 X71.485 Y126.028 E.02944
G1 X70.952 Y125.793 E.03006
G1 X70.507 Y125.47 E.02838
G1 X70.145 Y125.07 E.02787
G1 X69.866 Y124.589 E.02868
G1 X69.696 Y124.063 E.02856
G1 X69.633 Y123.464 E.03107
G1 X69.633 Y89.728 E1.74132
G1 X69.648 Y89.368 E.0186
G1 X69.764 Y88.721 E.03391
G1 X69.989 Y88.213 E.02872
G1 X70.313 Y87.767 E.02841
G1 X70.722 Y87.399 E.02841
G1 X71.199 Y87.124 E.02844
G1 X71.716 Y86.956 E.02806
G1 X72.32 Y86.893 E.03133
G1 X148.204 Y86.893 E3.91685
G1 X148.807 Y86.956 E.03131
G1 X149.329 Y87.126 E.0283
G1 X149.803 Y87.4 E.0283
G1 X150.211 Y87.767 E.0283
G1 X150.533 Y88.21 E.0283
G1 X150.756 Y88.711 E.0283
G1 X150.847 Y89.137 E.02247
G1 X150.891 Y89.597 E.02387
G1 X150.891 Y91.515 E.09898
G1 E-3.5 F1800
;WIPE_START
G1 F900
G1 X150.891 Y92.015 E-1.5
;WIPE_END
G17
G3 Z.7 I1.217 J.007 P1  F9000
G1 X150.913 Y87.991 Z.7
G1 Z.3
G1 E5 F1800
G1 F900
G1 X151.173 Y88.576 E.03303
G1 X151.273 Y89.046 E.02483
G1 X151.326 Y89.597 E.02857
G1 X151.325 Y123.417 E1.74563
G1 X151.284 Y124.008 E.03059
G1 X151.095 Y124.667 E.03539
G1 X150.809 Y125.22 E.03212
G1 X150.425 Y125.685 E.03113
G1 X149.96 Y126.069 E.03113
G1 X149.424 Y126.348 E.03117
G1 X148.816 Y126.516 E.03255
G1 X148.316 Y126.585 E.02607
G1 X72.437 Y126.586 E3.91662
G1 X71.91 Y126.551 E.02721
G1 X71.346 Y126.443 E.02968
G1 X70.733 Y126.173 E.03453
G1 X70.214 Y125.796 E.03314
G1 X69.791 Y125.328 E.03259
G1 X69.466 Y124.767 E.03343
G1 X69.267 Y124.153 E.03331
G1 X69.197 Y123.487 E.0346
G1 X69.197 Y89.669 E1.74557
M73 P2 R74
G1 X69.23 Y89.114 E.02865
G1 X69.348 Y88.584 E.02802
G1 X69.61 Y87.994 E.03334
G1 X69.987 Y87.474 E.03315
G1 X70.464 Y87.044 E.03315
G1 X71.021 Y86.724 E.03317
G1 X71.625 Y86.528 E.03278
G1 X72.297 Y86.457 E.03486
G1 X148.227 Y86.457 E3.91921
G1 X148.898 Y86.528 E.03485
G1 X149.507 Y86.726 E.03303
G1 X150.061 Y87.045 E.03303
G1 X150.536 Y87.474 E.03303
G1 X150.889 Y87.959 E.03096
G1 X151.292 Y87.772 F9000
;TYPE:Outer wall
G1 F900
G1 X151.589 Y88.44 E.03775
G1 X151.743 Y89.162 E.03805
G1 X151.762 Y89.597 E.02251
G1 X151.761 Y123.417 E1.74563
G1 X151.737 Y123.835 E.02163
G1 X151.652 Y124.341 E.02647
G1 X151.499 Y124.83 E.02644
G1 X151.172 Y125.462 E.03675
G1 X150.861 Y125.865 E.0263
G1 X150.386 Y126.29 E.0329
G1 X149.954 Y126.574 E.02666
G1 X149.347 Y126.848 E.03439
G1 X148.907 Y126.942 E.0232
G1 X148.33 Y127.021 E.03008
G1 X72.437 Y127.022 E3.91731
G1 X71.871 Y126.985 E.02926
G1 X71.207 Y126.858 E.0349
G1 X70.515 Y126.553 E.039
G1 X69.921 Y126.122 E.03789
G1 X69.437 Y125.586 E.0373
G1 X69.066 Y124.946 E.03817
G1 X68.839 Y124.244 E.03806
G1 X68.762 Y123.509 E.03814
G1 X68.762 Y89.669 E1.74674
G1 X68.798 Y89.05 E.03196
G1 X68.932 Y88.448 E.03188
G1 X69.23 Y87.775 E.03796
G1 X69.661 Y87.181 E.0379
G1 X70.207 Y86.69 E.0379
G1 X70.843 Y86.323 E.0379
G1 X71.534 Y86.099 E.03749
G1 X72.274 Y86.022 E.03839
G1 X148.25 Y86.022 E3.92156
G1 X148.989 Y86.099 E.03839
G1 X149.685 Y86.325 E.03775
G1 X150.318 Y86.691 E.03775
G1 X150.862 Y87.18 E.03775
G1 X151.268 Y87.74 E.03569
G1 E-3.5 F1800
;WIPE_START
G1 F900
G1 X151.477 Y88.194 E-1.5
;WIPE_END
G17
G3 Z.7 I-.813 J-.905 P1  F9000
G1 X148.2 Y91.139 Z.7
G1 Z.3
G1 E5 F1800
;TYPE:Inner wall
G1 F900
G1 X148.636 Y91.55 E.03093
G1 X149.032 Y92.032 E.03219
G1 X149.384 Y92.563 E.03288
G1 X149.793 Y93.403 E.04821
;WIDTH:0.546243
G1 X149.947 Y93.806 E.02465
;WIDTH:0.592486
G1 X150.101 Y94.209 E.02701
;WIDTH:0.638901
G1 X150.141 Y94.278 E.00545
;WIDTH:0.685316
G1 X150.181 Y94.348 E.00589
G1 X150.219 Y94.651 E.02249
;WIDTH:0.659928
G1 X150.257 Y94.954 E.02157
;WIDTH:0.63454
G1 X150.287 Y95.611 E.04441
;WIDTH:0.611823
G1 X150.289 Y95.671 E.00389
;WIDTH:0.610849
G1 X150.288 Y104.672 E.58285
;WIDTH:0.625755
G1 X150.269 Y105.232 E.03727
;WIDTH:0.666669
G1 X150.207 Y105.821 E.04223
G1 X150.146 Y105.984 E.01245
;WIDTH:0.625001
G1 X150.084 Y106.147 E.01158
;WIDTH:0.583334
G1 X150.022 Y106.31 E.01072
;WIDTH:0.541667
G1 X149.961 Y106.473 E.00986
;WIDTH:0.5
G1 X149.515 Y107.54 E.05966
G1 X149.103 Y108.212 E.04071
G1 X148.699 Y108.723 E.03364
G1 X148.249 Y109.181 E.0331
G1 X147.76 Y109.586 E.03277
G1 X147.222 Y109.943 E.03334
G1 X146.653 Y110.239 E.0331
G1 X146.057 Y110.474 E.03307
G1 X145.44 Y110.646 E.03307
G1 X144.808 Y110.752 E.03306
G1 X144.17 Y110.791 E.03302
G1 X134.111 Y110.793 E.51919
G1 X133.529 Y110.764 E.03009
G1 X132.895 Y110.67 E.03306
G1 X132.275 Y110.51 E.03306
G1 X131.675 Y110.286 E.03307
G1 X131.101 Y110 E.03306
G1 X130.561 Y109.656 E.03306
G1 X130.059 Y109.258 E.03307
G1 X129.602 Y108.809 E.03306
G1 X129.194 Y108.315 E.03307
G1 X128.572 Y107.263 E.06309
G1 X128.309 Y106.617 E.03599
G1 X128.172 Y106.128 E.02619
G1 X128.068 Y105.597 E.02794
G1 X127.992 Y104.729 E.04496
G1 X127.991 Y95.671 E.46757
G1 X128.02 Y95.089 E.03009
G1 X128.149 Y94.303 E.0411
G1 X128.42 Y93.43 E.04716
G1 X128.776 Y92.675 E.04311
G1 X129.127 Y92.121 E.03385
G1 X129.715 Y91.418 E.04731
G1 X130.445 Y90.774 E.05023
G1 X131.003 Y90.4 E.03468
G1 X131.571 Y90.104 E.03304
G1 X132.166 Y89.869 E.03304
G1 X133.204 Y89.622 E.05508
G1 X134.038 Y89.553 E.04318
G1 X144.113 Y89.55 E.52003
G1 X144.852 Y89.598 E.03823
G1 X145.441 Y89.698 E.03083
G1 X145.949 Y89.834 E.02717
G1 X146.549 Y90.058 E.03304
G1 X147.139 Y90.353 E.03403
G1 X147.578 Y90.632 E.02686
G1 X148.018 Y90.967 E.02857
G1 X148.171 Y91.111 E.01085
G1 X147.917 Y91.451 F9000
G1 F900
G1 X148.327 Y91.858 E.0298
G1 X148.693 Y92.305 E.02983
G1 X149.018 Y92.8 E.03057
G1 X149.399 Y93.589 E.04523
G1 X149.64 Y94.351 E.04122
G1 X149.761 Y95.037 E.03598
G1 X149.798 Y95.671 E.03276
G1 X149.798 Y104.672 E.46462
G1 X149.775 Y105.164 E.02539
G1 X149.693 Y105.749 E.03052
G1 X149.539 Y106.364 E.03272
G1 X149.115 Y107.367 E.0562
G1 X148.735 Y107.979 E.03714
G1 X148.36 Y108.449 E.03108
G1 X147.941 Y108.873 E.03075
G1 X147.486 Y109.247 E.03043
G1 X146.984 Y109.577 E.03099
G1 X146.455 Y109.851 E.03073
G1 X145.901 Y110.068 E.03071
G1 X145.327 Y110.225 E.03071
G1 X144.74 Y110.322 E.03071
G1 X144.147 Y110.356 E.03067
G1 X143.211 Y110.357 E.04828
G1 X134.111 Y110.357 E.46973
G1 X133.552 Y110.329 E.02891
G1 X132.963 Y110.239 E.03071
G1 X132.388 Y110.089 E.03071
G1 X131.831 Y109.879 E.03071
G1 X131.299 Y109.612 E.03071
G1 X130.798 Y109.291 E.03071
G1 X130.333 Y108.919 E.03071
G1 X129.91 Y108.501 E.03071
G1 X129.533 Y108.041 E.03072
G1 X129.239 Y107.548 E.02958
G1 X128.949 Y107.045 E.02999
G1 X128.716 Y106.461 E.03247
G1 X128.558 Y105.887 E.03071
G1 X128.462 Y105.3 E.03071
G1 X128.427 Y104.707 E.03067
G1 X128.426 Y95.671 E.4664
G1 X128.455 Y95.111 E.02891
G1 X128.565 Y94.432 E.03553
G1 X128.836 Y93.559 E.04716
G1 X129.167 Y92.867 E.0396
