; HEADER_BLOCK_START
; generated by OrcaSlicer 1.7.0 on 2023-12-09 at 21:22:15
; total layer number: 195
; HEADER_BLOCK_END

; THUMBNAIL_BLOCK_START
; THUMBNAIL_BLOCK_END

; external perimeters extrusion width = 0.40mm
; perimeters extrusion width = 0.45mm
; infill extrusion width = 0.45mm
; solid infill extrusion width = 0.40mm
; top infill extrusion width = 0.40mm
; first layer extrusion width = 0.50mm

; EXECUTABLE_BLOCK_START
EXCLUDE_OBJECT_DEFINE NAME=Gridfinity_Caliper_Holder_-_Gridfinity_Caliper_Holder_3_.stl_id_0_copy_0 CENTER=110,110 POLYGON=[[68.25,93],[68.2521,92.8743],[68.2536,92.8364],[68.261,92.7134],[68.2643,92.6732],[68.2767,92.5531],[68.2821,92.5105],[68.2994,92.3936],[68.307,92.3488],[68.3288,92.2352],[68.3389,92.1883],[68.3651,92.0782],[68.3778,92.0294],[68.408,91.9229],[68.4236,91.8724],[68.4576,91.7697],[68.4762,91.7174],[68.5137,91.6186],[68.5354,91.5649],[68.5762,91.4702],[68.6013,91.4152],[68.6451,91.3245],[68.6737,91.2684],[68.7202,91.182],[68.7524,91.125],[68.8013,91.0428],[68.8373,90.9851],[68.8883,90.9072],[68.9282,90.8491],[68.981,90.7755],[69.0249,90.7171],[69.0794,90.6479],[69.1273,90.5895],[69.1831,90.5246],[69.2352,90.4665],[69.292,90.4059],[69.3484,90.3483],[69.4059,90.292],[69.4665,90.2352],[69.5246,90.1831],[69.5895,90.1273],[69.6479,90.0794],[69.7171,90.0249],[69.7755,89.981],[69.8491,89.9282],[69.9072,89.8883],[69.9851,89.8373],[70.0428,89.8013],[70.125,89.7524],[70.182,89.7202],[70.2684,89.6737],[70.3246,89.6451],[70.4152,89.6013],[70.4702,89.5762],[70.5649,89.5354],[70.6187,89.5137],[70.7174,89.4762],[70.7697,89.4576],[70.8724,89.4236],[70.923,89.408],[71.0294,89.3778],[71.0782,89.3651],[71.1884,89.3389],[71.2352,89.3288],[71.3488,89.307],[71.3936,89.2994],[71.5105,89.2821],[71.5531,89.2767],[71.6732,89.2643],[71.7134,89.261],[71.8364,89.2536],[71.8743,89.2521],[72,89.25],[148,89.25],[148.159,89.2534],[148.164,89.2536],[148.318,89.2635],[148.327,89.2643],[148.476,89.2804],[148.489,89.2821],[148.634,89.3039],[148.651,89.307],[148.79,89.3342],[148.812,89.3389],[148.945,89.371],[148.971,89.3778],[149.098,89.4144],[149.128,89.4236],[149.249,89.4642],[149.283,89.4762],[149.398,89.5204],[149.435,89.5354],[149.545,89.5829],[149.585,89.6013],[149.688,89.6515],[149.732,89.6737],[149.829,89.7262],[149.875,89.7524],[149.966,89.8068],[150.015,89.8373],[150.1,89.8931],[150.151,89.9282],[150.23,89.985],[150.283,90.0249],[150.356,90.0824],[150.41,90.1273],[150.478,90.185],[150.533,90.2352],[150.595,90.2927],[150.652,90.3483],[150.707,90.4052],[150.765,90.4665],[150.815,90.5225],[150.873,90.5895],[150.918,90.6442],[150.975,90.7171],[151.015,90.7701],[151.072,90.8491],[151.107,90.9001],[151.163,90.9851],[151.193,91.0338],[151.248,91.125],[151.274,91.1711],[151.326,91.2684],[151.348,91.3117],[151.399,91.4152],[151.417,91.4554],[151.465,91.5649],[151.48,91.6018],[151.524,91.7174],[151.536,91.7507],[151.576,91.8724],[151.586,91.9019],[151.622,92.0294],[151.629,92.0551],[151.661,92.1883],[151.666,92.21],[151.693,92.3488],[151.696,92.3662],[151.718,92.5105],[151.72,92.5237],[151.736,92.6732],[151.736,92.682],[151.746,92.8364],[151.747,92.8408],[151.75,93],[151.75,127],[151.75,127.029],[151.747,127.159],[151.746,127.164],[151.745,127.191],[151.736,127.318],[151.736,127.327],[151.733,127.353],[151.72,127.476],[151.718,127.489],[151.715,127.514],[151.696,127.634],[151.693,127.651],[151.689,127.674],[151.666,127.79],[151.661,127.812],[151.656,127.832],[151.629,127.945],[151.622,127.971],[151.617,127.99],[151.586,128.098],[151.576,128.128],[151.571,128.145],[151.536,128.249],[151.524,128.283],[151.518,128.298],[151.48,128.398],[151.465,128.435],[151.459,128.449],[151.417,128.545],[151.399,128.585],[151.393,128.597],[151.348,128.688],[151.326,128.732],[151.321,128.742],[151.274,128.829],[151.248,128.875],[151.243,128.883],[151.193,128.966],[151.163,129.015],[151.158,129.022],[151.107,129.1],[151.072,129.151],[151.068,129.156],[151.015,129.23],[150.975,129.283],[150.972,129.287],[150.918,129.356],[150.873,129.41],[150.871,129.413],[150.815,129.478],[150.765,129.533],[150.764,129.535],[150.707,129.595],[150.652,129.652],[150.595,129.707],[150.535,129.764],[150.533,129.765],[150.478,129.815],[150.413,129.871],[150.41,129.873],[150.356,129.918],[150.287,129.972],[150.283,129.975],[150.23,130.015],[150.156,130.068],[150.151,130.072],[150.1,130.107],[150.022,130.158],[150.015,130.163],[149.966,130.193],[149.883,130.243],[149.875,130.248],[149.829,130.274],[149.742,130.321],[149.732,130.326],[149.688,130.348],[149.597,130.393],[149.585,130.399],[149.545,130.417],[149.449,130.459],[149.435,130.465],[149.398,130.48],[149.298,130.518],[149.283,130.524],[149.249,130.536],[149.145,130.571],[149.128,130.576],[149.098,130.586],[148.99,130.617],[148.971,130.622],[148.945,130.629],[148.832,130.656],[148.812,130.661],[148.79,130.666],[148.674,130.689],[148.651,130.693],[148.634,130.696],[148.514,130.715],[148.489,130.718],[148.476,130.72],[148.353,130.733],[148.327,130.736],[148.318,130.736],[148.191,130.745],[148.164,130.746],[148.159,130.747],[148.029,130.75],[148,130.75],[72,130.75],[71.8752,130.748],[71.8743,130.748],[71.8408,130.747],[71.7153,130.739],[71.7134,130.739],[71.682,130.736],[71.5559,130.724],[71.5531,130.723],[71.5237,130.72],[71.3973,130.701],[71.3936,130.701],[71.3662,130.696],[71.2399,130.672],[71.2352,130.671],[71.21,130.666],[71.0838,130.636],[71.0782,130.635],[71.0551,130.629],[70.9293,130.594],[70.923,130.592],[70.9019,130.586],[70.7769,130.545],[70.7697,130.542],[70.7507,130.536],[70.6266,130.489],[70.6187,130.486],[70.6018,130.48],[70.4789,130.428],[70.4702,130.424],[70.4554,130.417],[70.334,130.36],[70.3246,130.355],[70.3117,130.348],[70.192,130.285],[70.182,130.28],[70.1711,130.274],[70.0534,130.205],[70.0428,130.199],[70.0338,130.193],[69.9183,130.119],[69.9072,130.112],[69.9001,130.107],[69.7871,130.027],[69.7755,130.019],[69.7701,130.015],[69.6598,129.93],[69.6479,129.921],[69.6442,129.918],[69.5368,129.828],[69.5246,129.817],[69.5225,129.815],[69.4184,129.72],[69.4059,129.708],[69.4052,129.707],[69.3046,129.607],[69.2927,129.595],[69.292,129.594],[69.1957,129.49],[69.185,129.478],[69.1831,129.475],[69.092,129.368],[69.0824,129.356],[69.0794,129.352],[68.9936,129.241],[68.985,129.23],[68.981,129.224],[68.9006,129.111],[68.8931,129.1],[68.8883,129.093],[68.8133,128.977],[68.8068,128.966],[68.8013,128.957],[68.7318,128.839],[68.7262,128.829],[68.7202,128.818],[68.6563,128.698],[68.6515,128.688],[68.6451,128.675],[68.5868,128.553],[68.5829,128.545],[68.5762,128.53],[68.5236,128.406],[68.5204,128.398],[68.5137,128.381],[68.4668,128.256],[68.4642,128.249],[68.4576,128.23],[68.4163,128.104],[68.4144,128.098],[68.408,128.077],[68.3724,127.95],[68.371,127.945],[68.3651,127.922],[68.3352,127.795],[68.3342,127.79],[68.3288,127.765],[68.3046,127.638],[68.3039,127.634],[68.2994,127.606],[68.2807,127.479],[68.2804,127.476],[68.2767,127.447],[68.2637,127.32],[68.2635,127.318],[68.261,127.287],[68.2534,127.16],[68.2534,127.159],[68.2521,127.126],[68.25,127],[68.25,93]]
M73 P0 R182
;TYPE:Custom
START_PRINT EXTRUDER_TEMP=255  BED_TEMP=80
G90
G21
M83 ; use relative distances for extrusion
; filament start gcode
M106 S0
;LAYER_CHANGE
;Z:0.2
;HEIGHT:0.2
;BEFORE_LAYER_CHANGE
;0.2
G92 E0

G1 E-5 F1800
;_SET_FAN_SPEED_CHANGING_LAYER
; printing object Gridfinity Caliper Holder - Gridfinity Caliper Holder (3).stl id:0 copy 0
EXCLUDE_OBJECT_START NAME=Gridfinity_Caliper_Holder_-_Gridfinity_Caliper_Holder_3_.stl_id_0_copy_0
G1 X105.668 Y94.444 F9000
G1 Z.4
G1 Z.2
G1 E5 F1800
;TYPE:Inner wall
;WIDTH:0.634476
G1 F900
G1 X105.488 Y94.191 E.01451
G1 X105.102 Y93.77 E.02667
G1 X104.543 Y93.332 E.0332
G1 X105.668 Y93.332 E.05257
G1 X105.668 Y94.404 E.05009
G1 E-3.5 F1800
;WIPE_START
G1 F900
G1 X105.488 Y94.191 E-.27888
G1 X105.102 Y93.77 E-.57073
G1 X104.59 Y93.369 E-.65039
;WIPE_END
G17
G3 Z.6 I-1.195 J.23 P1  F9000
G1 X105.735 Y99.329 Z.6
G1 Z.2
G1 E5 F1800
;WIDTH:0.499999
G1 F900
G1 X105.736 Y120.685 E.77108
G1 X105.438 Y120.237 E.01943
G1 X104.906 Y119.681 E.02777
G1 X104.263 Y119.216 E.02865
G1 X103.39 Y118.816 E.03467
G1 X102.427 Y118.614 E.03554
G1 X101.326 Y118.641 E.03978
G1 X100.556 Y118.834 E.02866
G1 X99.688 Y119.245 E.03466
G1 X98.947 Y119.816 E.03377
G1 X98.427 Y120.416 E.02866
G1 X97.953 Y121.25 E.03465
G1 X97.673 Y122.143 E.03377
G1 X97.59 Y122.907 E.02777
G1 X97.641 Y123.674 E.02776
G1 X97.834 Y124.444 E.02866
G1 X98.245 Y125.312 E.03466
G1 X98.816 Y126.053 E.03377
G1 X99.236 Y126.438 E.02059
G1 X99.672 Y126.736 E.01905
G1 X78.339 Y126.736 E.77025
G1 X78.929 Y126.296 E.02656
G1 X79.573 Y125.584 E.03466
G1 X80.039 Y124.773 E.03377
G1 X80.289 Y124.021 E.02865
G1 X80.41 Y123.093 E.03377
G1 X80.359 Y122.326 E.02777
G1 X80.166 Y121.556 E.02866
G1 X79.755 Y120.688 E.03466
G1 X79.165 Y119.931 E.03465
G1 X78.448 Y119.331 E.03377
G1 X77.75 Y118.953 E.02866
G1 X76.857 Y118.673 E.03377
G1 X76.093 Y118.59 E.02777
G1 X75.301 Y118.647 E.02865
G1 X74.398 Y118.89 E.03377
G1 X73.688 Y119.245 E.02867
G1 X72.946 Y119.817 E.03381
G1 X72.558 Y120.242 E.02081
G1 X72.264 Y120.684 E.01916
G1 X72.264 Y99.341 E.77064
G1 X72.334 Y99.453 E.00479
G1 X72.816 Y100.053 E.02777
G1 X73.394 Y100.559 E.02776
G1 X74.075 Y100.967 E.02866
G1 X74.955 Y101.285 E.03377
G1 X75.74 Y101.401 E.02866
G1 X76.699 Y101.353 E.03465
G1 X77.603 Y101.109 E.03381
G1 X78.317 Y100.751 E.02885
G1 X79.053 Y100.184 E.03353
G1 X79.573 Y99.584 E.02867
G1 X80.039 Y98.773 E.03377
G1 X80.289 Y98.021 E.02865
G1 X80.409 Y97.068 E.03465
G1 X80.326 Y96.136 E.03378
G1 X80.11 Y95.398 E.02777
G1 X79.755 Y94.688 E.02866
G1 X79.165 Y93.931 E.03465
G1 X78.63 Y93.461 E.02571
G1 X78.333 Y93.264 E.01287
G1 X99.662 Y93.264 E.77012
G1 X98.947 Y93.816 E.0326
G1 X98.441 Y94.394 E.02776
G1 X98.033 Y95.076 E.02866
G1 X97.711 Y95.979 E.03465
G1 X97.59 Y96.907 E.03377
G1 X97.647 Y97.699 E.02867
G1 X97.816 Y98.391 E.02571
G1 X98.021 Y98.868 E.01876
G1 X98.334 Y99.453 E.02397
G1 X98.816 Y100.053 E.02777
G1 X99.416 Y100.573 E.02866
G1 X100.227 Y101.039 E.03377
G1 X100.955 Y101.285 E.02776
G1 X101.74 Y101.401 E.02866
G1 X102.699 Y101.353 E.03465
G1 X103.602 Y101.11 E.03377
G1 X104.312 Y100.755 E.02867
G1 X105.053 Y100.184 E.03377
G1 X105.438 Y99.764 E.02059
G1 X105.713 Y99.362 E.01757
G1 X105.791 Y98.02 F9000
G1 F900
G1 X105.541 Y98.759 E.02815
G1 X105.174 Y99.36 E.02543
G1 X104.716 Y99.875 E.02489
G1 X104.041 Y100.386 E.03054
G1 X103.408 Y100.696 E.02544
G1 X102.59 Y100.909 E.03054
G1 X101.73 Y100.945 E.03107
G1 X101.034 Y100.835 E.02543
G1 X100.383 Y100.609 E.02489
G1 X99.653 Y100.182 E.03054
G1 X99.125 Y99.716 E.02543
G1 X98.697 Y99.175 E.0249
G1 X98.431 Y98.666 E.02074
G1 X98.26 Y98.282 E.01517
G1 X98.091 Y97.59 E.02571
G1 X98.047 Y96.887 E.02544
G1 X98.162 Y96.049 E.03054
G1 X98.459 Y95.241 E.03107
G1 X98.826 Y94.64 E.02543
G1 X99.284 Y94.125 E.02489
G1 X99.959 Y93.614 E.03054
G1 X100.591 Y93.304 E.02543
G1 X101.005 Y93.216 E.01528
;WIDTH:0.460945
G1 X101.419 Y93.129 E.01397
;WIDTH:0.421891
G1 X102.427 Y93.119 E.03018
;WIDTH:0.451595
G1 X102.854 Y93.19 E.01398
;WIDTH:0.499999
G1 X103.282 Y93.26 E.01564
G1 X103.925 Y93.545 E.02543
G1 X104.615 Y94.035 E.03054
G1 X105.101 Y94.545 E.02544
G1 X105.551 Y95.262 E.03054
G1 X105.791 Y95.924 E.02542
;WIDTH:0.471551
G1 X105.843 Y96.342 E.01428
;WIDTH:0.433478
G1 X105.894 Y96.761 E.01301
;WIDTH:0.395457
G1 X105.892 Y97.299 E.01498
;WIDTH:0.42346
G1 X105.852 Y97.63 E.01004
;WIDTH:0.451463
G1 X105.811 Y97.962 E.01077
;WIDTH:0.499999
G1 X105.804 Y97.982 E.0008
G1 E-3.5 F1800
;WIPE_START
G1 F900
G1 X105.541 Y98.759 E-.81977
G1 X105.186 Y99.339 E-.68023
;WIPE_END
G17
G3 Z.6 I-1.217 J.022 P1  F9000
G1 X105.668 Y125.559 Z.6
G1 Z.2
G1 E5 F1800
;WIDTH:0.634718
G1 F900
G1 X105.668 Y126.668 E.05185
G1 X104.544 Y126.668 E.05259
G1 X104.926 Y126.387 E.02221
G1 X105.154 Y126.173 E.01464
G1 X105.643 Y125.59 E.03554
G1 E-3.5 F1800
;WIPE_START
G1 F900
G1 X105.668 Y126.668 E-1.07875
G1 X105.247 Y126.668 E-.42125
;WIPE_END
G17
G3 Z.6 I1.179 J-.302 P1  F9000
G1 X103.357 Y119.295 Z.6
G1 Z.2
G1 E5 F1800
;WIDTH:0.499999
G1 F900
G1 X104.061 Y119.626 E.02808
G1 X104.628 Y120.044 E.02542
G1 X105.101 Y120.545 E.0249
G1 X105.551 Y121.262 E.03055
G1 X105.791 Y121.924 E.02542
;WIDTH:0.471663
G1 X105.843 Y122.342 E.01429
;WIDTH:0.433628
G1 X105.894 Y122.761 E.01302
;WIDTH:0.395643
G1 X105.892 Y123.299 E.01498
;WIDTH:0.423648
G1 X105.852 Y123.63 E.01004
;WIDTH:0.451653
G1 X105.811 Y123.962 E.01078
;WIDTH:0.499999
G1 X105.541 Y124.759 E.0304
G1 X105.174 Y125.36 E.02543
G1 X104.768 Y125.818 E.02211
G1 X104.047 Y126.383 E.03305
G1 X103.409 Y126.695 E.02565
G1 X102.995 Y126.783 E.01529
;WIDTH:0.461003
G1 X102.581 Y126.872 E.01399
;WIDTH:0.422007
G1 X101.885 Y126.899 E.02086
;WIDTH:0.42072
G1 X101.469 Y126.856 E.01248
;WIDTH:0.450136
G1 X101.053 Y126.813 E.01345
;WIDTH:0.499999
G1 X100.241 Y126.541 E.0309
G1 X100.121 Y126.48 E.00485
G1 X99.64 Y126.174 E.0206
G1 X99.125 Y125.716 E.02489
G1 X98.614 Y125.041 E.03054
G1 X98.252 Y124.26 E.03108
G1 X98.087 Y123.575 E.02543
G1 X98.047 Y122.887 E.02489
G1 X98.126 Y122.202 E.0249
G1 X98.386 Y121.397 E.03054
G1 X98.818 Y120.653 E.03107
G1 X99.284 Y120.125 E.02543
G1 X99.959 Y119.614 E.03054
G1 X100.74 Y119.252 E.03108
G1 X101.425 Y119.087 E.02543
G1 X102.427 Y119.071 E.0362
G1 X103.282 Y119.26 E.03161
G1 X103.321 Y119.278 E.00156
G1 E-3.5 F1800
;WIPE_START
G1 F900
G1 X104.061 Y119.626 E-.81782
G1 X104.61 Y120.031 E-.68218
;WIPE_END
G17
G3 Z.6 I-.205 J-1.2 P1  F9000
G1 X72.332 Y125.543 Z.6
G1 Z.2
G1 E5 F1800
;WIDTH:0.634727
G1 F900
G1 X72.771 Y126.102 E.03324
G1 X73.191 Y126.488 E.02667
G1 X73.444 Y126.668 E.01454
G1 X72.332 Y126.668 E.05201
G1 X72.332 Y125.583 E.05074
G1 X72.58 Y124.967 F9000
;WIDTH:0.499999
G1 F900
G1 X72.252 Y124.26 E.02812
G1 X72.19 Y123.913 E.01272
;WIDTH:0.458955
G1 X72.127 Y123.567 E.01158
;WIDTH:0.41791
G1 X72.101 Y122.885 E.02022
;WIDTH:0.420722
G1 X72.144 Y122.469 E.01248
;WIDTH:0.450136
G1 X72.187 Y122.053 E.01345
;WIDTH:0.499999
G1 X72.391 Y121.383 E.02528
G1 X72.814 Y120.658 E.03031
G1 X73.284 Y120.125 E.02564
G1 X73.959 Y119.614 E.03057
G1 X74.592 Y119.304 E.02544
G1 X75.41 Y119.091 E.03054
G1 X76.113 Y119.047 E.02542
G1 X76.798 Y119.126 E.0249
G1 X77.603 Y119.386 E.03054
G1 X78.219 Y119.727 E.02543
G1 X78.864 Y120.274 E.03054
G1 X79.386 Y120.959 E.03107
G1 X79.748 Y121.74 E.03108
G1 X79.928 Y122.543 E.02973
G1 X79.953 Y123.113 E.0206
G1 X79.838 Y123.951 E.03054
G1 X79.609 Y124.617 E.02542
G1 X79.182 Y125.347 E.03054
G1 X78.598 Y125.98 E.03108
G1 X78.029 Y126.395 E.02543
G1 X77.409 Y126.696 E.02489
G1 X77.073 Y126.774 E.01245
;WIDTH:0.467623
G1 X76.737 Y126.853 E.01157
;WIDTH:0.435246
G1 X75.898 Y126.899 E.02603
;WIDTH:0.420959
G1 X75.476 Y126.856 E.01269
;WIDTH:0.450133
G1 X75.053 Y126.813 E.01367
;WIDTH:0.499999
G1 X74.383 Y126.609 E.02528
G1 X73.653 Y126.182 E.03054
G1 X73.182 Y125.768 E.02265
G1 X72.614 Y125.041 E.03328
G1 X72.596 Y125.003 E.00152
G1 E-3.5 F1800
;WIPE_START
G1 F900
G1 X72.252 Y124.26 E-.81873
G1 X72.19 Y123.913 E-.35241
G1 X72.131 Y123.59 E-.32886
;WIPE_END
G17
G3 Z.6 I1.217 J.008 P1  F9000
G1 X72.332 Y94.441 Z.6
G1 Z.2
G1 E5 F1800
;WIDTH:0.634722
G1 F900
G1 X72.332 Y93.332 E.05185
G1 X73.457 Y93.332 E.05261
G1 X73.075 Y93.612 E.02217
G1 X72.846 Y93.827 E.01469
G1 X72.357 Y94.41 E.03554
G1 E-3.5 F1800
;WIPE_START
G1 F900
G1 X72.332 Y93.332 E-1.07877
G1 X72.753 Y93.332 E-.42123
;WIPE_END
G17
G3 Z.6 I-1.212 J-.112 P1  F9000
G1 X72.289 Y98.323 Z.6
G1 Z.2
G1 E5 F1800
;WIDTH:0.499999
G1 F900
G1 X72.22 Y98.001 E.0119
;WIDTH:0.461002
G1 X72.128 Y97.581 E.01421
;WIDTH:0.422005
G1 X72.101 Y96.885 E.02086
;WIDTH:0.420717
G1 X72.144 Y96.469 E.01248
;WIDTH:0.450131
G1 X72.187 Y96.053 E.01345
;WIDTH:0.499999
G1 X72.459 Y95.241 E.03091
G1 X72.826 Y94.64 E.02543
G1 X73.232 Y94.182 E.02211
G1 X73.959 Y93.614 E.0333
G1 X74.74 Y93.252 E.03107
G1 X75.087 Y93.19 E.01272
;WIDTH:0.458944
G1 X75.433 Y93.127 E.01158
;WIDTH:0.417889
G1 X76.115 Y93.101 E.02021
;WIDTH:0.420671
G1 X76.531 Y93.144 E.01248
;WIDTH:0.450061
G1 X76.947 Y93.187 E.01345
;WIDTH:0.499999
G1 X77.617 Y93.391 E.02529
