; HEADER_BLOCK_START
; generated by OrcaSlicer 1.7.0 on 2023-12-09 at 20:52:06
; total layer number: 32
; HEADER_BLOCK_END

; THUMBNAIL_BLOCK_START
; THUMBNAIL_BLOCK_END

; external perimeters extrusion width = 0.40mm
; perimeters extrusion width = 0.45mm
; infill extrusion width = 0.45mm
; solid infill extrusion width = 0.40mm
; top infill extrusion width = 0.40mm
; first layer extrusion width = 0.50mm

; EXECUTABLE_BLOCK_START
EXCLUDE_OBJECT_DEFINE NAME=Gridfinity_Caliper_Holder_-_Gridfinity_Caliper_Holder_2_.stl_id_0_copy_0 CENTER=110,110 POLYGON=[[68.25,93],[68.2521,92.8743],[68.2536,92.8364],[68.261,92.7134],[68.2643,92.6732],[68.2767,92.5531],[68.2821,92.5105],[68.2994,92.3936],[68.307,92.3488],[68.3288,92.2352],[68.3389,92.1883],[68.3651,92.0782],[68.3778,92.0294],[68.408,91.9229],[68.4236,91.8724],[68.4576,91.7697],[68.4762,91.7174],[68.5137,91.6186],[68.5354,91.5649],[68.5762,91.4702],[68.6013,91.4152],[68.6451,91.3245],[68.6737,91.2684],[68.7202,91.182],[68.7524,91.125],[68.8013,91.0428],[68.8373,90.9851],[68.8883,90.9072],[68.9282,90.8491],[68.981,90.7755],[69.0249,90.7171],[69.0794,90.6479],[69.1273,90.5895],[69.1831,90.5246],[69.2352,90.4665],[69.292,90.4059],[69.3484,90.3483],[69.4059,90.292],[69.4665,90.2352],[69.5246,90.1831],[69.5895,90.1273],[69.6479,90.0794],[69.7171,90.0249],[69.7755,89.981],[69.8491,89.9282],[69.9072,89.8883],[69.9851,89.8373],[70.0428,89.8013],[70.125,89.7524],[70.182,89.7202],[70.2684,89.6737],[70.3246,89.6451],[70.4152,89.6013],[70.4702,89.5762],[70.5649,89.5354],[70.6187,89.5137],[70.7174,89.4762],[70.7697,89.4576],[70.8724,89.4236],[70.923,89.408],[71.0294,89.3778],[71.0782,89.3651],[71.1884,89.3389],[71.2352,89.3288],[71.3488,89.307],[71.3936,89.2994],[71.5105,89.2821],[71.5531,89.2767],[71.6732,89.2643],[71.7134,89.261],[71.8364,89.2536],[71.8743,89.2521],[72,89.25],[148,89.25],[148.159,89.2534],[148.164,89.2536],[148.318,89.2635],[148.327,89.2643],[148.476,89.2804],[148.489,89.2821],[148.634,89.3039],[148.651,89.307],[148.79,89.3342],[148.812,89.3389],[148.945,89.371],[148.971,89.3778],[149.098,89.4144],[149.128,89.4236],[149.249,89.4642],[149.283,89.4762],[149.398,89.5204],[149.435,89.5354],[149.545,89.5829],[149.585,89.6013],[149.688,89.6515],[149.732,89.6737],[149.829,89.7262],[149.875,89.7524],[149.966,89.8068],[150.015,89.8373],[150.1,89.8931],[150.151,89.9282],[150.23,89.985],[150.283,90.0249],[150.356,90.0824],[150.41,90.1273],[150.478,90.185],[150.533,90.2352],[150.595,90.2927],[150.652,90.3483],[150.707,90.4052],[150.765,90.4665],[150.815,90.5225],[150.873,90.5895],[150.918,90.6442],[150.975,90.7171],[151.015,90.7701],[151.072,90.8491],[151.107,90.9001],[151.163,90.9851],[151.193,91.0338],[151.248,91.125],[151.274,91.1711],[151.326,91.2684],[151.348,91.3117],[151.399,91.4152],[151.417,91.4554],[151.465,91.5649],[151.48,91.6018],[151.524,91.7174],[151.536,91.7507],[151.576,91.8724],[151.586,91.9019],[151.622,92.0294],[151.629,92.0551],[151.661,92.1883],[151.666,92.21],[151.693,92.3488],[151.696,92.3662],[151.718,92.5105],[151.72,92.5237],[151.736,92.6732],[151.736,92.682],[151.746,92.8364],[151.747,92.8408],[151.75,93],[151.75,127],[151.75,127.029],[151.747,127.159],[151.746,127.164],[151.745,127.191],[151.736,127.318],[151.736,127.327],[151.733,127.353],[151.72,127.476],[151.718,127.489],[151.715,127.514],[151.696,127.634],[151.693,127.651],[151.689,127.674],[151.666,127.79],[151.661,127.812],[151.656,127.832],[151.629,127.945],[151.622,127.971],[151.617,127.99],[151.586,128.098],[151.576,128.128],[151.571,128.145],[151.536,128.249],[151.524,128.283],[151.518,128.298],[151.48,128.398],[151.465,128.435],[151.459,128.449],[151.417,128.545],[151.399,128.585],[151.393,128.597],[151.348,128.688],[151.326,128.732],[151.321,128.742],[151.274,128.829],[151.248,128.875],[151.243,128.883],[151.193,128.966],[151.163,129.015],[151.158,129.022],[151.107,129.1],[151.072,129.151],[151.068,129.156],[151.015,129.23],[150.975,129.283],[150.972,129.287],[150.918,129.356],[150.873,129.41],[150.871,129.413],[150.815,129.478],[150.765,129.533],[150.764,129.535],[150.707,129.595],[150.652,129.652],[150.595,129.707],[150.535,129.764],[150.533,129.765],[150.478,129.815],[150.413,129.871],[150.41,129.873],[150.356,129.918],[150.287,129.972],[150.283,129.975],[150.23,130.015],[150.156,130.068],[150.151,130.072],[150.1,130.107],[150.022,130.158],[150.015,130.163],[149.966,130.193],[149.883,130.243],[149.875,130.248],[149.829,130.274],[149.742,130.321],[149.732,130.326],[149.688,130.348],[149.597,130.393],[149.585,130.399],[149.545,130.417],[149.449,130.459],[149.435,130.465],[149.398,130.48],[149.298,130.518],[149.283,130.524],[149.249,130.536],[149.145,130.571],[149.128,130.576],[149.098,130.586],[148.99,130.617],[148.971,130.622],[148.945,130.629],[148.832,130.656],[148.812,130.661],[148.79,130.666],[148.674,130.689],[148.651,130.693],[148.634,130.696],[148.514,130.715],[148.489,130.718],[148.476,130.72],[148.353,130.733],[148.327,130.736],[148.318,130.736],[148.191,130.745],[148.164,130.746],[148.159,130.747],[148.029,130.75],[148,130.75],[72,130.75],[71.8752,130.748],[71.8743,130.748],[71.8408,130.747],[71.7153,130.739],[71.7134,130.739],[71.682,130.736],[71.5559,130.724],[71.5531,130.723],[71.5237,130.72],[71.3973,130.701],[71.3936,130.701],[71.3662,130.696],[71.2399,130.672],[71.2352,130.671],[71.21,130.666],[71.0838,130.636],[71.0782,130.635],[71.0551,130.629],[70.9293,130.594],[70.923,130.592],[70.9019,130.586],[70.7769,130.545],[70.7697,130.542],[70.7507,130.536],[70.6266,130.489],[70.6187,130.486],[70.6018,130.48],[70.4789,130.428],[70.4702,130.424],[70.4554,130.417],[70.334,130.36],[70.3246,130.355],[70.3117,130.348],[70.192,130.285],[70.182,130.28],[70.1711,130.274],[70.0534,130.205],[70.0428,130.199],[70.0338,130.193],[69.9183,130.119],[69.9072,130.112],[69.9001,130.107],[69.7871,130.027],[69.7755,130.019],[69.7701,130.015],[69.6598,129.93],[69.6479,129.921],[69.6442,129.918],[69.5368,129.828],[69.5246,129.817],[69.5225,129.815],[69.4184,129.72],[69.4059,129.708],[69.4052,129.707],[69.3046,129.607],[69.2927,129.595],[69.292,129.594],[69.1957,129.49],[69.185,129.478],[69.1831,129.475],[69.092,129.368],[69.0824,129.356],[69.0794,129.352],[68.9936,129.241],[68.985,129.23],[68.981,129.224],[68.9006,129.111],[68.8931,129.1],[68.8883,129.093],[68.8133,128.977],[68.8068,128.966],[68.8013,128.957],[68.7318,128.839],[68.7262,128.829],[68.7202,128.818],[68.6563,128.698],[68.6515,128.688],[68.6451,128.675],[68.5868,128.553],[68.5829,128.545],[68.5762,128.53],[68.5236,128.406],[68.5204,128.398],[68.5137,128.381],[68.4668,128.256],[68.4642,128.249],[68.4576,128.23],[68.4163,128.104],[68.4144,128.098],[68.408,128.077],[68.3724,127.95],[68.371,127.945],[68.3651,127.922],[68.3352,127.795],[68.3342,127.79],[68.3288,127.765],[68.3046,127.638],[68.3039,127.634],[68.2994,127.606],[68.2807,127.479],[68.2804,127.476],[68.2767,127.447],[68.2637,127.32],[68.2635,127.318],[68.261,127.287],[68.2534,127.16],[68.2534,127.159],[68.2521,127.126],[68.25,127],[68.25,93]]
M73 P0 R35
;TYPE:Custom
START_PRINT EXTRUDER_TEMP=255  BED_TEMP=80
G90
G21
M83 ; use relative distances for extrusion
; filament start gcode
M106 S0
;LAYER_CHANGE
;Z:0.2
;HEIGHT:0.2
;BEFORE_LAYER_CHANGE
;0.2
G92 E0

G1 E-5 F1800
;_SET_FAN_SPEED_CHANGING_LAYER
; printing object Gridfinity Caliper Holder - Gridfinity Caliper Holder (2).stl id:0 copy 0
EXCLUDE_OBJECT_START NAME=Gridfinity_Caliper_Holder_-_Gridfinity_Caliper_Holder_2_.stl_id_0_copy_0
G1 X145.691 Y94.089 F9000
G1 Z.4
G1 Z.2
G1 E5 F1800
;TYPE:Inner wall
;WIDTH:0.499999
G1 F900
G1 X145.867 Y94.318 E.01043
G1 X145.976 Y94.584 E.01038
G1 X146.014 Y94.879 E.01073
G1 X146.014 Y98.922 E.14598
G1 X145.987 Y99.171 E.00906
G1 X145.908 Y99.403 E.00885
G1 X145.641 Y99.766 E.01628
G1 X145.317 Y99.974 E.0139
G1 X145.012 Y100.055 E.01139
G1 X137.829 Y100.064 E.25937
G1 X137.408 Y99.984 E.01547
G1 X137.067 Y99.773 E.01445
G1 X136.843 Y99.5 E.01277
G1 X136.706 Y99.136 E.01404
G1 X136.686 Y98.921 E.00777
G1 X136.686 Y94.879 E.14597
G1 X136.748 Y94.508 E.01357
G1 X136.844 Y94.298 E.00833
G1 X137.001 Y94.09 E.00941
G1 X137.225 Y93.908 E.01042
G1 X137.631 Y93.753 E.01571
G1 X137.829 Y93.736 E.00715
G1 X144.872 Y93.736 E.25429
G1 X145.175 Y93.777 E.01105
G1 X145.447 Y93.892 E.01067
G1 X145.666 Y94.057 E.00991
G1 X145.336 Y94.405 F9000
G1 F900
G1 X145.463 Y94.532 E.00646
G1 X145.557 Y94.879 E.01297
G1 X145.557 Y98.921 E.14597
G1 X145.493 Y99.21 E.01068
G1 X145.333 Y99.428 E.00977
G1 X145.044 Y99.585 E.01187
G1 X144.956 Y99.602 E.00324
G1 X137.829 Y99.607 E.25734
G1 X137.576 Y99.559 E.00928
G1 X137.319 Y99.38 E.01131
G1 X137.167 Y99.102 E.01144
G1 X137.143 Y98.921 E.00658
G1 X137.143 Y94.879 E.14597
G1 X137.18 Y94.656 E.00814
G1 X137.332 Y94.406 E.01058
G1 X137.637 Y94.22 E.01287
G1 X137.829 Y94.193 E.007
G1 X144.871 Y94.193 E.25429
G1 X145.217 Y94.286 E.01292
G1 X145.308 Y94.377 E.00464
G1 X145.031 Y94.715 F9000
;TYPE:Outer wall
G1 F900
G1 X145.1 Y94.879 E.00643
G1 X145.1 Y98.921 E.14597
G1 X145.025 Y99.09 E.00667
G1 X144.9 Y99.148 E.005
G1 X137.829 Y99.15 E.25531
G1 X137.676 Y99.092 E.00589
G1 X137.6 Y98.921 E.00674
G1 X137.6 Y94.879 E.14597
G1 X137.663 Y94.721 E.00613
G1 X137.829 Y94.65 E.0065
G1 X144.871 Y94.65 E.25429
G1 X144.994 Y94.7 E.00476
G1 E-3.5 F1800
;WIPE_START
G1 F900
G1 X145.1 Y94.879 E-.20826
G1 X145.1 Y96.17 E-1.29174
;WIPE_END
G17
G3 Z.6 I-.81 J-.908 P1  F9000
G1 X114.754 Y123.222 Z.6
G1 Z.2
G1 E5 F1800
;TYPE:Inner wall
G1 F900
G1 X114.921 Y123.192 E.00613
G1 X115.251 Y123.001 E.01378
G1 X115.478 Y122.747 E.01231
G1 X115.606 Y122.482 E.01062
G1 X115.664 Y122.121 E.01318
G1 X115.664 Y116.264 E.21148
G1 X149.521 Y116.264 E1.22245
G1 X149.961 Y116.176 E.01618
G1 X150.436 Y115.807 E.02171
G1 X150.525 Y115.56 E.00948
;WIDTH:0.46708
G1 X150.615 Y115.313 E.0088
G1 X150.598 Y115.584 E.0091
;WIDTH:0.499999
G1 X150.582 Y115.856 E.00981
G1 X150.581 Y126.896 E.39862
G1 X150.542 Y127.461 E.02046
G1 X150.4 Y127.941 E.01804
G1 X150.176 Y128.392 E.01819
G1 X149.865 Y128.779 E.01794
G1 X149.482 Y129.116 E.0184
G1 X149.072 Y129.346 E.017
G1 X148.533 Y129.508 E.02031
G1 X147.984 Y129.586 E.02
G1 X72.097 Y129.584 E2.73999
G1 X71.584 Y129.55 E.01855
G1 X71.118 Y129.423 E.01745
G1 X70.664 Y129.21 E.01809
G1 X70.224 Y128.87 E.02008
G1 X69.852 Y128.432 E.02074
G1 X69.642 Y128.043 E.01597
G1 X69.489 Y127.524 E.01954
G1 X69.414 Y126.963 E.02043
G1 X69.418 Y93.095 E1.22285
G1 X69.456 Y92.551 E.01967
G1 X69.598 Y92.063 E.01836
G1 X69.821 Y91.612 E.01817
G1 X70.135 Y91.221 E.01809
G1 X70.518 Y90.884 E.01841
G1 X70.935 Y90.652 E.01724
G1 X71.46 Y90.493 E.01982
G1 X72.038 Y90.414 E.02107
G1 X147.902 Y90.417 E2.73914
M73 P1 R35
G1 X148.552 Y90.479 E.02359
G1 X149.068 Y90.651 E.01963
G1 X149.483 Y90.888 E.01725
G1 X149.825 Y91.175 E.01612
G1 X150.112 Y91.517 E.01612
G1 X150.349 Y91.932 E.01725
G1 X150.521 Y92.45 E.01972
G1 X150.582 Y93.081 E.02288
G1 X150.582 Y110.344 E.62331
G1 X150.602 Y110.711 E.01328
;WIDTH:0.45881
G1 X150.623 Y111.079 E.01208
G1 X150.529 Y110.736 E.01168
;WIDTH:0.499999
G1 X150.436 Y110.393 E.01283
G1 X149.961 Y110.024 E.02171
G1 X149.521 Y109.936 E.01618
G1 X74.563 Y109.946 E2.70644
G1 X74.214 Y110.051 E.01317
G1 X73.854 Y110.327 E.01638
G1 X73.707 Y110.541 E.00937
G1 X73.607 Y110.797 E.00993
G1 X73.572 Y111.078 E.01023
G1 X73.572 Y118.121 E.2543
G1 X73.589 Y118.319 E.00715
G1 X73.701 Y118.649 E.01258
G1 X73.843 Y118.86 E.0092
G1 X74.013 Y119.023 E.00851
G1 X74.372 Y119.211 E.01461
G1 X74.715 Y119.264 E.01253
G1 X78.631 Y119.264 E.14139
G1 X78.697 Y119.433 E.00655
G1 X79.178 Y120.37 E.03803
G1 X79.796 Y121.197 E.03728
G1 X80.393 Y121.78 E.03012
G1 X81.229 Y122.383 E.0372
G1 X82.175 Y122.845 E.03803
G1 X83.186 Y123.14 E.03803
G1 X84.184 Y123.26 E.03628
G1 X114.521 Y123.264 E1.09536
G1 X114.714 Y123.229 E.00708
G1 E-3.5 F1800
;WIPE_START
G1 F900
G1 X114.921 Y123.192 E-.20965
G1 X115.251 Y123.001 E-.38165
G1 X115.478 Y122.747 E-.34107
G1 X115.606 Y122.482 E-.29404
G1 X115.65 Y122.212 E-.27359
;WIPE_END
G17
G3 Z.6 I.709 J-.989 P1  F9000
G1 X70.946 Y90.148 Z.6
G1 Z.2
G1 E5 F1800
G1 F900
G1 X71.618 Y89.984 E.02499
G1 X72.023 Y89.957 E.01466
G1 X148.087 Y89.96 E2.74636
M73 P1 R34
G1 X148.654 Y90.032 E.02065
G1 X149.255 Y90.232 E.02287
G1 X149.745 Y90.511 E.02037
G1 X150.15 Y90.85 E.01906
G1 X150.489 Y91.255 E.01906
G1 X150.768 Y91.745 E.02037
G1 X150.969 Y92.347 E.02293
G1 X151.04 Y93.081 E.02661
G1 X151.038 Y127.146 E1.22995
M73 P2 R34
G1 X150.944 Y127.737 E.0216
G1 X150.753 Y128.293 E.02125
G1 X150.442 Y128.802 E.0215
G1 X150.055 Y129.242 E.02119
G1 X149.529 Y129.622 E.02343
G1 X149.066 Y129.848 E.01859
G1 X148.378 Y130.017 E.02557
G1 X148 Y130.043 E.01369
G1 X72.06 Y130.041 E2.74188
G1 X71.511 Y130.002 E.0199
G1 X70.927 Y129.839 E.02189
G1 X70.417 Y129.596 E.0204
G1 X69.907 Y129.203 E.02324
G1 X69.699 Y128.958 E.01159
G1 X69.362 Y128.501 E.02051
G1 X69.14 Y128.032 E.01872
G1 X68.982 Y127.369 E.02462
G1 X68.957 Y126.978 E.01416
G1 X68.961 Y92.875 E1.2313
G1 X69.053 Y92.277 E.02186
G1 X69.244 Y91.715 E.02143
G1 X69.555 Y91.202 E.02168
G1 X69.945 Y90.758 E.02133
G1 X70.468 Y90.38 E.02327
G1 X70.91 Y90.166 E.01774
G1 X70.798 Y89.714 F9000
;TYPE:Outer wall
G1 F900
G1 X71.548 Y89.53 E.02787
G1 X72.008 Y89.5 E.01665
G1 X148.116 Y89.503 E2.74794
G1 X148.756 Y89.584 E.02331
G1 X149.442 Y89.812 E.02611
G1 X150.008 Y90.134 E.02348
G1 X150.474 Y90.526 E.022
G1 X150.866 Y90.992 E.022
G1 X151.188 Y91.558 E.02348
G1 X151.416 Y92.244 E.02613
G1 X151.497 Y93.081 E.03034
G1 X151.495 Y126.896 E1.22093
G1 X151.469 Y127.401 E.01826
G1 X151.333 Y128.065 E.02448
G1 X151.056 Y128.69 E.02467
G1 X150.679 Y129.251 E.02441
G1 X150.192 Y129.718 E.02434
G1 X149.765 Y130.013 E.01875
G1 X149.214 Y130.282 E.02215
G1 X148.449 Y130.47 E.02844
G1 X148.016 Y130.5 E.01568
G1 X72.06 Y130.498 E2.74244
M73 P3 R34
G1 X71.437 Y130.454 E.02256
G1 X70.768 Y130.268 E.02507
G1 X70.169 Y129.982 E.02397
G1 X69.59 Y129.536 E.0264
G1 X69.27 Y129.159 E.01783
G1 X68.968 Y128.733 E.01888
G1 X68.704 Y128.176 E.02224
G1 X68.528 Y127.437 E.02743
G1 X68.5 Y126.992 E.01609
G1 X68.504 Y93.123 E1.22288
G1 X68.529 Y92.618 E.01824
G1 X68.663 Y91.948 E.02469
G1 X68.94 Y91.318 E.02486
G1 X69.319 Y90.751 E.02463
G1 X69.808 Y90.281 E.02447
G1 X70.231 Y89.989 E.01856
G1 X70.762 Y89.731 E.02132
G1 E-3.5 F1800
;WIPE_START
G1 F900
G1 X71.548 Y89.53 E-.81091
G1 X72.008 Y89.5 E-.46113
G1 X72.236 Y89.5 E-.22797
;WIPE_END
G17
G3 Z.6 I-.751 J.957 P1  F9000
G1 X114.657 Y122.783 Z.6
G1 Z.2
G1 E5 F1800
;TYPE:Inner wall
G1 F900
G1 X114.521 Y122.807 E.00497
G1 X84.184 Y122.803 E1.09536
G1 X83.245 Y122.687 E.03416
G1 X82.31 Y122.409 E.03522
G1 X81.436 Y121.975 E.03522
G1 X80.666 Y121.414 E.03442
G1 X80.121 Y120.875 E.02768
G1 X79.547 Y120.101 E.03477
G1 X79.107 Y119.231 E.03522
G1 X78.971 Y118.807 E.01607
G1 X74.715 Y118.807 E.15368
G1 X74.402 Y118.732 E.01161
G1 X74.192 Y118.565 E.0097
G1 X74.05 Y118.287 E.01128
G1 X74.029 Y118.121 E.00601
G1 X74.029 Y111.078 E.25429
G1 X74.11 Y110.756 E.012
G1 X74.304 Y110.53 E.01074
G1 X74.523 Y110.42 E.00886
G1 X74.715 Y110.393 E.007
G1 X149.521 Y110.393 E2.70096
G1 X149.785 Y110.446 E.00971
G1 X150.07 Y110.667 E.01303
G1 X150.207 Y111.079 E.01566
G1 X150.207 Y115.121 E.14597
G1 X150.197 Y115.24 E.00429
G1 X150.07 Y115.533 E.01152
G1 X149.785 Y115.754 E.01303
G1 X149.521 Y115.807 E.00971
G1 X115.207 Y115.807 E1.23895
G1 X115.207 Y122.121 E.22799
G1 X115.14 Y122.416 E.01092
G1 X114.959 Y122.649 E.01066
G1 X114.761 Y122.764 E.00827
G1 X114.696 Y122.776 E.00237
G1 X114.561 Y122.347 F9000
;TYPE:Outer wall
G1 F900
G1 X84.184 Y122.345 E1.09678
G1 X83.303 Y122.234 E.03205
G1 X82.445 Y121.972 E.0324
G1 X81.644 Y121.568 E.0324
G1 X80.939 Y121.047 E.03163
G1 X80.445 Y120.553 E.02523
G1 X79.917 Y119.832 E.03226
G1 X79.517 Y119.029 E.0324
G1 X79.313 Y118.35 E.0256
G1 X74.715 Y118.35 E.166
G1 X74.575 Y118.302 E.00536
G1 X74.49 Y118.161 E.00594
G1 X74.486 Y118.121 E.00143
G1 X74.486 Y111.079 E.25429
M73 P4 R34
G1 X74.543 Y110.928 E.00579
G1 X74.715 Y110.85 E.00683
G1 X149.521 Y110.85 E2.70096
G1 X149.704 Y110.941 E.00738
