; HEADER_BLOCK_START
; generated by OrcaSlicer 1.7.0 on 2023-11-07 at 11:46:39
; total layer number: 88
; HEADER_BLOCK_END

; THUMBNAIL_BLOCK_START
; THUMBNAIL_BLOCK_END

; external perimeters extrusion width = 0.40mm
; perimeters extrusion width = 0.45mm
; infill extrusion width = 0.45mm
; solid infill extrusion width = 0.40mm
; top infill extrusion width = 0.40mm
; first layer extrusion width = 0.50mm

; EXECUTABLE_BLOCK_START
EXCLUDE_OBJECT_DEFINE NAME=hot_end_side_link_VampyreX13_Remix.stl_id_0_copy_0 CENTER=110,120 POLYGON=[[78.9245,137.129],[78.9815,115.495],[78.9855,114.589],[88.0737,100.89],[88.1687,100.795],[88.7385,100.226],[137.559,98.622],[138.445,98.954],[138.572,99.0664],[139.335,99.741],[140.216,101.079],[140.307,101.258],[140.855,102.333],[141.076,103.724],[141.076,103.877],[140.964,104.951],[140.946,105.13],[140.557,106.369],[140.464,106.543],[139.912,107.585],[139.019,108.765],[137.885,109.898],[136.522,110.973],[89.4815,141.094],[88.3275,141.378],[81.654,141.378],[81.6523,141.378],[80.492,141.094],[78.992,139.594],[78.9245,138.65],[78.9245,137.129]]
M73 P0 R39
;TYPE:Custom
START_PRINT EXTRUDER_TEMP=240  BED_TEMP=80
G90
G21
M83 ; use relative distances for extrusion
; filament start gcode
M106 S0
;LAYER_CHANGE
;Z:0.2
;HEIGHT:0.2
;BEFORE_LAYER_CHANGE
;0.2
G92 E0

G1 E-6 F1800
;_SET_FAN_SPEED_CHANGING_LAYER
SET_VELOCITY_LIMIT ACCEL=500 ACCEL_TO_DECEL=250
G1 Z.4 F12000
G1 X79.733 Y91.21
G1 Z.4
G1 Z.2
G1 E6 F1800
;TYPE:Skirt
;WIDTH:0.5
G1 F900
G1 X82.252 Y89.258 E.12111
G1 X85.176 Y87.992 E.12111
G1 X88.32 Y87.49 E.12101
G1 X137.14 Y85.886 E1.85647
G1 X140.313 Y86.181 E.12111
G1 X142.916 Y87.022 E.10396
G1 X146.885 Y89.408 E.17604
G1 X147.775 Y90.195 E.04515
G1 X149.977 Y92.733 E.1277
G1 X151.569 Y95.294 E.11458
G1 X152.208 Y96.548 E.05349
G1 X153.439 Y100.334 E.15131
G1 X153.66 Y101.725 E.05353
G1 X153.818 Y103.724 E.07622
G1 X153.75 Y105.192 E.05586
G1 X153.62 Y106.445 E.04788
G1 X153.103 Y108.947 E.0971
G1 X152.714 Y110.186 E.04936
G1 X151.813 Y112.34 E.08873
G1 X151.168 Y113.556 E.05231
G1 X150.072 Y115.274 E.07747
G1 X149.179 Y116.454 E.05624
G1 X148.025 Y117.779 E.06679
G1 X145.776 Y119.903 E.11757
G1 X143.393 Y121.704 E.11351
G1 X96.353 Y151.825 E2.12293
G1 X92.381 Y153.502 E.16386
G1 X91.246 Y153.767 E.04431
G1 X88.346 Y154.102 E.11093
G1 X81.634 Y154.102 E.25512
G1 X78.749 Y153.771 E.11035
G1 X77.608 Y153.506 E.04455
G1 X74.618 Y152.402 E.12111
G1 X71.482 Y150.104 E.14777
G1 X69.982 Y148.604 E.08062
G1 X68.028 Y146.087 E.12111
G1 X66.76 Y143.164 E.12111
G1 X66.282 Y140.503 E.10275
G1 X66.182 Y138.65 E.07052
G1 X66.243 Y114.532 E.91663
G1 X66.656 Y111.373 E.12111
G1 X68.367 Y107.545 E.15934
G1 X77.455 Y93.846 E.62482
G1 X79.069 Y91.874 E.09682
G1 X79.705 Y91.239 E.03419
G1 X80.028 Y91.562 F12000
G1 F900
G1 X80.056 Y91.534 E.00152
G1 X82.534 Y89.623 E.11891
G1 X85.413 Y88.399 E.11891
G1 X88.335 Y87.947 E.11238
G1 X137.155 Y86.343 E1.85647
G1 X140.27 Y86.639 E.11891
G1 X142.755 Y87.45 E.09937
G1 X146.583 Y89.751 E.16973
G1 X147.473 Y90.538 E.04515
G1 X149.595 Y92.985 E.12312
G1 X150.476 Y94.323 E.06089
G1 X151.801 Y96.755 E.10526
G1 X152.988 Y100.405 E.14588
M73 P1 R39
G1 X153.209 Y101.796 E.05353
G1 X153.361 Y103.877 E.07929
G1 X153.165 Y106.398 E.0961
G1 X152.667 Y108.81 E.09362
G1 X152.278 Y110.049 E.04936
G1 X151.41 Y112.126 E.08555
G1 X150.765 Y113.342 E.05231
G1 X149.708 Y114.999 E.07469
G1 X148.815 Y116.179 E.05624
G1 X147.702 Y117.456 E.06439
G1 X145.492 Y119.544 E.11554
G1 X143.146 Y121.319 E.11181
G1 X96.106 Y151.44 E2.12293
G1 X92.277 Y153.057 E.15798
G1 X91.142 Y153.322 E.04431
G1 X88.346 Y153.645 E.10695
G1 X81.634 Y153.645 E.25512
G1 X78.853 Y153.326 E.10639
G1 X77.711 Y153.06 E.04455
G1 X74.779 Y151.97 E.11891
G1 X71.805 Y149.781 E.14034
G1 X70.305 Y148.281 E.08062
G1 X68.392 Y145.805 E.11891
G1 X67.167 Y142.926 E.11891
G1 X66.738 Y140.47 E.09476
G1 X66.639 Y138.65 E.06928
G1 X66.7 Y114.534 E.91655
G1 X67.113 Y111.433 E.11891
G1 X68.748 Y107.798 E.15149
G1 X77.836 Y94.099 E.62482
G1 X79.392 Y92.198 E.09335
G1 X80 Y91.59 E.03267
G1 X80.323 Y91.914 F12000
G1 F900
G1 X80.38 Y91.857 E.00304
G1 X82.814 Y89.988 E.11667
G1 X85.648 Y88.808 E.11667
G1 X88.35 Y88.404 E.10383
G1 X137.17 Y86.8 E1.85647
M73 P1 R38
G1 X140.225 Y87.098 E.11667
G1 X142.595 Y87.878 E.09481
G1 X146.28 Y90.093 E.16341
G1 X147.17 Y90.88 E.04515
G1 X149.214 Y93.236 E.11854
G1 X150.095 Y94.574 E.06089
G1 X151.393 Y96.963 E.10333
G1 X152.536 Y100.477 E.14045
G1 X152.757 Y101.868 E.05353
G1 X152.904 Y103.877 E.07655
G1 X152.711 Y106.351 E.0943
G1 X152.231 Y108.673 E.09014
G1 X151.842 Y109.912 E.04936
G1 X151.006 Y111.912 E.08237
G1 X150.361 Y113.128 E.05231
G1 X149.343 Y114.723 E.07191
G1 X148.45 Y115.903 E.05624
G1 X147.379 Y117.133 E.062
G1 X145.209 Y119.185 E.11351
G1 X142.9 Y120.934 E.1101
G1 X95.86 Y151.055 E2.12293
G1 X92.173 Y152.612 E.1521
G1 X91.038 Y152.877 E.04431
G1 X88.346 Y153.188 E.10298
G1 X81.634 Y153.188 E.25512
G1 X78.956 Y152.881 E.10243
G1 X77.814 Y152.615 E.04455
G1 X74.94 Y151.538 E.11667
G1 X72.128 Y149.458 E.13294
M73 P2 R38
G1 X70.628 Y147.958 E.08062
G1 X68.758 Y145.524 E.11667
G1 X67.576 Y142.691 E.11667
G1 X67.194 Y140.438 E.08686
G1 X67.096 Y138.65 E.06804
G1 X67.157 Y114.536 E.91647
G1 X67.569 Y111.495 E.11667
G1 X69.129 Y108.051 E.14368
G1 X78.217 Y94.351 E.62482
G1 X79.715 Y92.521 E.08987
G1 X80.295 Y91.942 E.03115
G1 X80.618 Y92.265 F12000
G1 F900
G1 X80.703 Y92.181 E.00456
G1 X83.095 Y90.354 E.11438
G1 X85.882 Y89.219 E.11438
G1 X88.365 Y88.861 E.09536
G1 X137.185 Y87.257 E1.85647
G1 X141.549 Y87.974 E.16806
G1 X142.435 Y88.306 E.03596
G1 X145.977 Y90.435 E.1571
G1 X146.867 Y91.222 E.04515
G1 X148.832 Y93.488 E.11396
G1 X149.713 Y94.826 E.06089
G1 X150.986 Y97.17 E.10141
G1 X152.085 Y100.549 E.13503
G1 X152.306 Y101.94 E.05353
G1 X152.447 Y103.877 E.07382
G1 X152.256 Y106.303 E.09251
G1 X151.795 Y108.536 E.08665
G1 X151.406 Y109.775 E.04936
G1 X150.602 Y111.697 E.07918
G1 X149.957 Y112.913 E.05231
G1 X148.979 Y114.447 E.06913
G1 X148.086 Y115.627 E.05624
G1 X147.056 Y116.809 E.0596
G1 X144.926 Y118.826 E.11148
G1 X142.653 Y120.549 E.1084
G1 X95.613 Y150.67 E2.12293
G1 X92.069 Y152.167 E.14622
G1 X90.934 Y152.432 E.04431
G1 X88.346 Y152.731 E.099
G1 X81.634 Y152.731 E.25512
G1 X79.06 Y152.435 E.09847
G1 X77.918 Y152.17 E.04455
G1 X75.103 Y151.107 E.11438
G1 X72.451 Y149.135 E.12559
G1 X70.951 Y147.635 E.08062
G1 X69.124 Y145.244 E.11438
G1 X67.987 Y142.457 E.11438
G1 X67.65 Y140.405 E.07904
G1 X67.553 Y138.65 E.0668
G1 X67.614 Y114.538 E.91639
G1 X68.026 Y111.557 E.11438
G1 X69.51 Y108.303 E.13592
G1 X78.598 Y94.604 E.62482
G1 X80.038 Y92.845 E.0864
G1 X80.589 Y92.294 E.02963
G1 X80.912 Y92.617 F12000
G1 F900
G1 X81.026 Y92.504 E.00608
G1 X83.374 Y90.721 E.11205
G1 X86.113 Y89.632 E.11205
G1 X88.38 Y89.318 E.08698
G1 X137.2 Y87.714 E1.85647
M73 P3 R38
G1 X141.388 Y88.402 E.16131
G1 X142.274 Y88.734 E.03596
G1 X145.674 Y90.778 E.15078
G1 X146.564 Y91.565 E.04515
G1 X148.45 Y93.739 E.10938
G1 X149.331 Y95.077 E.06089
G1 X150.579 Y97.378 E.09948
G1 X151.633 Y100.62 E.1296
G1 X151.854 Y102.011 E.05353
G1 X151.99 Y103.877 E.07108
G1 X151.801 Y106.256 E.09071
G1 X151.359 Y108.399 E.08317
G1 X150.97 Y109.638 E.04936
G1 X150.198 Y111.483 E.076
G1 X149.553 Y112.699 E.05231
G1 X148.614 Y114.171 E.06635
G1 X147.721 Y115.351 E.05624
G1 X146.733 Y116.486 E.0572
G1 X144.643 Y118.468 E.10944
G1 X142.407 Y120.164 E.10669
G1 X95.367 Y150.285 E2.12293
G1 X91.965 Y151.722 E.14035
G1 X90.83 Y151.987 E.04431
G1 X88.346 Y152.273 E.09502
G1 X81.634 Y152.273 E.25512
G1 X79.163 Y151.99 E.09451
G1 X78.021 Y151.725 E.04455
G1 X75.266 Y150.676 E.11205
G1 X72.775 Y148.811 E.11828
G1 X71.275 Y147.311 E.08062
G1 X69.491 Y144.964 E.11205
G1 X68.4 Y142.225 E.11205
G1 X68.106 Y140.372 E.07131
G1 X68.01 Y138.65 E.06556
G1 X68.072 Y114.541 E.91632
G1 X68.483 Y111.621 E.11205
G1 X69.891 Y108.556 E.1282
G1 X78.979 Y94.857 E.62482
G1 X80.361 Y93.168 E.08293
G1 X80.884 Y92.645 E.02811
G1 X81.207 Y92.969 F12000
G1 F900
G1 X81.349 Y92.827 E.0076
G1 X83.652 Y91.089 E.10966
G1 X86.342 Y90.047 E.10966
G1 X88.395 Y89.775 E.0787
G1 X137.215 Y88.171 E1.85647
G1 X141.228 Y88.83 E.15455
G1 X142.114 Y89.162 E.03596
G1 X145.372 Y91.12 E.14447
G1 X146.262 Y91.907 E.04515
G1 X148.068 Y93.99 E.1048
G1 X148.949 Y95.328 E.06089
G1 X150.172 Y97.585 E.09755
G1 X151.182 Y100.692 E.12417
G1 X151.403 Y102.083 E.05353
G1 X151.533 Y103.877 E.06835
G1 X151.347 Y106.209 E.08892
G1 X150.922 Y108.262 E.07969
G1 X150.533 Y109.501 E.04936
G1 X149.794 Y111.269 E.07282
G1 X149.149 Y112.485 E.05231
G1 X148.25 Y113.895 E.06357
G1 X147.357 Y115.075 E.05624
G1 X146.41 Y116.163 E.05481
G1 X144.36 Y118.109 E.10741
G1 X142.16 Y119.779 E.10499
G1 X95.12 Y149.9 E2.12293
G1 X91.861 Y151.277 E.13447
G1 X90.726 Y151.542 E.04431
G1 X88.346 Y151.816 E.09104
M73 P4 R38
G1 X81.634 Y151.816 E.25512
G1 X79.267 Y151.545 E.09056
G1 X78.125 Y151.28 E.04455
G1 X75.431 Y150.245 E.10966
G1 X73.098 Y148.488 E.11101
G1 X71.598 Y146.988 E.08062
G1 X69.858 Y144.686 E.10966
G1 X68.815 Y141.996 E.10966
G1 X68.562 Y140.34 E.06367
G1 X68.467 Y138.65 E.06433
G1 X68.529 Y114.543 E.91624
G1 X68.94 Y111.687 E.10966
M73 P4 R37
G1 X70.272 Y108.809 E.12052
G1 X79.36 Y95.109 E.62482
G1 X80.684 Y93.491 E.07945
G1 X81.179 Y92.997 E.02659
; printing object hot_end_side_link_VampyreX13_Remix.stl id:0 copy 0
G1 E-4.2 F1800
;WIPE_START
G1 F900
G1 X81.349 Y92.827 E-.432
G1 X81.955 Y92.37 E-1.36801
;WIPE_END
EXCLUDE_OBJECT_START NAME=hot_end_side_link_VampyreX13_Remix.stl_id_0_copy_0
G1 Z.6 F12000
G1 X92.182 Y116.66 Z.6
G1 Z.2
G1 E6 F1800
;TYPE:Inner wall
;WIDTH:0.499999
G1 F900
G1 X92.181 Y116.693 E.00128
G1 X92.286 Y117.068 E.01477
G1 X92.466 Y117.339 E.0124
G1 X93.001 Y117.936 E.03047
G1 X93.001 Y122.335 E.16717
G1 X92.564 Y120.904 E.05685
G1 X92.451 Y120.65 E.01057
G1 X91.12 Y118.432 E.09832
G1 X90.88 Y118.149 E.01412
G1 X89.047 Y116.613 E.09087
G1 X88.751 Y116.489 E.0122
G1 X86.891 Y115.998 E.07312
G1 X86.387 Y115.961 E.01921
G1 X80.148 Y115.96 E.23713
G1 X80.149 Y115.074 E.03367
G1 X81.282 Y113.946 E.06074
G1 X81.445 Y113.74 E.01
G1 X88.19 Y102.906 E.48506
;WIDTH:0.536678
G1 X88.846 Y101.887 E.04977
;WIDTH:0.574726
G1 X88.933 Y101.783 E.00597
;WIDTH:0.612774
G1 X89.02 Y101.68 E.00639
G1 X89.003 Y101.81 E.0062
;WIDTH:0.574726
G1 X88.986 Y101.939 E.00578
;WIDTH:0.536678
G1 X88.807 Y103.138 E.04977
;WIDTH:0.499999
G1 X88.807 Y103.51 E.01412
G1 X89.004 Y104.707 E.04614
G1 X89.122 Y105.057 E.014
G1 X89.693 Y106.136 E.04641
G1 X89.911 Y106.425 E.01376
G1 X90.802 Y107.281 E.04698
G1 X91.091 Y107.484 E.0134
G1 X92.212 Y108.034 E.04745
G1 X92.543 Y108.137 E.01321
G1 X93.747 Y108.32 E.04628
G1 X94.13 Y108.326 E.01456
G1 X95.374 Y108.137 E.0478
G1 X95.705 Y108.034 E.01319
G1 X96.827 Y107.484 E.04749
G1 X97.116 Y107.281 E.01341
G1 X98.007 Y106.425 E.04697
G1 X98.224 Y106.137 E.01368
G1 X98.797 Y105.057 E.04647
G1 X98.915 Y104.707 E.01403
G1 X99.079 Y103.709 E.03845
G1 X99.344 Y103.521 E.01234
G1 X99.997 Y103.207 E.02756
G1 X100.768 Y103.75 E.03582
G1 X102.683 Y104.855 E.08402
G1 X104.908 Y105.868 E.09293
G1 X107.118 Y106.624 E.08877
G1 X109.288 Y107.146 E.08483
G1 X111.715 Y107.493 E.09317
G1 X113.95 Y107.598 E.08504
G1 X116.291 Y107.493 E.08908
G1 X118.612 Y107.166 E.08908
G1 X120.888 Y106.624 E.08892
G1 X123.098 Y105.868 E.08877
G1 X125.321 Y104.857 E.09283
G1 X127.333 Y103.69 E.08836
G1 X128.046 Y103.182 E.03331
G1 X128.57 Y103.432 E.02208
G1 X129.045 Y103.726 E.02122
G1 X129.164 Y104.452 E.02797
G1 X129.324 Y105.057 E.02375
G1 X129.895 Y106.136 E.04641
G1 X130.113 Y106.425 E.01376
G1 X131.004 Y107.281 E.04697
G1 X131.293 Y107.484 E.0134
G1 X132.414 Y108.034 E.04745
G1 X132.745 Y108.137 E.01321
G1 X133.855 Y108.306 E.04267
G1 X134.332 Y108.326 E.01815
G1 X135.576 Y108.137 E.0478
G1 X135.907 Y108.034 E.01319
G1 X137.029 Y107.484 E.04749
G1 X137.318 Y107.281 E.01344
G1 X137.993 Y106.631 E.0356
;WIDTH:0.546766
G1 X138.069 Y106.591 E.00361
;WIDTH:0.593533
G1 X138.145 Y106.55 E.00395
;WIDTH:0.6403
G1 X138.221 Y106.509 E.00428
;WIDTH:0.687066
G1 X138.297 Y106.468 E.00462
G1 X138.507 Y106.18 E.0191
;WIDTH:0.685234
G1 X138.933 Y105.348 E.04993
;WIDTH:0.658869
G1 X139.056 Y105.088 E.0147
;WIDTH:0.632504
G1 X139.176 Y104.717 E.01911
;WIDTH:0.62154
G1 X139.298 Y103.87 E.04121
;WIDTH:0.588105
G1 X139.319 Y103.606 E.01198
;WIDTH:0.556233
G1 X139.34 Y103.343 E.01128
;WIDTH:0.524361
G1 X139.266 Y102.813 E.02142
;WIDTH:0.546581
G1 X139.152 Y102.2 E.02611
;WIDTH:0.577968
G1 X139.039 Y101.587 E.02774
G1 X139.17 Y101.729 E.00861
;WIDTH:0.548629
G1 X139.301 Y101.87 E.00813
;WIDTH:0.51929
G1 X139.709 Y102.667 E.03544
;WIDTH:0.515193
G1 X139.786 Y103.07 E.01611
;WIDTH:0.545878
G1 X139.822 Y103.398 E.0138
;WIDTH:0.577889
G1 X139.858 Y103.726 E.01468
;WIDTH:0.599076
G1 X139.838 Y104.047 E.0149
;WIDTH:0.62154
G1 X139.749 Y104.794 E.03619
;WIDTH:0.632504
G1 X139.598 Y105.315 E.02657
;WIDTH:0.658869
G1 X139.488 Y105.612 E.01621
;WIDTH:0.685234
G1 X139.378 Y105.908 E.0169
;WIDTH:0.696991
G1 X138.882 Y106.853 E.05803
;WIDTH:0.647743
G1 X138.821 Y106.988 E.00745
;WIDTH:0.598495
G1 X138.76 Y107.123 E.00685
;WIDTH:0.549247
G1 X138.699 Y107.258 E.00624
;WIDTH:0.499999
G1 X138.139 Y107.998 E.03528
G1 X137.11 Y109.026 E.05527
G1 X135.846 Y110.023 E.06116
G1 X134.359 Y110.971 E.06706
G1 X132.661 Y111.855 E.07274
G1 X130.773 Y112.665 E.07809
G1 X128.714 Y113.387 E.08292
G1 X126.505 Y114.013 E.08727
G1 X124.169 Y114.534 E.09097
G1 X123.668 Y114.619 E.0193
G1 X123.149 Y114.621 E.01972
G1 X111.798 Y115.396 E.4324
G1 X111.577 Y115.437 E.00854
G1 X93.318 Y115.434 E.69399
G1 X93.005 Y115.477 E.01198
G1 X92.689 Y115.622 E.01321
G1 X92.386 Y115.914 E.016
G1 X92.197 Y116.351 E.0181
G1 X92.184 Y116.62 E.01021
G1 E-6 F1800
G1 Z.6 F12000
G1 X93.001 Y131.917 Z.6
G1 Z.2
G1 E6 F1800
G1 F900
G1 X93.001 Y135.879 E.15057
G1 X92.704 Y136.211 E.01694
G1 X90.938 Y136.228 E.06711
G1 X90.56 Y136.37 E.01536
G1 X90.88 Y136.103 E.01583
G1 X91.12 Y135.82 E.01412
G1 X92.451 Y133.602 E.09832
G1 X92.564 Y133.348 E.01057
G1 X92.99 Y131.956 E.05533
G1 E-4.2 F1800
;WIPE_START
G1 F900
G1 X92.992 Y132.956 E-1.8
;WIPE_END
G1 Z.6 F12000
G1 X85.685 Y140.674 Z.6
G1 X80.089 Y138.293
G1 Z.2
G1 E6 F1800
G1 F900
G1 X86.388 Y138.293 E.23941
G1 X86.888 Y138.256 E.01904
G1 X88.919 Y137.705 E.08
G1 X89.199 Y137.53 E.01256
G1 X90.26 Y136.625 E.05297
G1 X89.995 Y137.291 E.02723
G1 X89.952 Y138.082 E.03012
G1 X89.845 Y138.466 E.01514
G1 X89.817 Y139.112 E.02457
G1 X88.999 Y139.93 E.04397
G1 X88.584 Y139.93 E.01577
G1 X88.124 Y140.035 E.01794
G1 X87.887 Y140.195 E.01087
G1 X82.093 Y140.195 E.22022
G1 X81.934 Y140.075 E.0076
G1 X81.377 Y139.93 E.02186
G1 X80.974 Y139.93 E.01531
G1 X80.156 Y139.112 E.04397
G1 X80.156 Y138.872 E.00911
G1 X80.093 Y138.333 E.02063
G1 E-4.2 F1800
;WIPE_START
G1 F900
G1 X81.093 Y138.327 E-1.8
;WIPE_END
G1 Z.6 F12000
G1 X90.487 Y137.821 Z.6
G1 X90.686 Y136.904
G1 X94 Y128.624
G1 X92.558 Y116.724
G1 X92.606 Y116.616
G1 X92.636 Y116.63
G1 Z.2
G1 E6 F1800
G1 F900
G1 X92.635 Y116.647 E.00064
G1 X92.698 Y116.871 E.00886
G1 X92.807 Y117.034 E.00744
G1 X93.458 Y117.761 E.03711
G1 X93.459 Y123.759 E.22795
;WIDTH:0.498666
G1 X93.46 Y123.944 E.00703
;WIDTH:0.497504
G1 X93.484 Y124.981 E.03919
;WIDTH:0.448328
G1 X93.509 Y126.017 E.03495
;WIDTH:0.399151
G1 X93.533 Y127.054 E.03071
;WIDTH:0.349974
G1 X93.533 Y127.198 E.00369
;WIDTH:0.399151
G1 X93.509 Y128.235 E.03071
;WIDTH:0.448328
G1 X93.484 Y129.271 E.03495
;WIDTH:0.497504
G1 X93.46 Y130.307 E.03919
;WIDTH:0.501677
M73 P5 R37
G1 X93.458 Y133.413 E.11846
;WIDTH:0.499999
G1 X93.458 Y136.054 E.10036
G1 X92.908 Y136.668 E.03134
G1 X91.136 Y136.668 E.06734
G1 X90.789 Y136.762 E.01365
G1 X90.616 Y136.907 E.00861
G1 X90.452 Y137.316 E.01673
G1 X90.395 Y138.348 E.03929
G1 X90.329 Y138.445 E.00446
G1 X90.274 Y138.714 E.01044
G1 X90.274 Y139.301 E.0223
G1 X89.189 Y140.387 E.05836
G1 X88.603 Y140.387 E.02227
G1 X88.316 Y140.45 E.01117
G1 X88.053 Y140.652 E.01259
G1 X81.926 Y140.652 E.23286
G1 X81.711 Y140.474 E.01063
G1 X81.377 Y140.387 E.01312
G1 X80.785 Y140.387 E.0225
G1 X79.699 Y139.301 E.05836
