; HEADER_BLOCK_START
; generated by OrcaSlicer 1.7.0 on 2023-11-07 at 10:45:54
; total layer number: 88
; HEADER_BLOCK_END

; THUMBNAIL_BLOCK_START
; THUMBNAIL_BLOCK_END

; external perimeters extrusion width = 0.40mm
; perimeters extrusion width = 0.45mm
; infill extrusion width = 0.45mm
; solid infill extrusion width = 0.40mm
; top infill extrusion width = 0.40mm
; first layer extrusion width = 0.50mm

; EXECUTABLE_BLOCK_START
EXCLUDE_OBJECT_DEFINE NAME=hot_end_side_link_VampyreX13_Remix_-_Part_1.stl_id_0_copy_0 CENTER=110,110 POLYGON=[[78.9245,127.129],[78.9815,105.495],[78.983,105.493],[78.992,105.478],[82.7915,99.3751],[88.0737,90.89],[88.1687,90.7952],[88.7385,90.226],[137.559,88.622],[138.445,88.954],[138.572,89.0664],[139.335,89.741],[140.216,91.079],[140.307,91.2581],[140.855,92.333],[141.076,93.724],[141.076,93.877],[140.964,94.951],[140.946,95.13],[140.557,96.369],[140.464,96.5427],[139.912,97.585],[139.019,98.765],[137.885,99.898],[136.522,100.973],[134.941,101.98],[88.3275,131.378],[81.6523,131.378],[81.0529,130.779],[78.9245,128.65],[78.9245,127.129]]
M73 P0 R36
;TYPE:Custom
START_PRINT EXTRUDER_TEMP=240  BED_TEMP=80
G90
G21
M83 ; use relative distances for extrusion
; filament start gcode
M106 S0
;LAYER_CHANGE
;Z:0.2
;HEIGHT:0.2
;BEFORE_LAYER_CHANGE
;0.2
G92 E0

G1 E-6 F1800
;_SET_FAN_SPEED_CHANGING_LAYER
SET_VELOCITY_LIMIT ACCEL=500 ACCEL_TO_DECEL=250
G1 Z.4 F12000
G1 X79.733 Y81.21
G1 Z.4
G1 Z.2
G1 E6 F1800
;TYPE:Skirt
;WIDTH:0.5
G1 F900
G1 X82.252 Y79.258 E.12111
G1 X85.176 Y77.992 E.12111
G1 X88.32 Y77.49 E.12101
G1 X137.14 Y75.886 E1.85647
G1 X140.313 Y76.181 E.12111
G1 X142.916 Y77.022 E.10396
G1 X146.885 Y79.408 E.17604
G1 X147.775 Y80.195 E.04515
G1 X149.977 Y82.733 E.1277
G1 X151.569 Y85.294 E.11458
G1 X152.208 Y86.548 E.05349
G1 X153.439 Y90.334 E.15131
G1 X153.66 Y91.725 E.05353
G1 X153.818 Y93.724 E.07622
G1 X153.75 Y95.192 E.05586
G1 X153.62 Y96.445 E.04788
G1 X153.103 Y98.947 E.0971
G1 X152.714 Y100.186 E.04936
G1 X151.813 Y102.34 E.08873
G1 X151.168 Y103.556 E.05231
G1 X150.072 Y105.274 E.07747
G1 X149.179 Y106.454 E.05624
G1 X148.025 Y107.779 E.06679
G1 X145.776 Y109.903 E.11757
G1 X143.37 Y111.719 E.11454
G1 X141.79 Y112.726 E.07121
G1 X95.142 Y142.138 E2.0959
G1 X92.256 Y143.487 E.12111
G1 X88.346 Y144.102 E.15041
G1 X81.634 Y144.102 E.25512
G1 X78.472 Y143.703 E.12111
G1 X75.508 Y142.533 E.12111
G1 X72.623 Y140.369 E.13707
G1 X69.914 Y137.66 E.14562
G1 X67.96 Y135.143 E.12111
G1 X66.692 Y132.219 E.12111
G1 X66.182 Y128.65 E.13704
G1 X66.239 Y105.462 E.8813
G1 X66.646 Y102.301 E.12111
G1 X68.164 Y98.761 E.1464
G1 X77.256 Y84.156 E.65387
G1 X79.069 Y81.874 E.11074
G1 X79.705 Y81.239 E.03419
G1 X80.028 Y81.562 F12000
G1 F900
G1 X80.056 Y81.534 E.00152
G1 X82.534 Y79.623 E.11891
G1 X85.413 Y78.399 E.11891
G1 X88.335 Y77.947 E.11238
G1 X137.155 Y76.343 E1.85647
M73 P1 R36
G1 X140.27 Y76.639 E.11891
G1 X142.755 Y77.45 E.09937
G1 X146.583 Y79.751 E.16973
G1 X147.473 Y80.538 E.04515
G1 X149.595 Y82.985 E.12312
G1 X150.476 Y84.323 E.06089
G1 X151.801 Y86.755 E.10526
G1 X152.988 Y90.405 E.14588
G1 X153.209 Y91.796 E.05353
G1 X153.361 Y93.877 E.07929
G1 X153.165 Y96.398 E.0961
G1 X152.667 Y98.81 E.09362
G1 X152.278 Y100.049 E.04936
G1 X151.41 Y102.126 E.08555
G1 X150.765 Y103.342 E.05231
G1 X149.708 Y104.999 E.07469
G1 X148.815 Y106.179 E.05624
G1 X147.702 Y107.456 E.06439
G1 X145.492 Y109.544 E.11554
G1 X143.124 Y111.333 E.1128
G1 X141.544 Y112.34 E.07121
G1 X94.899 Y141.751 E2.09582
G1 X92.061 Y143.07 E.11891
G1 X88.346 Y143.645 E.14288
G1 X81.634 Y143.645 E.25512
G1 X78.531 Y143.246 E.11891
G1 X75.629 Y142.077 E.11891
G1 X72.946 Y140.046 E.12787
G1 X70.237 Y137.337 E.14562
G1 X68.325 Y134.861 E.11891
G1 X67.1 Y131.982 E.11891
G1 X66.639 Y128.65 E.12784
G1 X66.696 Y105.463 E.88126
G1 X67.103 Y102.361 E.11891
G1 X68.552 Y99.003 E.13901
G1 X77.644 Y84.397 E.65387
G1 X79.392 Y82.198 E.10677
G1 X80 Y81.59 E.03267
G1 X80.323 Y81.914 F12000
G1 F900
G1 X80.38 Y81.857 E.00304
G1 X82.814 Y79.988 E.11667
G1 X85.648 Y78.808 E.11667
G1 X88.35 Y78.404 E.10383
G1 X137.17 Y76.8 E1.85647
G1 X140.225 Y77.098 E.11667
G1 X142.595 Y77.878 E.09481
G1 X146.28 Y80.093 E.16341
G1 X147.17 Y80.88 E.04515
G1 X149.214 Y83.236 E.11854
G1 X150.095 Y84.574 E.06089
G1 X151.393 Y86.963 E.10333
G1 X152.536 Y90.477 E.14045
G1 X152.757 Y91.868 E.05353
G1 X152.904 Y93.877 E.07655
G1 X152.711 Y96.351 E.0943
G1 X152.231 Y98.673 E.09014
G1 X151.842 Y99.912 E.04936
G1 X151.006 Y101.912 E.08237
G1 X150.361 Y103.128 E.05231
G1 X149.343 Y104.723 E.07191
G1 X148.45 Y105.903 E.05624
G1 X147.379 Y107.133 E.062
G1 X145.209 Y109.185 E.11351
G1 X142.879 Y110.948 E.11105
G1 X141.299 Y111.955 E.07121
G1 X94.655 Y141.365 E2.09573
M73 P2 R35
G1 X91.868 Y142.651 E.11667
G1 X88.346 Y143.188 E.13539
G1 X81.634 Y143.188 E.25512
G1 X78.59 Y142.789 E.11667
G1 X75.751 Y141.621 E.11667
G1 X73.27 Y139.723 E.11875
G1 X70.56 Y137.014 E.14562
G1 X68.69 Y134.58 E.11667
G1 X67.509 Y131.746 E.11667
G1 X67.096 Y128.65 E.11872
G1 X67.153 Y105.464 E.88121
G1 X67.56 Y102.422 E.11667
G1 X68.94 Y99.244 E.13166
G1 X78.032 Y84.639 E.65387
G1 X79.715 Y82.521 E.1028
G1 X80.295 Y81.942 E.03115
G1 X80.618 Y82.265 F12000
G1 F900
G1 X80.703 Y82.181 E.00456
G1 X83.095 Y80.354 E.11438
G1 X85.882 Y79.219 E.11438
G1 X88.365 Y78.861 E.09536
G1 X137.185 Y77.257 E1.85647
G1 X141.549 Y77.974 E.16806
G1 X142.435 Y78.306 E.03596
G1 X145.977 Y80.435 E.1571
G1 X146.867 Y81.222 E.04515
G1 X148.832 Y83.488 E.11396
G1 X149.713 Y84.826 E.06089
G1 X150.986 Y87.17 E.10141
G1 X152.085 Y90.549 E.13503
G1 X152.306 Y91.94 E.05353
G1 X152.447 Y93.877 E.07382
G1 X152.256 Y96.303 E.09251
G1 X151.795 Y98.536 E.08665
G1 X151.406 Y99.775 E.04936
G1 X150.602 Y101.697 E.07918
G1 X149.957 Y102.913 E.05231
G1 X148.979 Y104.447 E.06913
G1 X148.086 Y105.627 E.05624
G1 X147.056 Y106.809 E.0596
G1 X144.926 Y108.826 E.11148
G1 X142.633 Y110.562 E.10931
G1 X141.053 Y111.569 E.07121
G1 X94.411 Y140.978 E2.09565
G1 X91.675 Y142.232 E.11438
G1 X88.346 Y142.731 E.12794
G1 X81.634 Y142.731 E.25512
G1 X78.651 Y142.332 E.11438
G1 X75.877 Y141.165 E.11438
G1 X73.593 Y139.4 E.10972
G1 X70.884 Y136.69 E.14562
G1 X69.056 Y134.299 E.11438
G1 X67.92 Y131.513 E.11438
G1 X67.553 Y128.65 E.10969
G1 X67.61 Y105.465 E.88116
M73 P3 R35
G1 X68.016 Y102.483 E.11438
G1 X69.328 Y99.486 E.12436
G1 X78.42 Y84.88 E.65387
G1 X80.038 Y82.845 E.09882
G1 X80.589 Y82.294 E.02963
G1 X80.912 Y82.617 F12000
G1 F900
G1 X81.026 Y82.504 E.00608
G1 X83.374 Y80.721 E.11205
G1 X86.113 Y79.632 E.11205
G1 X88.38 Y79.318 E.08698
G1 X137.2 Y77.714 E1.85647
G1 X141.388 Y78.402 E.16131
G1 X142.274 Y78.734 E.03596
G1 X145.674 Y80.778 E.15078
G1 X146.564 Y81.565 E.04515
G1 X148.45 Y83.739 E.10938
G1 X149.331 Y85.077 E.06089
G1 X150.579 Y87.378 E.09948
G1 X151.633 Y90.62 E.1296
G1 X151.854 Y92.011 E.05353
G1 X151.99 Y93.877 E.07108
G1 X151.801 Y96.256 E.09071
G1 X151.359 Y98.399 E.08317
G1 X150.97 Y99.638 E.04936
G1 X150.198 Y101.483 E.076
G1 X149.553 Y102.699 E.05231
G1 X148.614 Y104.171 E.06635
G1 X147.721 Y105.351 E.05624
G1 X146.733 Y106.486 E.0572
G1 X144.643 Y108.468 E.10944
G1 X142.387 Y110.177 E.10757
G1 X140.807 Y111.184 E.07121
G1 X94.167 Y140.592 E2.09557
G1 X91.484 Y141.813 E.11205
G1 X88.346 Y142.273 E.12053
G1 X81.634 Y142.273 E.25512
G1 X78.713 Y141.875 E.11205
G1 X76.005 Y140.71 E.11205
G1 X73.916 Y139.077 E.10077
G1 X71.207 Y136.367 E.14562
G1 X69.423 Y134.02 E.11205
G1 X68.332 Y131.281 E.11205
G1 X68.01 Y128.65 E.10075
G1 X68.067 Y105.467 E.88112
G1 X68.473 Y102.547 E.11205
G1 X69.716 Y99.727 E.1171
G1 X78.808 Y85.122 E.65387
G1 X80.361 Y83.168 E.09485
G1 X80.884 Y82.645 E.02811
G1 X81.207 Y82.969 F12000
G1 F900
G1 X81.349 Y82.827 E.0076
G1 X83.652 Y81.089 E.10966
G1 X86.342 Y80.047 E.10966
G1 X88.395 Y79.775 E.0787
G1 X137.215 Y78.171 E1.85647
G1 X141.228 Y78.83 E.15455
M73 P4 R35
G1 X142.114 Y79.162 E.03596
G1 X145.372 Y81.12 E.14447
G1 X146.262 Y81.907 E.04515
G1 X148.068 Y83.99 E.1048
G1 X148.949 Y85.328 E.06089
G1 X150.172 Y87.585 E.09755
G1 X151.182 Y90.692 E.12417
G1 X151.403 Y92.083 E.05353
G1 X151.533 Y93.877 E.06835
G1 X151.347 Y96.209 E.08892
G1 X150.922 Y98.262 E.07969
G1 X150.533 Y99.501 E.04936
G1 X149.794 Y101.269 E.07282
G1 X149.149 Y102.485 E.05231
G1 X148.25 Y103.895 E.06357
G1 X147.357 Y105.075 E.05624
G1 X146.41 Y106.163 E.05481
G1 X144.36 Y108.109 E.10741
G1 X142.142 Y109.791 E.10583
G1 X140.562 Y110.798 E.07121
G1 X93.923 Y140.205 E2.09548
G1 X91.294 Y141.392 E.10966
G1 X88.346 Y141.816 E.11318
G1 X81.634 Y141.816 E.25512
G1 X78.776 Y141.418 E.10966
G1 X76.136 Y140.254 E.10966
G1 X74.239 Y138.753 E.09192
G1 X71.53 Y136.044 E.14562
G1 X69.791 Y133.742 E.10966
G1 X68.747 Y131.052 E.10966
G1 X68.467 Y128.65 E.0919
G1 X68.524 Y105.468 E.88107
G1 X68.93 Y102.611 E.10966
G1 X70.104 Y99.969 E.10988
G1 X79.196 Y85.364 E.65387
G1 X80.684 Y83.491 E.09088
G1 X81.179 Y82.997 E.02659
; printing object hot_end_side_link_VampyreX13_Remix - Part 1.stl id:0 copy 0
G1 E-4.2 F1800
;WIPE_START
G1 F900
G1 X81.349 Y82.827 E-.432
G1 X81.955 Y82.37 E-1.36801
;WIPE_END
EXCLUDE_OBJECT_START NAME=hot_end_side_link_VampyreX13_Remix_-_Part_1.stl_id_0_copy_0
G1 Z.6 F12000
G1 X92.473 Y105.83 Z.6
G1 Z.2
G1 E6 F1800
;TYPE:Inner wall
;WIDTH:0.499999
G1 F900
G1 X92.386 Y105.914 E.00459
G1 X92.197 Y106.351 E.0181
G1 X92.181 Y106.693 E.01302
G1 X92.286 Y107.068 E.01477
G1 X92.466 Y107.339 E.0124
G1 X93.001 Y107.936 E.03047
G1 X93.001 Y112.335 E.16717
G1 X92.564 Y110.904 E.05685
G1 X92.451 Y110.65 E.01057
G1 X91.12 Y108.432 E.09832
G1 X90.88 Y108.149 E.01412
G1 X89.047 Y106.613 E.09087
G1 X88.751 Y106.489 E.0122
G1 X86.891 Y105.998 E.07312
G1 X86.387 Y105.961 E.01921
G1 X80.146 Y105.96 E.2372
G1 X80.146 Y105.828 E.00501
G1 X88.19 Y92.906 E.57852
;WIDTH:0.536678
G1 X88.846 Y91.887 E.04977
;WIDTH:0.574726
G1 X88.933 Y91.783 E.00597
;WIDTH:0.612774
G1 X89.02 Y91.68 E.00639
G1 X89.003 Y91.81 E.0062
;WIDTH:0.574726
G1 X88.986 Y91.939 E.00578
;WIDTH:0.536678
G1 X88.807 Y93.138 E.04977
;WIDTH:0.499999
G1 X88.807 Y93.51 E.01412
G1 X89.004 Y94.707 E.04614
G1 X89.122 Y95.057 E.014
G1 X89.693 Y96.136 E.04641
G1 X89.911 Y96.425 E.01376
G1 X90.802 Y97.281 E.04698
G1 X91.091 Y97.484 E.0134
G1 X92.212 Y98.034 E.04745
G1 X92.543 Y98.137 E.01321
G1 X93.747 Y98.32 E.04628
G1 X94.13 Y98.326 E.01456
M73 P4 R34
G1 X95.374 Y98.137 E.0478
G1 X95.705 Y98.034 E.01319
G1 X96.827 Y97.484 E.04749
G1 X97.116 Y97.281 E.01341
G1 X98.007 Y96.425 E.04697
G1 X98.224 Y96.137 E.01368
G1 X98.797 Y95.057 E.04647
G1 X98.915 Y94.707 E.01403
G1 X99.079 Y93.709 E.03845
G1 X99.344 Y93.521 E.01234
G1 X99.997 Y93.207 E.02756
G1 X100.768 Y93.75 E.03582
G1 X102.683 Y94.855 E.08402
G1 X104.908 Y95.868 E.09293
G1 X107.118 Y96.624 E.08877
G1 X109.288 Y97.146 E.08483
G1 X111.715 Y97.493 E.09317
G1 X113.95 Y97.598 E.08504
G1 X116.291 Y97.493 E.08908
G1 X118.612 Y97.166 E.08908
G1 X120.888 Y96.624 E.08892
G1 X123.098 Y95.868 E.08877
G1 X125.321 Y94.857 E.09283
G1 X127.333 Y93.69 E.08836
G1 X128.046 Y93.182 E.03331
G1 X128.57 Y93.432 E.02208
G1 X129.045 Y93.726 E.02122
G1 X129.164 Y94.452 E.02797
G1 X129.324 Y95.057 E.02375
G1 X129.895 Y96.136 E.04641
G1 X130.113 Y96.425 E.01376
G1 X131.004 Y97.281 E.04697
G1 X131.293 Y97.484 E.0134
G1 X132.414 Y98.034 E.04745
G1 X132.745 Y98.137 E.01321
G1 X133.855 Y98.306 E.04267
G1 X134.332 Y98.326 E.01815
G1 X135.576 Y98.137 E.0478
G1 X135.907 Y98.034 E.01319
G1 X137.029 Y97.484 E.04749
G1 X137.318 Y97.281 E.01344
G1 X137.993 Y96.631 E.0356
;WIDTH:0.546766
G1 X138.069 Y96.591 E.00361
;WIDTH:0.593533
G1 X138.145 Y96.55 E.00395
;WIDTH:0.6403
G1 X138.221 Y96.509 E.00428
;WIDTH:0.687066
G1 X138.297 Y96.468 E.00462
G1 X138.507 Y96.18 E.0191
;WIDTH:0.685234
G1 X138.933 Y95.348 E.04993
;WIDTH:0.658869
G1 X139.056 Y95.088 E.0147
;WIDTH:0.632504
G1 X139.176 Y94.717 E.01911
;WIDTH:0.62154
G1 X139.298 Y93.87 E.04121
;WIDTH:0.588105
G1 X139.319 Y93.606 E.01198
;WIDTH:0.556233
G1 X139.34 Y93.343 E.01128
;WIDTH:0.524361
G1 X139.266 Y92.813 E.02142
;WIDTH:0.546581
G1 X139.152 Y92.2 E.02611
;WIDTH:0.577968
G1 X139.039 Y91.587 E.02774
G1 X139.17 Y91.729 E.00861
;WIDTH:0.548629
G1 X139.301 Y91.87 E.00813
;WIDTH:0.51929
G1 X139.709 Y92.667 E.03544
;WIDTH:0.515193
G1 X139.786 Y93.07 E.01611
;WIDTH:0.545878
G1 X139.822 Y93.398 E.0138
;WIDTH:0.577889
G1 X139.858 Y93.726 E.01468
;WIDTH:0.599076
G1 X139.838 Y94.047 E.0149
;WIDTH:0.62154
G1 X139.749 Y94.794 E.03619
;WIDTH:0.632504
G1 X139.598 Y95.315 E.02657
;WIDTH:0.658869
G1 X139.488 Y95.612 E.01621
;WIDTH:0.685234
G1 X139.378 Y95.908 E.0169
;WIDTH:0.696991
G1 X138.882 Y96.853 E.05803
;WIDTH:0.647743
G1 X138.821 Y96.988 E.00745
;WIDTH:0.598495
G1 X138.76 Y97.123 E.00685
;WIDTH:0.549247
G1 X138.699 Y97.258 E.00624
;WIDTH:0.499999
G1 X138.139 Y97.998 E.03528
G1 X137.11 Y99.026 E.05527
G1 X135.846 Y100.023 E.06116
G1 X134.359 Y100.971 E.06706
G1 X132.661 Y101.855 E.07274
G1 X130.773 Y102.665 E.07809
G1 X128.714 Y103.387 E.08292
G1 X126.505 Y104.013 E.08727
G1 X124.169 Y104.534 E.09097
G1 X123.668 Y104.619 E.0193
G1 X123.149 Y104.621 E.01972
G1 X111.798 Y105.396 E.4324
M73 P5 R34
G1 X111.577 Y105.437 E.00854
G1 X93.318 Y105.434 E.69399
G1 X93.005 Y105.477 E.01198
G1 X92.689 Y105.622 E.01321
G1 X92.502 Y105.803 E.0099
G1 E-6 F1800
G1 Z.6 F12000
G1 X93.001 Y121.917 Z.6
G1 Z.2
G1 E6 F1800
G1 F900
G1 X93.001 Y125.879 E.15057
G1 X92.704 Y126.211 E.01694
G1 X90.938 Y126.228 E.06711
G1 X90.56 Y126.37 E.01536
G1 X90.88 Y126.103 E.01583
G1 X91.12 Y125.82 E.01412
G1 X92.451 Y123.602 E.09832
G1 X92.564 Y123.348 E.01057
G1 X92.99 Y121.956 E.05533
G1 E-4.2 F1800
;WIPE_START
G1 F900
G1 X92.992 Y122.956 E-1.8
;WIPE_END
G1 Z.6 F12000
G1 X85.685 Y130.674 Z.6
G1 X80.214 Y128.293
G1 Z.2
G1 E6 F1800
G1 F900
G1 X86.388 Y128.293 E.23465
G1 X86.888 Y128.256 E.01904
G1 X88.752 Y127.763 E.07328
G1 X89.199 Y127.53 E.01919
G1 X90.26 Y126.625 E.05297
G1 X89.995 Y127.291 E.02723
G1 X89.95 Y128.108 E.03109
G1 X87.864 Y130.195 E.11217
G1 X82.116 Y130.195 E.21846
G1 X80.242 Y128.321 E.10071
G1 E-4.2 F1800
;WIPE_START
G1 F900
G1 X81.242 Y128.317 E-1.8
;WIPE_END
G1 Z.6 F12000
G1 X90.487 Y127.821 Z.6
G1 X90.686 Y126.904
G1 X94 Y118.624
G1 X92.558 Y106.724
G1 X92.812 Y106.128
G1 Z.2
G1 E6 F1800
G1 F900
G1 X92.759 Y106.179 E.00282
G1 X92.645 Y106.441 E.01086
G1 X92.635 Y106.647 E.00781
G1 X92.698 Y106.871 E.00886
G1 X92.807 Y107.034 E.00744
G1 X93.458 Y107.761 E.03711
G1 X93.459 Y113.759 E.22795
;WIDTH:0.498666
G1 X93.46 Y113.944 E.00703
;WIDTH:0.497504
G1 X93.484 Y114.981 E.03919
;WIDTH:0.448328
G1 X93.509 Y116.017 E.03495
;WIDTH:0.399151
G1 X93.533 Y117.054 E.03071
;WIDTH:0.349974
G1 X93.533 Y117.198 E.00369
;WIDTH:0.399151
G1 X93.509 Y118.235 E.03071
;WIDTH:0.448328
G1 X93.484 Y119.271 E.03495
;WIDTH:0.497504
G1 X93.46 Y120.307 E.03919
;WIDTH:0.501677
G1 X93.458 Y123.413 E.11846
;WIDTH:0.499999
G1 X93.458 Y126.054 E.10036
G1 X92.908 Y126.668 E.03134
G1 X91.136 Y126.668 E.06734
G1 X90.789 Y126.762 E.01365
G1 X90.616 Y126.907 E.00861
G1 X90.452 Y127.316 E.01673
G1 X90.397 Y128.307 E.03773
G1 X88.053 Y130.652 E.12601
G1 X81.927 Y130.652 E.23285
G1 X79.632 Y128.357 E.12336
G1 X79.632 Y127.836 E.0198
G1 X86.388 Y127.836 E.25678
G1 X86.771 Y127.814 E.01457
G1 X88.635 Y127.321 E.07328
G1 X88.903 Y127.181 E.01151
G1 X90.584 Y125.755 E.08377
G1 X90.728 Y125.585 E.00847
G1 X92.059 Y123.367 E.09832
G1 X92.127 Y123.214 E.00634
;WIDTH:0.501677
G1 X92.981 Y120.422 E.11139
G1 X93.006 Y120.286 E.00527
;WIDTH:0.497504
G1 X93.08 Y119.252 E.03919
;WIDTH:0.448328
G1 X93.153 Y118.218 E.03495
;WIDTH:0.399151
G1 X93.227 Y117.184 E.03071
;WIDTH:0.349974
G1 X93.227 Y117.068 E.00295
;WIDTH:0.399151
G1 X93.153 Y116.034 E.03071
;WIDTH:0.448328
G1 X93.08 Y115 E.03495
;WIDTH:0.497504
G1 X93.006 Y113.966 E.03919
;WIDTH:0.498666
G1 X92.98 Y113.831 E.00523
;WIDTH:0.499999
G1 X92.127 Y111.038 E.11098
G1 X92.059 Y110.885 E.00634
G1 X90.728 Y108.667 E.09832
G1 X90.584 Y108.497 E.00847
G1 X88.903 Y107.071 E.08377
G1 X88.635 Y106.931 E.01152
G1 X86.774 Y106.44 E.07312
G1 X86.387 Y106.418 E.01475
G1 X79.689 Y106.417 E.25457
G1 X79.689 Y105.697 E.02735
G1 X88.631 Y91.333 E.64309
