; HEADER_BLOCK_START
; generated by OrcaSlicer 1.7.0 on 2023-12-19 at 17:38:10
; total layer number: 39
; HEADER_BLOCK_END

; THUMBNAIL_BLOCK_START
; THUMBNAIL_BLOCK_END

; external perimeters extrusion width = 0.40mm
; perimeters extrusion width = 0.45mm
; infill extrusion width = 0.45mm
; solid infill extrusion width = 0.40mm
; top infill extrusion width = 0.40mm
; first layer extrusion width = 0.50mm

; EXECUTABLE_BLOCK_START
EXCLUDE_OBJECT_DEFINE NAME=Nozzle_Cleaner_Ender_3_-_Unsaved_.stl_id_0_copy_0 CENTER=110,110 POLYGON=[[86.17,146.565],[86.17,122.928],[110.454,79.7743],[110.792,79.2118],[111.159,78.6679],[111.555,78.1441],[111.977,77.6417],[112.425,77.1622],[112.898,76.7069],[113.394,76.277],[113.912,75.8738],[114.45,75.4983],[115.008,75.1515],[115.582,74.8345],[116.173,74.5481],[116.778,74.2931],[117.395,74.0702],[118.023,73.8801],[118.661,73.7231],[119.305,73.5998],[119.956,73.5106],[120.61,73.4556],[121.266,73.435],[121.922,73.4488],[122.577,73.4971],[123.228,73.5797],[123.874,73.6964],[124.513,73.8468],[125.143,74.0305],[125.762,74.247],[126.37,74.4958],[126.963,74.7761],[127.541,75.0872],[128.102,75.4282],[128.644,75.7982],[129.166,76.1961],[129.667,76.6208],[130.144,77.0713],[130.597,77.5462],[131.025,78.0442],[131.426,78.5639],[131.799,79.104],[132.143,79.663],[132.457,80.2392],[132.741,80.8311],[132.993,81.4371],[133.213,82.0555],[133.4,82.6846],[133.554,83.3226],[133.674,83.9679],[133.761,84.6186],[133.812,85.2729],[133.83,85.929],[133.813,86.5851],[133.762,87.2395],[126.49,146.565],[86.17,146.565]]
M73 P0 R16
;TYPE:Custom
START_PRINT EXTRUDER_TEMP=255  BED_TEMP=80
G90
G21
M83 ; use relative distances for extrusion
; filament start gcode
M106 S0
;LAYER_CHANGE
;Z:0.3
;HEIGHT:0.3
;BEFORE_LAYER_CHANGE
;0.3
G92 E0

G1 E-5 F1800
;_SET_FAN_SPEED_CHANGING_LAYER
; printing object Nozzle Cleaner Ender 3 - (Unsaved).stl id:0 copy 0
EXCLUDE_OBJECT_START NAME=Nozzle_Cleaner_Ender_3_-_Unsaved_.stl_id_0_copy_0
G1 X116.984 Y124.049 F9000
G1 Z.4
G1 Z.3
G1 E5 F1800
;TYPE:Inner wall
;WIDTH:0.5
G1 F900
G1 X116.869 Y124.396 E.01886
G1 X116.869 Y136.944 E.64768
G1 X95.791 Y136.944 E1.08794
G1 X95.791 Y124.396 E.64768
G1 X95.676 Y124.049 E.01886
G1 X116.944 Y124.049 E1.0978
G1 X117.833 Y123.683 F9000
;WIDTH:0.639645
G1 F900
G1 X117.7 Y123.79 E.0116
;WIDTH:0.593096
G1 X117.568 Y123.897 E.01066
;WIDTH:0.546548
G1 X117.435 Y124.004 E.00973
;WIDTH:0.5
G1 X117.304 Y124.396 E.02133
G1 X117.304 Y137.379 E.67017
G1 X95.356 Y137.379 E1.13291
G1 X95.356 Y124.396 E.67017
M73 P1 R16
G1 X95.225 Y124.004 E.02133
;WIDTH:0.542925
G1 X95.051 Y123.895 E.01164
;WIDTH:0.585851
G1 X94.876 Y123.787 E.01269
;WIDTH:0.628777
G1 X94.702 Y123.678 E.01373
G1 X94.941 Y123.656 E.01607
;WIDTH:0.585851
G1 X95.181 Y123.635 E.01484
;WIDTH:0.542925
G1 X95.42 Y123.614 E.01362
;WIDTH:0.5
G1 X117.24 Y123.614 E1.12626
;WIDTH:0.546548
G1 X117.438 Y123.637 E.01137
;WIDTH:0.593096
G1 X117.635 Y123.66 E.01247
;WIDTH:0.639645
G1 X117.793 Y123.679 E.01084
G1 E-3.5 F1800
;WIPE_START
G1 F900
G1 X117.7 Y123.79 E-.43521
G1 X117.568 Y123.897 E-.51072
G1 X117.435 Y124.004 E-.51072
G1 X117.43 Y124.017 E-.04336
;WIPE_END
G17
G3 Z.7 I.054 J1.216 P1  F9000
G1 X125.022 Y123.678 Z.7
G1 Z.3
G1 E5 F1800
;WIDTH:0.628763
G1 F900
G1 X125.222 Y123.658 E.0134
;WIDTH:0.589004
G1 X125.421 Y123.638 E.01245
;WIDTH:0.549245
G1 X125.62 Y123.618 E.01151
;WIDTH:0.509486
G1 X125.82 Y123.598 E.01056
;WIDTH:0.469728
G1 X125.82 Y123.801 E.00973
;WIDTH:0.509486
G1 X125.8 Y123.95 E.00791
;WIDTH:0.549244
G1 X125.78 Y124.098 E.00862
;WIDTH:0.589002
G1 X125.76 Y124.247 E.00932
;WIDTH:0.628761
G1 X125.74 Y124.396 E.01003
G1 X125.673 Y124.283 E.00876
;WIDTH:0.589002
G1 X125.607 Y124.17 E.00815
;WIDTH:0.549244
G1 X125.54 Y124.057 E.00753
;WIDTH:0.509486
G1 X125.474 Y123.944 E.00691
G1 X125.361 Y123.878 E.00691
;WIDTH:0.549245
G1 X125.248 Y123.811 E.00753
;WIDTH:0.589004
G1 X125.135 Y123.745 E.00815
;WIDTH:0.628763
G1 X125.057 Y123.698 E.00609
G1 E-3.5 F1800
;WIPE_START
G1 F900
G1 X125.222 Y123.658 E-.50916
G1 X125.421 Y123.638 E-.60096
G1 X125.55 Y123.625 E-.38988
;WIPE_END
G17
G3 Z.7 I-1.217 J.01 P1  F9000
G1 X125.735 Y145.222 Z.7
G1 Z.3
G1 E5 F1800
;WIDTH:0.639639
G1 F900
G1 X125.756 Y145.34 E.00813
;WIDTH:0.597161
G1 X125.777 Y145.457 E.00753
;WIDTH:0.554683
G1 X125.798 Y145.574 E.00693
;WIDTH:0.512205
G1 X125.82 Y145.692 E.00633
;WIDTH:0.469727
G1 X125.82 Y145.895 E.00973
G1 X125.617 Y145.895 E.00973
;WIDTH:0.512204
G1 X125.499 Y145.873 E.00633
;WIDTH:0.554682
G1 X125.382 Y145.852 E.00693
;WIDTH:0.597159
G1 X125.265 Y145.831 E.00753
;WIDTH:0.639637
G1 X125.147 Y145.81 E.00813
G1 X125.229 Y145.744 E.00712
;WIDTH:0.597159
G1 X125.31 Y145.679 E.0066
;WIDTH:0.554682
G1 X125.392 Y145.614 E.00607
;WIDTH:0.512205
G1 X125.539 Y145.467 E.01102
;WIDTH:0.554683
G1 X125.604 Y145.385 E.00607
;WIDTH:0.597161
G1 X125.669 Y145.304 E.0066
;WIDTH:0.639639
G1 X125.71 Y145.253 E.0044
G1 E-3.5 F1800
;WIPE_START
G1 F900
G1 X125.756 Y145.34 E-.29339
G1 X125.777 Y145.457 E-.35798
G1 X125.798 Y145.574 E-.35798
G1 X125.82 Y145.692 E-.35798
G1 X125.82 Y145.736 E-.13266
;WIPE_END
G17
G3 Z.7 I-.003 J-1.217 P1  F9000
G1 X87.638 Y145.815 Z.7
G1 Z.3
G1 E5 F1800
;WIDTH:0.628759
G1 F900
G1 X87.438 Y145.835 E.0134
;WIDTH:0.589
G1 X87.239 Y145.855 E.01245
;WIDTH:0.549242
G1 X87.04 Y145.875 E.01151
;WIDTH:0.509484
G1 X86.84 Y145.895 E.01056
;WIDTH:0.469726
G1 X86.84 Y145.692 E.00973
;WIDTH:0.512204
G1 X86.862 Y145.574 E.00633
;WIDTH:0.554682
G1 X86.883 Y145.457 E.00693
;WIDTH:0.59716
G1 X86.904 Y145.34 E.00753
;WIDTH:0.639639
G1 X86.925 Y145.222 E.00813
G1 X86.991 Y145.304 E.00712
;WIDTH:0.59716
G1 X87.056 Y145.385 E.0066
;WIDTH:0.554682
G1 X87.121 Y145.467 E.00607
;WIDTH:0.512204
G1 X87.186 Y145.549 E.00554
;WIDTH:0.509484
G1 X87.299 Y145.615 E.00691
;WIDTH:0.549242
G1 X87.412 Y145.682 E.00753
;WIDTH:0.589
G1 X87.525 Y145.748 E.00815
;WIDTH:0.628759
G1 X87.603 Y145.795 E.00609
G1 E-3.5 F1800
;WIPE_START
G1 F900
G1 X87.438 Y145.835 E-.50916
G1 X87.239 Y145.855 E-.60096
G1 X87.11 Y145.868 E-.38988
;WIPE_END
G17
G3 Z.7 I1.217 J.022 P1  F9000
G1 X87.513 Y123.683 Z.7
G1 Z.3
G1 E5 F1800
;WIDTH:0.639645
G1 F900
G1 X87.431 Y123.749 E.00712
;WIDTH:0.597165
G1 X87.35 Y123.814 E.0066
;WIDTH:0.554686
G1 X87.268 Y123.879 E.00607
;WIDTH:0.512207
G1 X87.186 Y123.944 E.00554
;WIDTH:0.509486
G1 X87.12 Y124.057 E.00691
;WIDTH:0.549244
G1 X87.053 Y124.17 E.00753
;WIDTH:0.589002
G1 X86.987 Y124.283 E.00815
;WIDTH:0.628761
G1 X86.92 Y124.396 E.00876
G1 X86.9 Y124.196 E.0134
;WIDTH:0.589002
G1 X86.88 Y123.997 E.01245
;WIDTH:0.549244
G1 X86.86 Y123.798 E.01151
;WIDTH:0.509486
G1 X86.84 Y123.598 E.01056
;WIDTH:0.469728
G1 X87.043 Y123.598 E.00973
;WIDTH:0.512207
G1 X87.161 Y123.62 E.00633
;WIDTH:0.554686
G1 X87.278 Y123.641 E.00693
;WIDTH:0.597165
G1 X87.395 Y123.662 E.00753
;WIDTH:0.639645
G1 X87.473 Y123.676 E.00541
G1 E-3.5 F1800
;WIPE_START
G1 F900
G1 X87.431 Y123.749 E-.25139
G1 X87.35 Y123.814 E-.31344
G1 X87.268 Y123.879 E-.31344
G1 X87.186 Y123.944 E-.31344
G1 X87.134 Y124.033 E-.30828
;WIPE_END
G17
G3 Z.7 I-.012 J1.217 P1  F9000
G1 X125.24 Y124.396 Z.7
G1 Z.3
M73 P1 R15
G1 E5 F1800
;TYPE:Outer wall
;WIDTH:0.5
G1 F900
G1 X125.24 Y145.097 E1.06853
M73 P2 R15
G1 X125.176 Y145.251 E.0086
G1 X125.022 Y145.315 E.0086
G1 X87.638 Y145.315 E1.92964
G1 X87.484 Y145.251 E.0086
G1 X87.42 Y145.097 E.0086
G1 X87.42 Y124.396 E1.06853
G1 X87.484 Y124.242 E.0086
G1 X87.638 Y124.178 E.0086
G1 X94.702 Y124.178 E.36464
G1 X94.876 Y124.265 E.01006
G1 X94.92 Y124.396 E.00711
G1 X94.92 Y137.815 E.69265
G1 X117.74 Y137.815 E1.17788
G1 X117.74 Y124.396 E.69265
G1 X117.784 Y124.265 E.00711
G1 X117.958 Y124.178 E.01006
G1 X125.022 Y124.178 E.36464
G1 X125.176 Y124.242 E.0086
G1 X125.225 Y124.359 E.00654
G1 E-3.5 F1800
;WIPE_START
G1 F900
G1 X125.225 Y124.859 E-1.5
;WIPE_END
G17
G3 Z.7 I-.571 J-1.075 P1  F9000
G1 X86.925 Y145.222 Z.7
G1 Z.3
M73 P3 R15
G1 E5 F1800
;TYPE:Inner wall
;WIDTH:0.639639
G1 F900
G1 X86.92 Y145.097 E.00853
;WIDTH:0.628761
G1 X86.92 Y124.396 E1.38437
G1 X87.513 Y123.683 F9000
;WIDTH:0.639645
G1 F900
G1 X87.638 Y123.678 E.00853
;WIDTH:0.628777
G1 X94.702 Y123.678 E.47243
G1 E-3.5 F1800
;WIPE_START
G1 F900
G1 X94.202 Y123.678 E-1.5
;WIPE_END
G17
G3 Z.7 I0 J1.217 P1  F9000
G1 X117.833 Y123.683 Z.7
G1 Z.3
G1 E5 F1800
;WIDTH:0.639645
G1 F900
G1 X117.958 Y123.678 E.00853
;WIDTH:0.628765
G1 X125.022 Y123.678 E.47242
G1 E-3.5 F1800
;WIPE_START
G1 F900
G1 X124.522 Y123.678 E-1.5
;WIPE_END
G17
G3 Z.7 I.016 J-1.217 P1  F9000
G1 X86.42 Y123.178 Z.7
G1 Z.3
G1 E5 F1800
;TYPE:Outer wall
;WIDTH:0.5
G1 F900
G1 X126.24 Y123.178 E2.05535
G1 X126.24 Y123.801 E.03216
G1 X126.24 Y146.315 E1.16208
G1 X86.42 Y146.315 E2.05535
M73 P4 R15
G1 X86.42 Y123.218 E1.19218
G1 E-3.5 F1800
;WIPE_START
G1 F900
G1 X86.92 Y123.217 E-1.5
;WIPE_END
G17
G3 Z.7 I-.037 J1.216 P1  F9000
G1 X125.74 Y124.396 Z.7
G1 Z.3
G1 E5 F1800
;TYPE:Inner wall
;WIDTH:0.628763
G1 F900
G1 X125.74 Y145.097 E1.38437
;WIDTH:0.639639
G1 X125.735 Y145.222 E.00853
G1 X125.147 Y145.81 F9000
;WIDTH:0.639637
G1 F900
G1 X125.022 Y145.815 E.00853
;WIDTH:0.628759
G1 X87.638 Y145.815 E2.49999
G1 E-3.5 F1800
;WIPE_START
G1 F900
G1 X88.138 Y145.815 E-1.5
;WIPE_END
G17
G3 Z.7 I.915 J.802 P1  F9000
G1 X96.204 Y136.608 Z.7
M73 P5 R15
G1 Z.3
G1 E5 F1800
;TYPE:Bottom surface
;WIDTH:0.5
G1 F1200
G1 X96.463 Y136.349 E.01893
G1 X96.722 Y136.608 E.01893
G1 X97.436 Y136.608 F9000
G1 F1200
G1 X98.003 Y136.041 E.04141
G1 X98.311 Y136.349 E.02249
G1 X98.619 Y136.041 E.02249
G1 X98.311 Y135.733 E.02249
G1 X98.927 Y135.117 E.04497
G1 X99.235 Y135.425 E.02249
G1 X98.927 Y135.733 E.02249
G1 X99.543 Y136.349 E.04497
G1 X99.851 Y136.041 E.02249
G1 X99.543 Y135.733 E.02249
G1 X99.851 Y135.425 E.02248
G1 X100.159 Y135.733 E.02249
G1 X100.467 Y135.425 E.02248
G1 X99.851 Y134.809 E.04497
G1 X99.543 Y135.117 E.02248
G1 X99.235 Y134.809 E.02249
G1 X99.851 Y134.193 E.04497
G1 X100.159 Y134.501 E.02249
G1 X100.467 Y134.193 E.02248
G1 X100.159 Y133.885 E.02249
G1 X100.775 Y133.269 E.04497
G1 X101.083 Y133.577 E.02249
G1 X100.775 Y133.885 E.02248
G1 X101.083 Y134.193 E.02248
G1 X101.391 Y133.885 E.02248
G1 X101.699 Y134.193 E.02249
G1 X101.083 Y134.809 E.04497
G1 X100.775 Y134.501 E.02249
G1 X100.467 Y134.809 E.02248
G1 X101.391 Y135.733 E.06746
G1 X101.699 Y135.425 E.02248
G1 X101.391 Y135.117 E.02248
G1 X102.007 Y134.501 E.04497
G1 X102.315 Y134.809 E.02248
G1 X102.007 Y135.117 E.02248
G1 X102.315 Y135.425 E.02249
G1 X102.623 Y135.117 E.02248
G1 X102.931 Y135.425 E.02248
G1 X102.315 Y136.041 E.04497
G1 X102.007 Y135.733 E.02248
G1 X101.699 Y136.041 E.02248
G1 X102.007 Y136.349 E.02248
G1 X101.748 Y136.608 E.01893
G1 X102.364 Y136.608 F9000
G1 F1200
G1 X102.931 Y136.041 E.04141
G1 X103.24 Y136.349 E.02248
G1 X103.548 Y136.041 E.02248
G1 X103.24 Y135.733 E.02248
G1 X103.548 Y135.425 E.02249
G1 X103.856 Y135.733 E.02248
G1 X104.164 Y135.425 E.02248
G1 X103.856 Y135.117 E.02248
G1 X104.472 Y134.501 E.04497
G1 X104.78 Y134.809 E.02248
G1 X104.472 Y135.117 E.02248
G1 X104.78 Y135.425 E.02249
G1 X105.088 Y135.117 E.02248
G1 X105.396 Y135.425 E.02248
G1 X104.78 Y136.041 E.04497
G1 X104.472 Y135.733 E.02248
G1 X104.164 Y136.041 E.02248
G1 X104.731 Y136.608 E.04141
G1 X104.828 Y136.608 F9000
G1 F1200
G1 X105.088 Y136.349 E.01893
G1 X105.347 Y136.608 E.01893
G1 X104.115 Y136.608 F9000
G1 F1200
G1 X103.856 Y136.349 E.01893
G1 X103.596 Y136.608 E.01893
G1 E-3.5 F1800
;WIPE_START
G1 F1200
G1 X103.856 Y136.349 E-1.10022
G1 X103.95 Y136.443 E-.39978
;WIPE_END
G17
G3 Z.7 I-.071 J-1.215 P1  F9000
G1 X101.132 Y136.608 Z.7
G1 Z.3
G1 E5 F1800
G1 F1200
G1 X101.391 Y136.349 E.01893
G1 X100.775 Y135.733 E.04497
G1 X100.467 Y136.041 E.02248
G1 X100.775 Y136.349 E.02248
G1 X100.516 Y136.608 E.01893
G1 X100.419 Y136.608 F9000
G1 F1200
G1 X100.159 Y136.349 E.01893
G1 X99.9 Y136.608 E.01893
G1 X99.186 Y136.608 F9000
G1 F1200
G1 X98.927 Y136.349 E.01893
G1 X98.668 Y136.608 E.01893
G1 E-3.5 F1800
;WIPE_START
G1 F1200
G1 X98.927 Y136.349 E-1.10022
G1 X99.021 Y136.443 E-.39978
;WIPE_END
G17
G3 Z.7 I.156 J-1.207 P1  F9000
G1 X96.127 Y136.069 Z.7
G1 Z.3
G1 E5 F1800
G1 F1200
G1 X96.155 Y136.041 E.00206
G1 X96.127 Y136.013 E.00206
G1 X96.127 Y134.837 F9000
G1 F1200
G1 X96.155 Y134.809 E.00206
G1 X96.127 Y134.781 E.00206
G1 X96.127 Y133.549 F9000
G1 F1200
G1 X96.463 Y133.885 E.02454
G1 X96.155 Y134.193 E.02248
G1 X96.463 Y134.501 E.02249
G1 X96.771 Y134.193 E.02249
G1 X97.387 Y134.809 E.04497
G1 X97.079 Y135.117 E.02249
G1 X96.771 Y134.809 E.02249
G1 X96.155 Y135.425 E.04497
G1 X96.463 Y135.733 E.02249
G1 X96.771 Y135.425 E.02249
G1 X97.079 Y135.733 E.02248
G1 X96.771 Y136.041 E.02249
G1 X97.079 Y136.349 E.02249
G1 X97.695 Y135.733 E.04497
G1 X97.387 Y135.425 E.02249
G1 X97.695 Y135.117 E.02249
G1 X98.003 Y135.425 E.02249
G1 X98.619 Y134.809 E.04497
G1 X98.311 Y134.501 E.02249
G1 X98.003 Y134.809 E.02249
G1 X97.387 Y134.193 E.04497
G1 X97.695 Y133.885 E.02249
G1 X98.003 Y134.193 E.02249
G1 X98.311 Y133.885 E.02248
G1 X98.003 Y133.577 E.02249
G1 X98.311 Y133.269 E.02248
G1 X98.927 Y133.885 E.04497
G1 X98.619 Y134.193 E.02248
G1 X98.927 Y134.501 E.02249
G1 X99.543 Y133.885 E.04497
G1 X99.235 Y133.577 E.02249
G1 X99.543 Y133.269 E.02248
G1 X99.851 Y133.577 E.02249
G1 X100.467 Y132.961 E.04497
G1 X100.159 Y132.653 E.02249
G1 X99.851 Y132.961 E.02248
G1 X99.543 Y132.653 E.02248
G1 X99.851 Y132.345 E.02249
G1 X99.543 Y132.037 E.02249
G1 X98.927 Y132.653 E.04497
G1 X99.235 Y132.961 E.02249
G1 X98.927 Y133.269 E.02249
G1 X98.311 Y132.653 E.04497
G1 X98.003 Y132.345 E.02249
G1 X98.311 Y132.037 E.02248
G1 X98.619 Y132.345 E.02248
G1 X99.235 Y131.729 E.04497
G1 X98.927 Y131.421 E.02248
G1 X98.619 Y131.729 E.02248
G1 X98.311 Y131.421 E.02249
G1 X98.619 Y131.113 E.02249
G1 X98.311 Y130.805 E.02248
G1 X97.695 Y131.421 E.04497
G1 X98.003 Y131.729 E.02248
G1 X97.695 Y132.037 E.02249
G1 X97.387 Y131.729 E.02249
G1 X96.771 Y132.345 E.04497
G1 X97.079 Y132.653 E.02249
G1 X97.387 Y132.345 E.02249
G1 X98.003 Y132.961 E.04497
G1 X97.695 Y133.269 E.02249
G1 X97.387 Y132.961 E.02249
G1 X97.079 Y133.269 E.02249
G1 X97.387 Y133.577 E.02249
G1 X97.079 Y133.885 E.02249
G1 X96.463 Y133.269 E.04497
G1 X96.771 Y132.961 E.02249
G1 X96.463 Y132.653 E.02249
G1 X96.155 Y132.961 E.02248
G1 X96.127 Y132.933 E.00206
G1 X96.127 Y132.316 F9000
G1 F1200
G1 X96.155 Y132.345 E.00206
G1 X96.771 Y131.729 E.04497
G1 X96.463 Y131.421 E.02248
G1 X96.155 Y131.729 E.02248
G1 X96.127 Y131.7 E.00206
G1 X96.127 Y131.141 F9000
G1 F1200
G1 X96.155 Y131.113 E.00206
G1 X96.127 Y131.084 E.00206
G1 X96.127 Y129.909 F9000
G1 F1200
G1 X96.155 Y129.88 E.00206
G1 X96.127 Y129.852 E.00206
G1 E-3.5 F1800
;WIPE_START
G1 F1200
G1 X96.155 Y129.88 E-.74999
G1 X96.127 Y129.909 E-.75001
;WIPE_END
G17
G3 Z.7 I1.217 J0 P1  F9000
G1 X96.127 Y124.98 Z.7
G1 Z.3
G1 E5 F1800
M73 P6 R15
G1 F1200
G1 X96.463 Y124.644 E.02454
G1 X96.204 Y124.385 E.01893
G1 E-3.5 F1800
;WIPE_START
G1 F1200
G1 X96.463 Y124.644 E-1.10028
G1 X96.369 Y124.738 E-.39972
;WIPE_END
G17
G3 Z.7 I.106 J1.212 P1  F9000
G1 X100.419 Y124.385 Z.7
G1 Z.3
G1 E5 F1800
G1 F1200
G1 X100.159 Y124.644 E.01893
G1 X99.9 Y124.385 E.01893
G1 X99.802 Y124.385 F9000
G1 F1200
G1 X99.235 Y124.952 E.04142
G1 X99.543 Y125.26 E.02249
G1 X99.851 Y124.952 E.02249
G1 X100.467 Y125.568 E.04497
G1 X100.159 Y125.876 E.02249
G1 X99.851 Y125.568 E.02248
G1 X99.543 Y125.876 E.02248
G1 X99.851 Y126.184 E.02248
G1 X99.543 Y126.492 E.02249
G1 X98.927 Y125.876 E.04497
G1 X99.235 Y125.568 E.02249
G1 X98.927 Y125.26 E.02249
G1 X98.619 Y125.568 E.02249
G1 X98.003 Y124.952 E.04497
G1 X98.311 Y124.644 E.02249
G1 X98.619 Y124.952 E.02249
G1 X99.186 Y124.385 E.04142
G1 X97.954 Y124.385 F9000
G1 F1200
G1 X97.695 Y124.644 E.01893
G1 X97.436 Y124.385 E.01893
G1 X96.82 Y124.385 F9000
G1 F1200
G1 X97.079 Y124.644 E.01893
G1 X96.771 Y124.952 E.02249
G1 X97.079 Y125.26 E.02249
G1 X97.387 Y124.952 E.02249
G1 X98.003 Y125.568 E.04497
G1 X97.695 Y125.876 E.02249
G1 X97.387 Y125.568 E.02249
G1 X97.079 Y125.876 E.02248
G1 X97.387 Y126.184 E.02249
G1 X97.079 Y126.492 E.02249
G1 X96.463 Y125.876 E.04497
G1 X96.771 Y125.568 E.02249
