; HEADER_BLOCK_START
; generated by OrcaSlicer 1.7.0 on 2023-12-19 at 18:38:12
; total layer number: 145
; HEADER_BLOCK_END

; THUMBNAIL_BLOCK_START
; THUMBNAIL_BLOCK_END

; external perimeters extrusion width = 0.40mm
; perimeters extrusion width = 0.45mm
; infill extrusion width = 0.45mm
; solid infill extrusion width = 0.40mm
; top infill extrusion width = 0.40mm
; first layer extrusion width = 0.50mm

; EXECUTABLE_BLOCK_START
EXCLUDE_OBJECT_DEFINE NAME=Nozzle_Cleaner_Ender_3_-_Unsaved_3_.stl_id_0_copy_0 CENTER=116.779,113.375 POLYGON=[[78.4239,104.701],[78.4266,104.045],[78.4639,103.39],[78.5354,102.737],[78.6411,102.089],[78.7806,101.448],[78.9537,100.815],[79.1597,100.192],[79.3982,99.58],[79.6684,98.9819],[79.9696,98.3987],[80.3011,97.8322],[80.6618,97.2838],[81.0508,96.7552],[81.467,96.2477],[81.9093,95.7627],[82.3765,95.3016],[82.8672,94.8657],[83.3801,94.4561],[83.9138,94.074],[84.4668,93.7205],[85.0376,93.3965],[85.6246,93.1029],[86.2263,92.8405],[86.8409,92.61],[87.4667,92.4121],[88.102,92.2474],[88.7452,92.1162],[89.3943,92.019],[90.0476,91.9559],[90.7034,91.9273],[148.488,92.1706],[149.602,93.0415],[150.716,93.9124],[155.135,129.963],[154.264,131.077],[153.393,132.191],[131.917,134.824],[86.1293,115.971],[85.5299,115.703],[84.9453,115.405],[84.3773,115.076],[83.8272,114.718],[83.2967,114.331],[82.7873,113.917],[82.3003,113.477],[81.837,113.012],[81.3988,112.524],[80.9869,112.013],[80.6023,111.481],[80.2462,110.929],[79.9195,110.36],[79.6231,109.774],[79.3579,109.174],[79.1246,108.56],[78.9238,107.936],[78.7561,107.301],[78.6219,106.659],[78.5217,106.01],[78.4556,105.357],[78.4239,104.701]]
M73 P0 R65
;TYPE:Custom
START_PRINT EXTRUDER_TEMP=255  BED_TEMP=80
G90
G21
M83 ; use relative distances for extrusion
; filament start gcode
M106 S0
;LAYER_CHANGE
;Z:0.3
;HEIGHT:0.3
;BEFORE_LAYER_CHANGE
;0.3
G92 E0

G1 E-5 F1800
;_SET_FAN_SPEED_CHANGING_LAYER
; printing object Nozzle Cleaner Ender 3 - (Unsaved) (3).stl id:0 copy 0
EXCLUDE_OBJECT_START NAME=Nozzle_Cleaner_Ender_3_-_Unsaved_3_.stl_id_0_copy_0
G1 X100.996 Y108.885 F9000
G1 Z.4
G1 Z.3
G1 E5 F1800
;TYPE:Inner wall
;WIDTH:0.5
G1 F900
G1 X100.914 Y109.089 E.01139
G1 X100.664 Y109.591 E.02894
G1 X100.04 Y110.627 E.06239
G1 X99.713 Y111.082 E.02894
G1 X99.023 Y111.896 E.05507
G1 X98.606 Y112.331 E.0311
G1 X98.224 Y112.685 E.02688
G1 X97.297 Y113.488 E.06332
G1 X96.993 Y113.92 E.02725
G1 X96.853 Y114.201 E.01622
G1 X96.684 Y114.866 E.03543
G1 X96.673 Y115.295 E.02211
G1 X96.718 Y115.63 E.01746
G1 X96.938 Y116.274 E.03512
G1 X97.181 Y116.648 E.02303
G1 X97.673 Y117.126 E.03541
;WIDTH:0.536753
G1 X98.264 Y117.472 E.03831
G1 X97.589 Y117.332 E.03859
;WIDTH:0.5
G1 X88.363 Y115.153 E.4893
G1 X87.608 Y114.94 E.04051
G1 X86.651 Y114.593 E.05253
G1 X85.962 Y114.273 E.03921
G1 X85.074 Y113.775 E.05254
G1 X84.445 Y113.349 E.03921
G1 X83.649 Y112.715 E.05253
G1 X83.096 Y112.194 E.03921
G1 X82.409 Y111.437 E.05279
G1 X82.051 Y110.978 E.03003
G1 X81.715 Y110.496 E.03035
G1 X81.308 Y109.829 E.04029
G1 X81.04 Y109.322 E.02961
G1 X80.562 Y108.206 E.06266
G1 X80.382 Y107.672 E.02907
G1 X80.089 Y106.494 E.06267
G1 X79.997 Y105.938 E.02907
G1 X79.897 Y104.728 E.06267
G1 X79.896 Y104.165 E.02907
G1 X79.991 Y102.955 E.06267
G1 X80.081 Y102.399 E.02907
G1 X80.368 Y101.226 E.06233
G1 X80.615 Y100.51 E.03908
G1 X81.017 Y99.575 E.05253
G1 X81.376 Y98.906 E.03922
G1 X81.924 Y98.048 E.05253
G1 X82.386 Y97.445 E.03921
G1 X83.065 Y96.687 E.05254
G1 X83.617 Y96.165 E.03921
G1 X84.413 Y95.523 E.05278
G1 X84.892 Y95.192 E.03004
G1 X85.393 Y94.884 E.03036
G1 X86.081 Y94.517 E.04029
G1 X86.603 Y94.279 E.0296
G1 X87.745 Y93.865 E.06267
G1 X88.288 Y93.717 E.02907
G1 X89.481 Y93.492 E.06267
G1 X90.041 Y93.433 E.02908
G1 X91.255 Y93.403 E.06267
G1 X91.832 Y93.435 E.02983
G1 X92.407 Y93.498 E.02983
G1 X93.599 Y93.728 E.06267
G1 X94.168 Y93.885 E.03046
G1 X102.917 Y96.616 E.4731
;WIDTH:0.545933
M73 P0 R64
G1 X103.243 Y96.742 E.01994
;WIDTH:0.591867
G1 X103.569 Y96.868 E.02184
G1 X103.414 Y96.888 E.00977
;WIDTH:0.554355
G1 X103.259 Y96.909 E.00907
;WIDTH:0.516844
G1 X102.59 Y97.064 E.03682
;WIDTH:0.5
G1 X102.203 Y97.245 E.02206
G1 X101.923 Y97.435 E.01745
G1 X101.61 Y97.726 E.02207
G1 X101.402 Y97.992 E.01746
G1 X101.193 Y98.367 E.02211
G1 X101.081 Y98.661 E.01628
G1 X100.976 Y99.21 E.02884
G1 X101.008 Y99.767 E.02876
G1 X101.067 Y100.049 E.01487
G1 X101.404 Y101.012 E.05268
G1 X101.677 Y101.994 E.05259
G1 X101.816 Y102.736 E.03899
G1 X101.927 Y103.744 E.05236
G1 X101.947 Y104.499 E.03898
G1 X101.894 Y105.517 E.05262
G1 X101.822 Y106.092 E.02989
G1 X101.718 Y106.668 E.03022
G1 X101.533 Y107.422 E.04006
G1 X101.364 Y107.968 E.02949
G1 X101.011 Y108.847 E.04894
G1 E-3.5 F1800
;WIPE_START
G1 F900
G1 X100.914 Y109.089 E-.78182
G1 X100.807 Y109.304 E-.71818
;WIPE_END
G17
G3 Z.7 I.771 J-.941 P1  F9000
G1 X90.129 Y100.551 Z.7
G1 Z.3
G1 E5 F1800
G1 F900
G1 X90.309 Y100.507 E.00958
G1 X90.946 Y100.459 E.03295
G1 X91.819 Y100.562 E.04538
G1 X92.648 Y100.855 E.04539
G1 X93.392 Y101.323 E.04537
G1 X93.947 Y101.86 E.03986
G1 X94.475 Y102.672 E.05002
G1 X94.692 Y103.223 E.03055
G1 X94.813 Y103.685 E.02467
G1 X94.884 Y104.261 E.02995
G1 X94.852 Y104.893 E.03266
G1 X94.793 Y105.268 E.01958
G1 X94.575 Y105.961 E.03751
G1 X94.2 Y106.658 E.04084
G1 X93.703 Y107.243 E.03964
G1 X93.441 Y107.486 E.01842
G1 X92.838 Y107.892 E.03751
G1 X92.354 Y108.113 E.02748
G1 X91.903 Y108.268 E.02463
G1 X91.273 Y108.376 E.03296
G1 X90.395 Y108.356 E.04536
G1 X89.643 Y108.181 E.03981
G1 X88.862 Y107.815 E.04453
G1 X88.206 Y107.312 E.04267
G1 X87.905 Y106.987 E.02286
G1 X87.571 Y106.556 E.02815
G1 X87.207 Y105.818 E.0425
G1 X87.007 Y105.071 E.03993
G1 X86.968 Y104.482 E.03045
G1 X86.985 Y103.951 E.02743
G1 X87.14 Y103.24 E.03752
G1 X87.415 Y102.578 E.03703
G1 X87.658 Y102.188 E.02374
G1 X88.002 Y101.733 E.02941
G1 X88.589 Y101.217 E.04036
G1 X89.256 Y100.825 E.0399
G1 X89.849 Y100.619 E.03243
G1 X90.09 Y100.56 E.01279
G1 X90.223 Y100.972 F9000
G1 F900
G1 X90.342 Y100.941 E.0063
G1 X90.978 Y100.894 E.03295
G1 X91.755 Y100.993 E.04041
G1 X92.49 Y101.261 E.04041
G1 X93.148 Y101.685 E.0404
G1 X93.635 Y102.164 E.03526
G1 X94.103 Y102.9 E.04502
G1 X94.343 Y103.547 E.03561
G1 X94.451 Y104.314 E.04002
G1 X94.418 Y104.855 E.02795
G1 X94.332 Y105.283 E.02256
G1 X94.16 Y105.831 E.02961
G1 X93.824 Y106.438 E.03584
G1 X93.379 Y106.951 E.03503
G1 X93.197 Y107.125 E.01298
G1 X92.595 Y107.531 E.03751
G1 X91.963 Y107.801 E.03545
G1 X91.2 Y107.946 E.04011
G1 X90.418 Y107.921 E.04039
G1 X89.754 Y107.76 E.03523
G1 X89.057 Y107.426 E.03991
G1 X88.483 Y106.975 E.03769
G1 X88.03 Y106.438 E.03626
G1 X87.826 Y106.111 E.01992
G1 X87.602 Y105.633 E.02726
G1 X87.431 Y104.97 E.03529
G1 X87.404 Y104.47 E.02587
G1 X87.411 Y104.043 E.02202
G1 X87.565 Y103.333 E.03752
G1 X87.811 Y102.759 E.03225
G1 X88.289 Y102.069 E.04329
G1 X88.873 Y101.548 E.04041
G1 X89.465 Y101.207 E.03528
G1 X89.977 Y101.036 E.02784
G1 X90.185 Y100.982 E.01109
G1 X90.327 Y101.384 F9000
;TYPE:Outer wall
G1 F900
G1 X91.011 Y101.328 E.03543
G1 X91.691 Y101.424 E.03544
G1 X92.333 Y101.667 E.03545
G1 X92.905 Y102.046 E.03543
G1 X93.323 Y102.468 E.03065
G1 X93.732 Y103.127 E.04002
G1 X93.931 Y103.689 E.03078
G1 X94.019 Y104.367 E.03531
G1 X93.971 Y104.961 E.03072
G1 X93.724 Y105.744 E.04242
G1 X93.446 Y106.221 E.02851
G1 X93.056 Y106.659 E.03027
G1 X92.401 Y107.137 E.04186
G1 X91.801 Y107.397 E.03375
G1 X91.126 Y107.517 E.03534
G1 X90.441 Y107.486 E.03542
G1 X89.866 Y107.339 E.03064
G1 X89.252 Y107.037 E.03529
G1 X88.759 Y106.639 E.03273
G1 X88.373 Y106.171 E.03129
G1 X88.22 Y105.925 E.01493
G1 X87.996 Y105.447 E.02726
G1 X87.855 Y104.87 E.03067
G1 X87.832 Y104.188 E.03523
G1 X87.991 Y103.426 E.04021
G1 X88.207 Y102.939 E.02747
G1 X88.638 Y102.33 E.03855
G1 X89.156 Y101.879 E.03544
G1 X89.675 Y101.589 E.03066
G1 X90.288 Y101.396 E.03319
G1 E-3.5 F1800
;WIPE_START
G1 F900
G1 X90.786 Y101.349 E-1.5
;WIPE_END
G17
G3 Z.7 I-.028 J1.217 P1  F9000
G1 X140.565 Y102.506 Z.7
G1 Z.3
G1 E5 F1800
;TYPE:Inner wall
G1 F900
G1 X141.258 Y108.16 E.29404
G1 X143.209 Y124.08 E.82784
G1 X132.247 Y125.423 E.57006
G1 X132.036 Y125.417 E.01094
G1 X131.103 Y125.244 E.04895
;WIDTH:0.54145
G1 X130.962 Y125.189 E.00858
;WIDTH:0.582901
G1 X130.82 Y125.135 E.00933
;WIDTH:0.624352
G1 X130.678 Y125.08 E.01007
;WIDTH:0.665803
G1 X130.537 Y125.025 E.01082
G1 X130.668 Y124.98 E.00991
;WIDTH:0.624352
G1 X130.8 Y124.934 E.00923
;WIDTH:0.582901
G1 X130.931 Y124.889 E.00855
;WIDTH:0.54145
G1 X131.063 Y124.844 E.00786
;WIDTH:0.5
G1 X131.554 Y124.389 E.03456
G1 X131.68 Y124.027 E.0198
G1 X131.686 Y123.723 E.01569
G1 X129.48 Y105.723 E.93602
G1 X129.397 Y105.421 E.01617
G1 X129.175 Y105.092 E.02052
G1 X128.738 Y104.821 E.0265
G1 X128.528 Y104.752 E.0114
;WIDTH:0.546503
G1 X128.315 Y104.658 E.01334
;WIDTH:0.593006
G1 X128.101 Y104.563 E.01463
;WIDTH:0.639509
G1 X127.888 Y104.468 E.01592
G1 X128.093 Y104.417 E.01445
;WIDTH:0.593006
G1 X128.299 Y104.365 E.01328
;WIDTH:0.546503
G1 X128.504 Y104.313 E.01211
;WIDTH:0.5
G1 X129.496 Y103.862 E.05626
G1 X140.525 Y102.511 E.57353
G1 X140.944 Y102.021 F9000
G1 F900
G1 X141.691 Y108.107 E.31652
G1 X143.695 Y124.459 E.85032
G1 X132.128 Y125.877 E.60153
G1 X131.019 Y125.672 E.05821
G1 X88.254 Y115.575 E2.26804
G1 X87.474 Y115.355 E.04182
G1 X86.484 Y114.996 E.05434
G1 X85.764 Y114.661 E.04103
G1 X84.845 Y114.146 E.05434
G1 X84.187 Y113.7 E.04103
G1 X83.363 Y113.045 E.05434
G1 X82.785 Y112.5 E.04103
G1 X82.076 Y111.717 E.0545
G1 X81.701 Y111.237 E.03146
G1 X81.35 Y110.734 E.03165
G1 X80.929 Y110.045 E.04168
G1 X80.647 Y109.51 E.03121
G1 X80.155 Y108.362 E.06448
G1 X79.964 Y107.795 E.03089
G1 X79.662 Y106.582 E.06448
G1 X79.565 Y105.992 E.03089
G1 X79.462 Y104.747 E.06449
G1 X79.46 Y104.149 E.03088
G1 X79.559 Y102.903 E.06449
G1 X79.653 Y102.312 E.03088
G1 X79.949 Y101.103 E.06428
G1 X80.208 Y100.353 E.04095
G1 X80.624 Y99.386 E.05433
G1 X81 Y98.685 E.04104
G1 X81.567 Y97.798 E.05434
G1 X82.05 Y97.167 E.04103
G1 X82.752 Y96.383 E.05434
G1 X83.33 Y95.837 E.04103
G1 X84.152 Y95.174 E.05449
G1 X84.653 Y94.827 E.03147
G1 X85.176 Y94.506 E.03166
G1 X85.888 Y94.126 E.04167
G1 X86.438 Y93.875 E.0312
G1 X87.613 Y93.45 E.06448
G1 X88.19 Y93.292 E.03089
G1 X89.418 Y93.061 E.06448
G1 X90.013 Y92.998 E.03089
G1 X91.262 Y92.967 E.06448
G1 X91.868 Y93.001 E.03134
G1 X92.472 Y93.067 E.03135
G1 X93.698 Y93.303 E.06449
G1 X94.291 Y93.468 E.03173
G1 X127.96 Y103.968 E1.82043
G1 X128.324 Y103.916 E.01898
G1 X129.377 Y103.437 E.05971
G1 X140.905 Y102.026 E.59947
G1 X141.324 Y101.535 F9000
;TYPE:Outer wall
G1 F900
G1 X142.123 Y108.055 E.33901
G1 X144.18 Y124.838 E.87281
G1 X132.114 Y126.317 E.62747
G1 X130.929 Y126.098 E.06222
G1 X88.144 Y115.997 E2.26908
G1 X87.34 Y115.77 E.04313
G1 X86.318 Y115.399 E.05614
G1 X85.565 Y115.049 E.04285
G1 X84.616 Y114.518 E.05615
G1 X83.929 Y114.052 E.04286
G1 X83.078 Y113.374 E.05614
G1 X82.474 Y112.805 E.04285
G1 X81.742 Y111.998 E.05621
G1 X81.35 Y111.496 E.0329
G1 X80.985 Y110.972 E.03295
G1 X80.55 Y110.26 E.04306
G1 X80.254 Y109.698 E.03281
G1 X79.747 Y108.517 E.06629
G1 X79.545 Y107.917 E.0327
G1 X79.235 Y106.671 E.06629
G1 X79.132 Y106.045 E.0327
G1 X79.026 Y104.765 E.0663
G1 X79.025 Y104.132 E.0327
G1 X79.126 Y102.851 E.0663
G1 X79.226 Y102.226 E.0327
G1 X79.531 Y100.98 E.06623
G1 X79.802 Y100.195 E.04282
G1 X80.232 Y99.196 E.05614
G1 X80.624 Y98.465 E.04286
G1 X81.21 Y97.548 E.05614
G1 X81.714 Y96.889 E.04285
G1 X82.44 Y96.078 E.05615
G1 X83.043 Y95.508 E.04286
G1 X83.891 Y94.825 E.0562
G1 X84.415 Y94.462 E.0329
G1 X84.959 Y94.128 E.03296
G1 X85.695 Y93.735 E.04306
G1 X86.273 Y93.471 E.03281
G1 X87.481 Y93.034 E.06629
G1 X88.092 Y92.867 E.0327
G1 X89.354 Y92.629 E.0663
G1 X89.985 Y92.563 E.0327
G1 X91.269 Y92.531 E.0663
G1 X91.904 Y92.566 E.03285
G1 X92.537 Y92.636 E.03286
G1 X93.798 Y92.879 E.0663
G1 X94.414 Y93.05 E.03299
G1 X127.989 Y103.529 E1.81545
M73 P1 R64
G1 X128.144 Y103.52 E.00802
G1 X129.258 Y103.013 E.06317
G1 X141.284 Y101.54 E.6254
G1 E-3.5 F1800
;WIPE_START
G1 F900
G1 X141.348 Y102.036 E-1.5
;WIPE_END
G17
G3 Z.7 I-1.104 J-.511 P1  F9000
G1 X131.252 Y123.839 Z.7
G1 Z.3
G1 E5 F1800
;TYPE:Inner wall
G1 F900
G1 X131.25 Y123.958 E.00617
G1 X131.174 Y124.175 E.01188
G1 X130.879 Y124.448 E.02074
G1 X130.567 Y124.508 E.01643
G1 X108.141 Y119.238 E1.18909
G1 X98.666 Y117.122 E.50108
G1 X98.266 Y116.977 E.022
G1 X97.755 Y116.633 E.03176
G1 X97.423 Y116.244 E.02641
G1 X97.256 Y115.917 E.01895
G1 X97.109 Y115.306 E.03246
G1 X97.152 Y114.691 E.03181
G1 X97.333 Y114.194 E.02729
G1 X97.631 Y113.767 E.02686
G1 X98.749 Y112.798 E.07636
G1 X99.14 Y112.413 E.02836
G1 X100.057 Y111.35 E.07241
G1 X100.404 Y110.866 E.03075
G1 X101.046 Y109.801 E.0642
G1 X101.311 Y109.268 E.03075
G1 X101.775 Y108.114 E.0642
G1 X101.953 Y107.539 E.03108
G1 X102.144 Y106.759 E.04144
G1 X102.253 Y106.158 E.03152
G1 X102.328 Y105.556 E.03132
G1 X102.383 Y104.505 E.05431
G1 X102.362 Y103.715 E.0408
G1 X102.247 Y102.672 E.05415
G1 X102.102 Y101.895 E.0408
G1 X101.82 Y100.882 E.0543
G1 X101.478 Y99.905 E.05342
G1 X101.412 Y99.308 E.031
G1 X101.506 Y98.756 E.02891
G1 X101.782 Y98.205 E.03181
G1 X102.22 Y97.753 E.03246
G1 X102.775 Y97.458 E.03244
G1 X103.326 Y97.348 E.02898
G1 X104.04 Y97.43 E.03714
G1 X121.168 Y102.794 E.92642
G1 X128.602 Y105.235 E.40386
G1 X128.864 Y105.397 E.0159
G1 X128.998 Y105.595 E.01231
G1 X129.047 Y105.776 E.0097
G1 X131.253 Y123.776 E.93602
G1 X131.253 Y123.799 E.00118
G1 X130.807 Y123.712 F9000
;TYPE:Outer wall
G1 F900
G1 X130.821 Y123.829 E.00606
G1 X130.795 Y123.962 E.00701
G1 X130.696 Y124.053 E.00691
G1 X130.592 Y124.073 E.00548
G1 X108.238 Y118.814 E1.18535
G1 X98.758 Y116.697 E.50135
G1 X98.492 Y116.605 E.01453
G1 X98.078 Y116.342 E.02531
G1 X97.801 Y116.027 E.02164
G1 X97.674 Y115.794 E.01372
G1 X97.544 Y115.316 E.02552
G1 X97.566 Y114.826 E.02534
G1 X97.709 Y114.415 E.02246
G1 X97.992 Y114.02 E.02509
G1 X98.797 Y113.341 E.05435
G1 X99.574 Y112.594 E.05561
G1 X100.4 Y111.619 E.06601
G1 X100.768 Y111.106 E.03256
G1 X101.428 Y110.011 E.06601
G1 X101.709 Y109.446 E.03256
G1 X102.185 Y108.26 E.066
G1 X102.373 Y107.655 E.03267
G1 X102.57 Y106.849 E.04282
G1 X102.683 Y106.224 E.03281
G1 X102.763 Y105.594 E.03275
G1 X102.819 Y104.511 E.05601
G1 X102.797 Y103.685 E.04261
G1 X102.679 Y102.608 E.05595
G1 X102.527 Y101.796 E.04262
G1 X102.236 Y100.751 E.05601
G1 X101.889 Y99.761 E.05416
G1 X101.846 Y99.251 E.02641
G1 X101.954 Y98.791 E.02439
G1 X102.204 Y98.363 E.02557
G1 X102.573 Y98.034 E.02552
G1 X103.02 Y97.834 E.02526
G1 X103.454 Y97.778 E.02259
G1 X103.91 Y97.846 E.0238
G1 X121.033 Y103.208 E.92611
G1 X128.467 Y105.649 E.40386
G1 X128.598 Y105.769 E.0092
G1 X128.615 Y105.829 E.00323
G1 X130.802 Y123.673 E.9279
G1 X130.537 Y125.025 F9000
;TYPE:Inner wall
;WIDTH:0.665803
G1 F900
G1 X130.338 Y124.987 E.01439
;WIDTH:0.648175
G1 X108.028 Y119.728 E1.58557
;WIDTH:0.633403
G1 X104.875 Y119.004 E.21812
;WIDTH:0.59416
G1 X101.722 Y118.279 E.20307
;WIDTH:0.554917
G1 X98.569 Y117.555 E.18803
;WIDTH:0.536753
G1 X98.264 Y117.472 E.01772
G1 E-3.5 F1800
;WIPE_START
G1 F900
G1 X98.569 Y117.555 E-.94993
G1 X98.748 Y117.596 E-.55008
;WIPE_END
G17
G3 Z.7 I1.185 J.276 P1  F9000
G1 X103.569 Y96.868 Z.7
G1 Z.3
G1 E5 F1800
;WIDTH:0.591867
G1 F900
G1 X103.87 Y96.94 E.01932
;WIDTH:0.549206
G1 X104.171 Y97.011 E.01776
;WIDTH:0.506545
G1 X104.172 Y97.011 E.00005
;WIDTH:0.523517
G1 X121.294 Y102.365 E.97595
;WIDTH:0.523635
G1 X121.308 Y102.369 E.00082
;WIDTH:0.572918
G1 X124.509 Y103.394 E.20255
;WIDTH:0.622201
G1 X127.711 Y104.419 E.22218
;WIDTH:0.639509
G1 X127.888 Y104.468 E.01251
G1 X129.363 Y104.291 F9000
;TYPE:Bottom surface
;WIDTH:0.5
G1 F1200
G1 X129.83 Y104.758 E.03411
G1 X129.543 Y105.045 E.02094
G1 X130.513 Y104.075 F9000
G1 F1200
G1 X130.446 Y104.142 E.0049
G1 X130.394 Y104.09 E.00383
G1 X129.845 Y104.157 F9000
G1 F1200
G1 X130.754 Y105.066 E.06638
G1 X131.062 Y104.758 E.02248
G1 X130.754 Y104.45 E.02249
G1 X131.215 Y103.989 E.03366
G1 X131.492 Y103.955 F9000
G1 F1200
G1 X131.678 Y104.142 E.01364
G1 X131.37 Y104.45 E.02249
G1 X131.678 Y104.758 E.02248
G1 X131.986 Y104.45 E.02249
