; HEADER_BLOCK_START
; generated by OrcaSlicer 1.7.0 on 2023-10-28 at 17:47:15
; total layer number: 32
; HEADER_BLOCK_END

; THUMBNAIL_BLOCK_START
; THUMBNAIL_BLOCK_END

; external perimeters extrusion width = 0.40mm
; perimeters extrusion width = 0.45mm
; infill extrusion width = 0.45mm
; solid infill extrusion width = 0.40mm
; top infill extrusion width = 0.40mm
; first layer extrusion width = 0.50mm

; external perimeters extrusion width = 0.40mm
; perimeters extrusion width = 0.45mm
; infill extrusion width = 0.45mm
; solid infill extrusion width = 0.40mm
; top infill extrusion width = 0.40mm
; first layer extrusion width = 0.50mm

; EXECUTABLE_BLOCK_START
EXCLUDE_OBJECT_DEFINE NAME=OrcaToleranceTest.stl_id_0_copy_0 CENTER=110,119.7 POLYGON=[[81.0318,115.9],[84.0318,112.9],[85.3361,112.5],[134.083,112.5],[135.968,112.9],[138.968,115.9],[138.968,123.9],[135.968,126.9],[84.0318,126.9],[81.0318,123.9],[81.0318,115.9]]
EXCLUDE_OBJECT_DEFINE NAME=OrcaToleranceTest.stl_id_1_copy_0 CENTER=110,100.3 POLYGON=[[81.0318,96.5],[84.0318,93.5],[85.3361,93.1],[134.083,93.1],[135.968,93.5],[138.968,96.5],[138.968,104.5],[135.968,107.5],[84.0318,107.5],[81.0318,104.5],[81.0318,96.5]]
M73 P0 R76
;TYPE:Custom
START_PRINT EXTRUDER_TEMP=255  BED_TEMP=80
G90
G21
M83 ; use relative distances for extrusion
; filament start gcode
M106 S0
;LAYER_CHANGE
;Z:0.2
;HEIGHT:0.2
;BEFORE_LAYER_CHANGE
;0.2
G92 E0

G1 E-5 F3600
;_SET_FAN_SPEED_CHANGING_LAYER
SET_VELOCITY_LIMIT ACCEL=500 ACCEL_TO_DECEL=250
G1 Z.4 F9000
G1 X79.85 Y89.618
G1 Z.4
G1 Z.2
G1 E5 F2400
;TYPE:Skirt
;WIDTH:0.5
G1 F900
G1 X81.636 Y88.393 E.0782
G1 X84.032 Y87.886 E.08842
G1 X135.968 Y87.886 E1.87521
G1 X138.098 Y88.282 E.0782
G1 X140.15 Y89.618 E.08842
G1 X142.85 Y92.318 E.13787
G1 X144.075 Y94.104 E.0782
G1 X144.582 Y96.5 E.08842
G1 X144.582 Y123.9 E.9893
G1 X144.186 Y126.029 E.0782
G1 X142.85 Y128.082 E.08842
G1 X140.15 Y130.782 E.13787
G1 X138.364 Y132.007 E.0782
G1 X135.968 Y132.514 E.08842
G1 X84.032 Y132.514 E1.87521
G1 X81.902 Y132.118 E.0782
G1 X79.85 Y130.782 E.08842
G1 X77.15 Y128.082 E.13787
G1 X75.925 Y126.296 E.0782
G1 X75.418 Y123.9 E.08842
G1 X75.418 Y96.5 E.9893
G1 X75.814 Y94.371 E.0782
G1 X77.15 Y92.318 E.08842
G1 X79.822 Y89.646 E.13642
G1 X80.145 Y89.97 F9000
G1 F900
G1 X80.173 Y89.941 E.00144
G1 X81.897 Y88.778 E.07509
G1 X84.032 Y88.343 E.07866
G1 X135.968 Y88.343 E1.87521
G1 X138.01 Y88.739 E.07509
G1 X139.827 Y89.941 E.07866
G1 X142.527 Y92.641 E.13787
G1 X143.69 Y94.365 E.07509
G1 X144.125 Y96.5 E.07866
G1 X144.125 Y123.9 E.9893
G1 X143.729 Y125.942 E.07509
G1 X142.527 Y127.759 E.07866
G1 X139.827 Y130.459 E.13787
G1 X138.103 Y131.622 E.07509
G1 X135.968 Y132.057 E.07866
G1 X84.032 Y132.057 E1.87521
G1 X81.99 Y131.661 E.07509
G1 X80.173 Y130.459 E.07866
G1 X77.473 Y127.759 E.13787
G1 X76.31 Y126.035 E.07509
G1 X75.875 Y123.9 E.07866
G1 X75.875 Y96.5 E.9893
G1 X76.271 Y94.458 E.07509
G1 X77.473 Y92.641 E.07866
G1 X80.117 Y89.998 E.13498
; printing object OrcaToleranceTest.stl id:0 copy 0
G1 E-3.5 F3600
;WIPE_START
G1 F900
G1 X80.173 Y89.941 E-.12
G1 X80.936 Y89.427 E-1.38
;WIPE_END
EXCLUDE_OBJECT_START NAME=OrcaToleranceTest.stl_id_0_copy_0
G1 Z.6 F9000
G1 X135.879 Y117.385 Z.6
G1 Z.2
G1 E5 F2400
;TYPE:Inner wall
;WIDTH:0.499999
G1 F900
G1 X135.59 Y117.208 E.01225
G1 X135.191 Y117.136 E.01466
G1 X130.894 Y117.136 E.15515
G1 X130.488 Y117.21 E.01488
G1 X130.155 Y117.407 E.01397
G1 X129.904 Y117.707 E.01413
G1 X128.116 Y120.804 E.1291
G1 X126.386 Y117.807 E.12493
G1 X126.111 Y117.487 E.01526
G1 X125.786 Y117.304 E.01346
G1 X125.397 Y117.236 E.01427
G1 X121.215 Y117.236 E.15098
G1 X120.824 Y117.305 E.01432
G1 X120.498 Y117.488 E.01351
G1 X120.225 Y117.807 E.01516
G1 X118.495 Y120.804 E.12493
G1 X116.823 Y117.907 E.12076
G1 X116.524 Y117.569 E.0163
G1 X116.207 Y117.399 E.01298
G1 X115.833 Y117.336 E.0137
G1 X111.767 Y117.336 E.14682
G1 X111.391 Y117.4 E.01378
G1 X111.073 Y117.571 E.01305
G1 X110.777 Y117.907 E.01615
G1 X109.105 Y120.804 E.12076
G1 X107.491 Y118.007 E.11659
G1 X107.169 Y117.652 E.0173
G1 X106.861 Y117.494 E.01252
G1 X106.501 Y117.436 E.01315
G1 X102.55 Y117.436 E.14265
G1 X102.189 Y117.495 E.01323
G1 X101.879 Y117.654 E.01258
G1 X101.561 Y118.007 E.01717
G1 X99.946 Y120.804 E.11659
G1 X98.349 Y118.038 E.1153
G1 X98.029 Y117.694 E.01697
G1 X97.724 Y117.542 E.01231
G1 X97.371 Y117.486 E.01291
G1 X93.478 Y117.486 E.14056
G1 X93.28 Y117.503 E.00716
G1 X92.823 Y117.692 E.01786
G1 X92.595 Y117.902 E.0112
G1 X92.488 Y118.057 E.0068
G1 X90.931 Y120.754 E.11242
G1 X89.336 Y118.005 E.11475
G1 X89.054 Y117.732 E.01416
G1 X88.756 Y117.588 E.01196
G1 X88.414 Y117.536 E.01251
G1 X84.578 Y117.536 E.13848
G1 X84.013 Y117.685 E.0211
G1 X83.589 Y118.107 E.02161
G1 X82.496 Y120 E.07891
G1 X82.496 Y116.382 E.13062
G1 X84.514 Y114.364 E.10304
G1 X135.486 Y114.364 E1.84039
G1 X137.504 Y116.382 E.10304
G1 X137.504 Y116.762 E.01373
G1 X137.504 Y120 E.11689
G1 X136.18 Y117.707 E.09558
G1 X135.965 Y117.438 E.01246
G1 X135.913 Y117.406 E.00217
G1 X135.612 Y117.748 F9000
G1 F900
G1 X135.43 Y117.636 E.00771
G1 X135.191 Y117.593 E.00879
G1 X130.894 Y117.593 E.15515
G1 X130.775 Y117.603 E.00429
G1 X130.45 Y117.755 E.01295
G1 X130.242 Y118.036 E.01261
G1 X128.162 Y121.663 E.15099
;WIDTH:0.474979
G1 X128.139 Y121.804 E.00487
;WIDTH:0.433081
G1 X128.116 Y121.945 E.0044
G1 X128.093 Y121.804 E.0044
;WIDTH:0.474979
G1 X128.07 Y121.663 E.00487
;WIDTH:0.499999
G1 X125.99 Y118.036 E.15099
G1 X125.825 Y117.843 E.00916
G1 X125.63 Y117.734 E.00808
G1 X125.397 Y117.693 E.00856
G1 X121.215 Y117.693 E.15098
G1 X121.096 Y117.703 E.00429
G1 X120.785 Y117.844 E.01235
G1 X120.563 Y118.136 E.01322
G1 X118.541 Y121.663 E.14682
;WIDTH:0.474979
G1 X118.518 Y121.804 E.00487
;WIDTH:0.433081
G1 X118.495 Y121.945 E.0044
G1 X118.472 Y121.804 E.0044
;WIDTH:0.474979
G1 X118.449 Y121.663 E.00487
;WIDTH:0.499999
G1 X116.427 Y118.136 E.14682
G1 X116.248 Y117.933 E.00978
G1 X116.058 Y117.831 E.00779
G1 X115.833 Y117.793 E.00822
G1 X111.767 Y117.793 E.14682
G1 X111.649 Y117.803 E.00429
G1 X111.35 Y117.934 E.01176
G1 X111.116 Y118.236 E.0138
G1 X109.151 Y121.663 E.14265
;WIDTH:0.474979
G1 X109.128 Y121.804 E.00487
;WIDTH:0.433081
G1 X109.105 Y121.945 E.0044
G1 X109.082 Y121.804 E.0044
;WIDTH:0.474979
G1 X109.059 Y121.663 E.00487
;WIDTH:0.499999
G1 X107.095 Y118.236 E.14265
G1 X106.902 Y118.022 E.01038
G1 X106.717 Y117.928 E.00751
G1 X106.501 Y117.893 E.00789
G1 X102.55 Y117.893 E.14265
G1 X102.432 Y117.903 E.00429
G1 X102.147 Y118.024 E.01115
G1 X101.928 Y118.286 E.01235
G1 X99.992 Y121.663 E.14056
;WIDTH:0.474978
G1 X99.969 Y121.804 E.00487
;WIDTH:0.433079
G1 X99.946 Y121.945 E.0044
G1 X99.923 Y121.804 E.0044
;WIDTH:0.474978
G1 X99.9 Y121.663 E.00487
;WIDTH:0.499999
G1 X97.964 Y118.286 E.14056
G1 X97.765 Y118.068 E.01065
G1 X97.583 Y117.976 E.00738
G1 X97.371 Y117.943 E.00775
G1 X93.478 Y117.943 E.14056
G1 X93.359 Y117.953 E.00429
G1 X93.085 Y118.067 E.01071
G1 X92.884 Y118.286 E.01074
G1 X90.937 Y121.657 E.14056
G1 X89.007 Y118.336 E.1387
G1 X88.798 Y118.111 E.01109
G1 X88.619 Y118.024 E.00718
G1 X88.414 Y117.993 E.00751
G1 X84.578 Y117.993 E.13848
G1 X84.239 Y118.083 E.01266
G1 X83.985 Y118.336 E.01297
G1 X82.07 Y121.659 E.13848
;WIDTH:0.492561
G1 X82.039 Y121.83 E.00616
;WIDTH:0.464336
G1 X82.007 Y122 E.00577
G1 X82.021 Y121.825 E.00585
;WIDTH:0.492561
G1 X82.035 Y121.65 E.00624
;WIDTH:0.499999
G1 X82.039 Y116.193 E.19702
G1 X84.325 Y113.907 E.11672
M73 P1 R76
G1 X135.675 Y113.907 E1.85406
G1 X137.961 Y116.193 E.11672
G1 X137.961 Y116.762 E.02056
G1 X137.965 Y121.65 E.17646
;WIDTH:0.49256
G1 X137.979 Y121.825 E.00624
;WIDTH:0.464334
G1 X137.993 Y122 E.00585
G1 X137.961 Y121.83 E.00577
;WIDTH:0.49256
G1 X137.93 Y121.659 E.00616
;WIDTH:0.499999
G1 X135.785 Y117.936 E.15515
M73 P1 R75
G1 X135.655 Y117.774 E.00748
G1 X135.647 Y117.769 E.00036
G1 E-3.5 F3600
;WIPE_START
G1 F900
G1 X135.43 Y117.636 E-.38032
G1 X135.191 Y117.593 E-.36533
G1 X134.688 Y117.593 E-.75435
;WIPE_END
G1 Z.6 F9000
G1 X137.917 Y122.459 Z.6
G1 Z.2
G1 E5 F2400
;WIDTH:0.588069
G1 F900
G1 X137.917 Y123.589 E.04867
G1 X136.373 Y125.133 E.09402
G1 X137.897 Y122.493 E.13124
G1 E-3.5 F3600
;WIPE_START
G1 F900
G1 X137.915 Y123.493 E-1.5
;WIPE_END
G1 Z.6 F9000
G1 X128.116 Y123.196 Z.6
G1 Z.2
G1 E5 F2400
;WIDTH:0.499999
G1 F900
G1 X129.409 Y125.436 E.09337
G1 X126.823 Y125.436 E.09337
G1 X128.096 Y123.231 E.09193
G1 X128.116 Y122.055 F9000
;WIDTH:0.433081
G1 F900
G1 X128.139 Y122.196 E.0044
;WIDTH:0.474979
G1 X128.162 Y122.337 E.00487
;WIDTH:0.499999
G1 X130.201 Y125.893 E.14801
G1 X126.032 Y125.893 E.15054
G1 X128.07 Y122.337 E.14801
;WIDTH:0.474979
G1 X128.093 Y122.196 E.00487
;WIDTH:0.433081
G1 X128.11 Y122.094 E.00316
G1 E-3.5 F3600
;WIPE_START
G1 F900
G1 X128.139 Y122.196 E-.1582
G1 X128.162 Y122.337 E-.21394
G1 X128.536 Y122.989 E-1.12786
;WIPE_END
G1 Z.6 F9000
G1 X118.495 Y123.196 Z.6
G1 Z.2
G1 E5 F2400
;WIDTH:0.499999
G1 F900
G1 X119.788 Y125.436 E.09337
G1 X117.202 Y125.436 E.09337
G1 X118.475 Y123.231 E.09193
G1 X118.495 Y122.055 F9000
;WIDTH:0.433081
G1 F900
G1 X118.518 Y122.196 E.0044
;WIDTH:0.474979
G1 X118.541 Y122.337 E.00487
;WIDTH:0.499999
G1 X120.58 Y125.893 E.14801
G1 X116.386 Y125.893 E.15142
G1 X116.427 Y125.864 E.0018
G1 X118.449 Y122.337 E.14682
;WIDTH:0.474979
G1 X118.472 Y122.196 E.00487
;WIDTH:0.433081
G1 X118.489 Y122.094 E.00316
G1 E-3.5 F3600
;WIPE_START
G1 F900
G1 X118.518 Y122.196 E-.1582
G1 X118.541 Y122.337 E-.21394
G1 X118.915 Y122.989 E-1.12786
;WIPE_END
G1 Z.6 F9000
G1 X107.812 Y125.436 Z.6
G1 Z.2
G1 E5 F2400
;WIDTH:0.499999
G1 F900
G1 X109.105 Y123.196 E.09337
G1 X110.398 Y125.436 E.09337
G1 X107.852 Y125.436 E.09193
G1 E-3.5 F3600
;WIPE_START
G1 F900
G1 X108.34 Y124.563 E-1.5
;WIPE_END
G1 Z.6 F9000
G1 X109.105 Y122.055 Z.6
G1 Z.2
G1 E5 F2400
;WIDTH:0.433081
G1 F900
G1 X109.128 Y122.196 E.0044
;WIDTH:0.474979
G1 X109.151 Y122.337 E.00487
;WIDTH:0.499999
G1 X111.173 Y125.864 E.14682
G1 X111.223 Y125.893 E.00207
G1 X106.911 Y125.893 E.15569
G1 X107.095 Y125.764 E.0081
G1 X109.059 Y122.337 E.14265
;WIDTH:0.474979
G1 X109.082 Y122.196 E.00487
;WIDTH:0.433081
G1 X109.099 Y122.094 E.00316
G1 E-3.5 F3600
;WIPE_START
G1 F900
G1 X109.128 Y122.196 E-.1582
G1 X109.151 Y122.337 E-.21394
G1 X109.525 Y122.989 E-1.12786
;WIPE_END
G1 Z.6 F9000
G1 X99.946 Y123.196 Z.6
G1 Z.2
G1 E5 F2400
;WIDTH:0.499999
G1 F900
G1 X101.239 Y125.436 E.09337
G1 X98.653 Y125.436 E.09337
G1 X99.926 Y123.231 E.09193
G1 X99.946 Y122.055 F9000
;WIDTH:0.433079
G1 F900
G1 X99.969 Y122.196 E.0044
;WIDTH:0.474978
G1 X99.992 Y122.337 E.00487
;WIDTH:0.499999
G1 X101.956 Y125.764 E.14265
G1 X102.179 Y125.893 E.00929
G1 X97.709 Y125.893 E.1614
G1 X97.964 Y125.714 E.01125
G1 X99.9 Y122.337 E.14056
;WIDTH:0.474978
G1 X99.923 Y122.196 E.00487
;WIDTH:0.433079
G1 X99.94 Y122.094 E.00316
G1 E-3.5 F3600
;WIPE_START
G1 F900
G1 X99.969 Y122.196 E-.1582
G1 X99.992 Y122.337 E-.21394
G1 X100.366 Y122.989 E-1.12786
;WIPE_END
G1 Z.6 F9000
G1 X89.667 Y125.436 Z.6
G1 Z.2
G1 E5 F2400
;WIDTH:0.499999
G1 F900
G1 X90.931 Y123.246 E.09129
G1 X92.195 Y125.436 E.09129
G1 X89.707 Y125.436 E.08984
G1 X88.523 Y125.945 F9000
;WIDTH:0.430244
G1 F900
G1 X88.684 Y125.852 E.00571
;WIDTH:0.465122
G1 X88.846 Y125.758 E.00622
;WIDTH:0.499999
G1 X89.007 Y125.664 E.00674
G1 X90.937 Y122.343 E.1387
G1 X92.884 Y125.714 E.14056
G1 X93.193 Y125.893 E.0129
G1 X89.139 Y125.893 E.14637
G1 X88.934 Y125.91 E.00744
;WIDTH:0.465122
G1 X88.728 Y125.928 E.00688
;WIDTH:0.430244
G1 X88.563 Y125.942 E.00508
G1 E-3.5 F3600
;WIPE_START
G1 F900
G1 X88.684 Y125.852 E-.22716
G1 X88.846 Y125.758 E-.27997
G1 X89.007 Y125.664 E-.27997
G1 X89.246 Y125.253 E-.71291
;WIPE_END
G1 Z.6 F9000
G1 X97.569 Y118.514 Z.6
G1 Z.2
G1 E5 F2400
;TYPE:Outer wall
;WIDTH:0.499999
G1 F900
G1 X99.515 Y121.886 E.14056
G1 X99.545 Y122.02 E.00496
G1 X99.515 Y122.114 E.00357
G1 X97.569 Y125.486 E.14056
;WIDTH:0.537758
G1 X97.532 Y125.532 E.0023
;WIDTH:0.575516
G1 X97.496 Y125.578 E.00248
;WIDTH:0.613275
G1 X97.46 Y125.625 E.00265
;WIDTH:0.651033
G1 X97.423 Y125.671 E.00283
G1 X97.371 Y125.673 E.00253
;WIDTH:0.64646
G1 X93.478 Y125.673 E.1856
G1 X93.412 Y125.611 E.00433
;WIDTH:0.59764
G1 X93.346 Y125.548 E.00398
;WIDTH:0.54882
G1 X93.28 Y125.486 E.00363
;WIDTH:0.499999
G1 X91.333 Y122.114 E.14056
;WIDTH:0.54762
G1 X91.299 Y122.076 E.00204
;WIDTH:0.59524
G1 X91.265 Y122.038 E.00223
;WIDTH:0.64286
G1 X91.231 Y122 E.00242
G1 X91.265 Y121.962 E.00242
;WIDTH:0.59524
G1 X91.299 Y121.924 E.00223
;WIDTH:0.54762
G1 X91.333 Y121.886 E.00204
;WIDTH:0.499999
G1 X93.28 Y118.514 E.14056
G1 X93.407 Y118.411 E.00593
G1 X97.371 Y118.4 E.1431
G1 X97.502 Y118.442 E.00498
G1 X97.542 Y118.485 E.00211
G1 E-3.5 F3600
;WIPE_START
G1 F900
G1 X98.043 Y119.35 E-1.5
;WIPE_END
G1 Z.6 F9000
G1 X82.083 Y122.459 Z.6
G1 Z.2
G1 E5 F2400
;TYPE:Inner wall
;WIDTH:0.58807
G1 F900
G1 X82.592 Y123.34 E.04381
G1 X82.948 Y123.916 E.02919
;WIDTH:0.545994
G1 X83.305 Y124.492 E.02693
;WIDTH:0.503917
G1 X83.662 Y125.068 E.02468
;WIDTH:0.461841
G1 X84.019 Y125.644 E.02243
G1 X83.555 Y125.15 E.02243
;WIDTH:0.503917
G1 X83.091 Y124.656 E.02468
;WIDTH:0.545994
G1 X82.627 Y124.163 E.02693
;WIDTH:0.58807
G1 X82.083 Y123.589 E.03405
G1 X82.083 Y122.499 E.04695
G1 X82.463 Y121.886 F9000
;TYPE:Outer wall
;WIDTH:0.499999
G1 F900
G1 X84.38 Y118.564 E.13848
G1 X84.465 Y118.48 E.00432
G1 X84.578 Y118.45 E.00422
G1 X88.414 Y118.45 E.13848
G1 X88.587 Y118.53 E.0069
G1 X90.529 Y121.886 E.13999
;WIDTH:0.54762
G1 X90.563 Y121.924 E.00204
;WIDTH:0.59524
G1 X90.597 Y121.962 E.00223
;WIDTH:0.64286
G1 X90.631 Y122 E.00242
G1 X90.597 Y122.038 E.00242
;WIDTH:0.59524
G1 X90.563 Y122.076 E.00223
;WIDTH:0.54762
G1 X90.529 Y122.114 E.00204
;WIDTH:0.499999
G1 X88.611 Y125.436 E.13848
G1 X88.414 Y125.55 E.00825
G1 X84.578 Y125.55 E.13848
G1 X84.417 Y125.483 E.00632
G1 X84.38 Y125.436 E.00215
G1 X82.463 Y122.114 E.13848
G1 X82.432 Y122 E.00427
G1 X82.452 Y121.924 E.00283
G1 X82.012 Y122.114 F9000
;TYPE:Inner wall
;WIDTH:0.446016
G1 F900
G1 X82.007 Y122 E.00363
G1 E-3.5 F3600
;WIPE_START
G1 F900
G1 X82.012 Y122.114 E-1.5
;WIPE_END
G1 Z.6 F9000
G1 X106.501 Y118.35 Z.6
G1 Z.2
G1 E5 F2400
;TYPE:Outer wall
;WIDTH:0.499999
G1 F900
G1 X106.635 Y118.393 E.00507
G1 X106.699 Y118.464 E.00346
G1 X108.674 Y121.886 E.14265
G1 X108.704 Y122.02 E.00496
G1 X108.674 Y122.114 E.00357
G1 X106.699 Y125.536 E.14265
;WIDTH:0.541948
G1 X106.65 Y125.593 E.00299
;WIDTH:0.583896
G1 X106.6 Y125.651 E.00324
;WIDTH:0.625844
G1 X106.551 Y125.709 E.00349
G1 X106.501 Y125.711 E.00232
;WIDTH:0.62146
G1 X102.55 Y125.711 E.18055
G1 X102.484 Y125.652 E.00402
;WIDTH:0.580973
G1 X102.418 Y125.594 E.00374
;WIDTH:0.540486
G1 X102.352 Y125.536 E.00346
;WIDTH:0.499999
G1 X100.377 Y122.114 E.14265
G1 X100.347 Y121.98 E.00496
G1 X100.377 Y121.886 E.00357
G1 X102.352 Y118.464 E.14265
G1 X102.478 Y118.362 E.00585
G1 X106.461 Y118.35 E.14381
G1 E-3.5 F3600
;WIPE_START
G1 F900
G1 X106.635 Y118.393 E-.26839
G1 X106.699 Y118.464 E-.14375
G1 X107.061 Y119.092 E-1.08786
;WIPE_END
G1 Z.6 F9000
G1 X99.946 Y121.945 Z.6
G1 Z.2
G1 E5 F2400
;TYPE:Inner wall
;WIDTH:0.39118
G1 F900
G1 X99.946 Y122.055 E.00303
G1 E-3.5 F3600
;WIPE_START
G1 F900
G1 X99.946 Y121.945 E-1.5
;WIPE_END
G1 Z.6 F9000
G1 X115.833 Y118.25 Z.6
G1 Z.2
G1 E5 F2400
;TYPE:Outer wall
;WIDTH:0.499999
G1 F900
G1 X115.972 Y118.297 E.00527
G1 X116.031 Y118.364 E.00326
G1 X118.064 Y121.886 E.14682
G1 X118.094 Y122.02 E.00496
G1 X118.064 Y122.114 E.00357
G1 X116.031 Y125.636 E.14682
;WIDTH:0.537732
G1 X115.955 Y125.71 E.00414
;WIDTH:0.575465
G1 X115.879 Y125.784 E.00446
G1 X115.833 Y125.786 E.00194
;WIDTH:0.57146
G1 X111.767 Y125.786 E.16977
G1 X111.668 Y125.711 E.00518
;WIDTH:0.53573
G1 X111.569 Y125.636 E.00483
;WIDTH:0.499999
G1 X109.536 Y122.114 E.14682
G1 X109.506 Y121.98 E.00496
G1 X109.536 Y121.886 E.00357
G1 X111.569 Y118.364 E.14682
G1 X111.692 Y118.263 E.00575
G1 X111.767 Y118.25 E.00276
G1 X115.793 Y118.25 E.14537
G1 E-3.5 F3600
;WIPE_START
G1 F900
G1 X115.972 Y118.297 E-.27633
G1 X116.031 Y118.364 E-.1354
G1 X116.394 Y118.993 E-1.08827
;WIPE_END
G1 Z.6 F9000
