; HEADER_BLOCK_START
; generated by OrcaSlicer 1.7.0 on 2023-10-28 at 17:19:28
; total layer number: 32
; HEADER_BLOCK_END

; THUMBNAIL_BLOCK_START
; THUMBNAIL_BLOCK_END

; external perimeters extrusion width = 0.40mm
; perimeters extrusion width = 0.45mm
; infill extrusion width = 0.45mm
; solid infill extrusion width = 0.40mm
; top infill extrusion width = 0.40mm
; first layer extrusion width = 0.50mm

; EXECUTABLE_BLOCK_START
EXCLUDE_OBJECT_DEFINE NAME=OrcaToleranceTest.stl_id_0_copy_0 CENTER=110,110 POLYGON=[[81.0318,106.2],[84.0318,103.2],[85.3361,102.8],[134.083,102.8],[135.968,103.2],[138.968,106.2],[138.968,114.2],[135.968,117.2],[84.0318,117.2],[81.0318,114.2],[81.0318,106.2]]
M73 P0 R38
;TYPE:Custom
START_PRINT EXTRUDER_TEMP=255  BED_TEMP=80
G90
G21
M83 ; use relative distances for extrusion
; filament start gcode
M106 S0
;LAYER_CHANGE
;Z:0.2
;HEIGHT:0.2
;BEFORE_LAYER_CHANGE
;0.2
G92 E0

G1 E-5 F3600
;_SET_FAN_SPEED_CHANGING_LAYER
SET_VELOCITY_LIMIT ACCEL=500 ACCEL_TO_DECEL=250
G1 Z.4 F9000
G1 X79.85 Y99.318
G1 Z.4
G1 Z.2
G1 E5 F2400
;TYPE:Skirt
;WIDTH:0.5
G1 F900
G1 X81.636 Y98.093 E.0782
G1 X84.032 Y97.586 E.08842
G1 X135.968 Y97.586 E1.87521
G1 X138.098 Y97.982 E.0782
G1 X140.15 Y99.318 E.08842
G1 X142.85 Y102.018 E.13787
G1 X144.075 Y103.804 E.0782
G1 X144.582 Y106.2 E.08842
G1 X144.582 Y114.2 E.28885
G1 X144.186 Y116.329 E.0782
G1 X142.85 Y118.382 E.08842
G1 X140.15 Y121.082 E.13787
G1 X138.364 Y122.307 E.0782
G1 X135.968 Y122.814 E.08842
G1 X84.032 Y122.814 E1.87521
G1 X81.902 Y122.418 E.0782
G1 X79.85 Y121.082 E.08842
G1 X77.15 Y118.382 E.13787
G1 X75.925 Y116.596 E.0782
G1 X75.418 Y114.2 E.08842
G1 X75.418 Y106.2 E.28885
G1 X75.814 Y104.071 E.0782
G1 X77.15 Y102.018 E.08842
G1 X79.822 Y99.346 E.13642
G1 X80.145 Y99.67 F9000
G1 F900
G1 X80.173 Y99.641 E.00144
G1 X81.897 Y98.478 E.07509
G1 X84.032 Y98.043 E.07866
G1 X135.968 Y98.043 E1.87521
G1 X138.01 Y98.439 E.07509
G1 X139.827 Y99.641 E.07866
G1 X142.527 Y102.341 E.13787
G1 X143.69 Y104.065 E.07509
G1 X144.125 Y106.2 E.07866
G1 X144.125 Y114.2 E.28885
G1 X143.729 Y116.242 E.07509
G1 X142.527 Y118.059 E.07866
G1 X139.827 Y120.759 E.13787
G1 X138.103 Y121.922 E.07509
G1 X135.968 Y122.357 E.07866
G1 X84.032 Y122.357 E1.87521
G1 X81.99 Y121.961 E.07509
G1 X80.173 Y120.759 E.07866
G1 X77.473 Y118.059 E.13787
G1 X76.31 Y116.335 E.07509
M73 P1 R38
G1 X75.875 Y114.2 E.07866
G1 X75.875 Y106.2 E.28885
G1 X76.271 Y104.158 E.07509
G1 X77.473 Y102.341 E.07866
G1 X80.117 Y99.698 E.13498
; printing object OrcaToleranceTest.stl id:0 copy 0
G1 E-3.5 F3600
;WIPE_START
G1 F900
G1 X80.173 Y99.641 E-.12
G1 X80.936 Y99.127 E-1.38
;WIPE_END
EXCLUDE_OBJECT_START NAME=OrcaToleranceTest.stl_id_0_copy_0
G1 Z.6 F9000
G1 X135.879 Y107.685 Z.6
G1 Z.2
G1 E5 F2400
;TYPE:Inner wall
;WIDTH:0.499999
G1 F900
G1 X135.59 Y107.508 E.01225
G1 X135.191 Y107.436 E.01466
G1 X130.894 Y107.436 E.15515
G1 X130.488 Y107.51 E.01488
G1 X130.155 Y107.707 E.01397
G1 X129.904 Y108.007 E.01413
G1 X128.116 Y111.104 E.1291
G1 X126.386 Y108.107 E.12493
G1 X126.111 Y107.787 E.01526
G1 X125.786 Y107.604 E.01346
G1 X125.397 Y107.536 E.01427
G1 X121.215 Y107.536 E.15098
G1 X120.824 Y107.605 E.01432
G1 X120.498 Y107.788 E.01351
G1 X120.225 Y108.107 E.01516
G1 X118.495 Y111.104 E.12493
G1 X116.823 Y108.207 E.12076
G1 X116.524 Y107.869 E.0163
G1 X116.207 Y107.699 E.01298
G1 X115.833 Y107.636 E.0137
G1 X111.767 Y107.636 E.14682
G1 X111.391 Y107.7 E.01378
G1 X111.073 Y107.871 E.01305
G1 X110.777 Y108.207 E.01615
G1 X109.105 Y111.104 E.12076
G1 X107.491 Y108.307 E.11659
G1 X107.169 Y107.952 E.0173
G1 X106.861 Y107.794 E.01252
G1 X106.501 Y107.736 E.01315
G1 X102.55 Y107.736 E.14265
G1 X102.189 Y107.795 E.01323
G1 X101.879 Y107.954 E.01258
G1 X101.561 Y108.307 E.01717
G1 X99.946 Y111.104 E.11659
G1 X98.349 Y108.338 E.1153
G1 X98.029 Y107.994 E.01697
G1 X97.724 Y107.842 E.01231
G1 X97.371 Y107.786 E.01291
G1 X93.478 Y107.786 E.14056
G1 X93.28 Y107.803 E.00716
G1 X92.823 Y107.992 E.01786
G1 X92.595 Y108.202 E.0112
G1 X92.488 Y108.357 E.0068
G1 X90.931 Y111.054 E.11242
G1 X89.336 Y108.305 E.11475
G1 X89.054 Y108.032 E.01416
G1 X88.756 Y107.888 E.01196
G1 X88.414 Y107.836 E.01251
G1 X84.578 Y107.836 E.13848
G1 X84.013 Y107.985 E.0211
G1 X83.589 Y108.407 E.02161
G1 X82.496 Y110.3 E.07891
G1 X82.496 Y106.682 E.13062
G1 X84.514 Y104.664 E.10304
G1 X135.486 Y104.664 E1.84039
M73 P1 R37
G1 X137.504 Y106.682 E.10304
G1 X137.504 Y107.062 E.01373
G1 X137.504 Y110.3 E.11689
G1 X136.18 Y108.007 E.09558
G1 X135.965 Y107.738 E.01246
G1 X135.913 Y107.706 E.00217
G1 X135.612 Y108.048 F9000
G1 F900
G1 X135.43 Y107.936 E.00771
G1 X135.191 Y107.893 E.00879
G1 X130.894 Y107.893 E.15515
G1 X130.775 Y107.903 E.00429
G1 X130.45 Y108.055 E.01295
G1 X130.242 Y108.336 E.01261
G1 X128.162 Y111.963 E.15099
;WIDTH:0.474979
G1 X128.139 Y112.104 E.00487
;WIDTH:0.433081
G1 X128.116 Y112.245 E.0044
G1 X128.093 Y112.104 E.0044
;WIDTH:0.474979
G1 X128.07 Y111.963 E.00487
;WIDTH:0.499999
G1 X125.99 Y108.336 E.15099
G1 X125.825 Y108.143 E.00916
G1 X125.63 Y108.034 E.00808
G1 X125.397 Y107.993 E.00856
G1 X121.215 Y107.993 E.15098
G1 X121.096 Y108.003 E.00429
G1 X120.785 Y108.144 E.01235
G1 X120.563 Y108.436 E.01322
G1 X118.541 Y111.963 E.14682
;WIDTH:0.474979
G1 X118.518 Y112.104 E.00487
;WIDTH:0.433081
G1 X118.495 Y112.245 E.0044
G1 X118.472 Y112.104 E.0044
;WIDTH:0.474979
G1 X118.449 Y111.963 E.00487
;WIDTH:0.499999
G1 X116.427 Y108.436 E.14682
G1 X116.248 Y108.233 E.00978
G1 X116.058 Y108.131 E.00779
G1 X115.833 Y108.093 E.00822
G1 X111.767 Y108.093 E.14682
G1 X111.649 Y108.103 E.00429
G1 X111.35 Y108.234 E.01176
G1 X111.116 Y108.536 E.0138
G1 X109.151 Y111.963 E.14265
;WIDTH:0.474979
G1 X109.128 Y112.104 E.00487
;WIDTH:0.433081
G1 X109.105 Y112.245 E.0044
G1 X109.082 Y112.104 E.0044
;WIDTH:0.474979
G1 X109.059 Y111.963 E.00487
;WIDTH:0.499999
G1 X107.095 Y108.536 E.14265
G1 X106.902 Y108.322 E.01038
G1 X106.717 Y108.228 E.00751
G1 X106.501 Y108.193 E.00789
G1 X102.55 Y108.193 E.14265
G1 X102.432 Y108.203 E.00429
G1 X102.147 Y108.324 E.01115
G1 X101.928 Y108.586 E.01235
G1 X99.992 Y111.963 E.14056
;WIDTH:0.474978
G1 X99.969 Y112.104 E.00487
;WIDTH:0.433079
G1 X99.946 Y112.245 E.0044
G1 X99.923 Y112.104 E.0044
;WIDTH:0.474978
G1 X99.9 Y111.963 E.00487
;WIDTH:0.499999
G1 X97.964 Y108.586 E.14056
G1 X97.765 Y108.368 E.01065
G1 X97.583 Y108.276 E.00738
G1 X97.371 Y108.243 E.00775
G1 X93.478 Y108.243 E.14056
G1 X93.359 Y108.253 E.00429
G1 X93.085 Y108.367 E.01071
G1 X92.884 Y108.586 E.01074
G1 X90.937 Y111.957 E.14056
G1 X89.007 Y108.636 E.1387
G1 X88.798 Y108.411 E.01109
G1 X88.619 Y108.324 E.00718
G1 X88.414 Y108.293 E.00751
G1 X84.578 Y108.293 E.13848
G1 X84.239 Y108.383 E.01266
G1 X83.985 Y108.636 E.01297
G1 X82.07 Y111.959 E.13848
;WIDTH:0.492561
G1 X82.039 Y112.13 E.00616
;WIDTH:0.464336
G1 X82.007 Y112.3 E.00577
G1 X82.021 Y112.125 E.00585
;WIDTH:0.492561
G1 X82.035 Y111.95 E.00624
;WIDTH:0.499999
G1 X82.039 Y106.493 E.19702
G1 X84.325 Y104.207 E.11672
G1 X135.675 Y104.207 E1.85406
G1 X137.961 Y106.493 E.11672
G1 X137.961 Y107.062 E.02056
G1 X137.965 Y111.95 E.17646
;WIDTH:0.49256
G1 X137.979 Y112.125 E.00624
;WIDTH:0.464334
G1 X137.993 Y112.3 E.00585
G1 X137.961 Y112.13 E.00577
;WIDTH:0.49256
G1 X137.93 Y111.959 E.00616
;WIDTH:0.499999
G1 X135.785 Y108.236 E.15515
G1 X135.655 Y108.074 E.00748
G1 X135.647 Y108.069 E.00036
G1 E-3.5 F3600
;WIPE_START
G1 F900
G1 X135.43 Y107.936 E-.38032
G1 X135.191 Y107.893 E-.36533
G1 X134.688 Y107.893 E-.75435
;WIPE_END
G1 Z.6 F9000
G1 X137.917 Y112.759 Z.6
G1 Z.2
G1 E5 F2400
;WIDTH:0.588069
G1 F900
G1 X137.917 Y113.889 E.04867
G1 X136.373 Y115.433 E.09402
M73 P2 R37
G1 X137.897 Y112.793 E.13124
G1 E-3.5 F3600
;WIPE_START
G1 F900
G1 X137.915 Y113.793 E-1.5
;WIPE_END
G1 Z.6 F9000
G1 X128.116 Y113.496 Z.6
G1 Z.2
G1 E5 F2400
;WIDTH:0.499999
G1 F900
G1 X129.409 Y115.736 E.09337
G1 X126.823 Y115.736 E.09337
G1 X128.096 Y113.531 E.09193
G1 X128.116 Y112.355 F9000
;WIDTH:0.433081
G1 F900
G1 X128.139 Y112.496 E.0044
;WIDTH:0.474979
G1 X128.162 Y112.637 E.00487
;WIDTH:0.499999
G1 X130.201 Y116.193 E.14801
G1 X126.032 Y116.193 E.15054
G1 X128.07 Y112.637 E.14801
;WIDTH:0.474979
G1 X128.093 Y112.496 E.00487
;WIDTH:0.433081
G1 X128.11 Y112.394 E.00316
G1 E-3.5 F3600
;WIPE_START
G1 F900
G1 X128.139 Y112.496 E-.1582
G1 X128.162 Y112.637 E-.21394
G1 X128.536 Y113.289 E-1.12786
;WIPE_END
G1 Z.6 F9000
G1 X118.495 Y113.496 Z.6
G1 Z.2
G1 E5 F2400
;WIDTH:0.499999
G1 F900
G1 X119.788 Y115.736 E.09337
G1 X117.202 Y115.736 E.09337
G1 X118.475 Y113.531 E.09193
G1 X118.495 Y112.355 F9000
;WIDTH:0.433081
G1 F900
G1 X118.518 Y112.496 E.0044
;WIDTH:0.474979
G1 X118.541 Y112.637 E.00487
;WIDTH:0.499999
G1 X120.58 Y116.193 E.14801
G1 X116.386 Y116.193 E.15142
G1 X116.427 Y116.164 E.0018
G1 X118.449 Y112.637 E.14682
;WIDTH:0.474979
G1 X118.472 Y112.496 E.00487
;WIDTH:0.433081
G1 X118.489 Y112.394 E.00316
G1 E-3.5 F3600
;WIPE_START
G1 F900
G1 X118.518 Y112.496 E-.1582
G1 X118.541 Y112.637 E-.21394
G1 X118.915 Y113.289 E-1.12786
;WIPE_END
G1 Z.6 F9000
G1 X107.812 Y115.736 Z.6
G1 Z.2
G1 E5 F2400
;WIDTH:0.499999
G1 F900
G1 X109.105 Y113.496 E.09337
G1 X110.398 Y115.736 E.09337
G1 X107.852 Y115.736 E.09193
G1 E-3.5 F3600
;WIPE_START
G1 F900
G1 X108.34 Y114.863 E-1.5
;WIPE_END
G1 Z.6 F9000
G1 X109.105 Y112.355 Z.6
G1 Z.2
G1 E5 F2400
;WIDTH:0.433081
G1 F900
G1 X109.128 Y112.496 E.0044
;WIDTH:0.474979
G1 X109.151 Y112.637 E.00487
;WIDTH:0.499999
G1 X111.173 Y116.164 E.14682
G1 X111.223 Y116.193 E.00207
G1 X106.911 Y116.193 E.15569
G1 X107.095 Y116.064 E.0081
G1 X109.059 Y112.637 E.14265
;WIDTH:0.474979
G1 X109.082 Y112.496 E.00487
;WIDTH:0.433081
G1 X109.099 Y112.394 E.00316
G1 E-3.5 F3600
;WIPE_START
G1 F900
G1 X109.128 Y112.496 E-.1582
G1 X109.151 Y112.637 E-.21394
G1 X109.525 Y113.289 E-1.12786
;WIPE_END
G1 Z.6 F9000
G1 X99.946 Y113.496 Z.6
G1 Z.2
G1 E5 F2400
;WIDTH:0.499999
G1 F900
G1 X101.239 Y115.736 E.09337
G1 X98.653 Y115.736 E.09337
G1 X99.926 Y113.531 E.09193
G1 X99.946 Y112.355 F9000
;WIDTH:0.433079
G1 F900
G1 X99.969 Y112.496 E.0044
;WIDTH:0.474978
G1 X99.992 Y112.637 E.00487
;WIDTH:0.499999
G1 X101.956 Y116.064 E.14265
G1 X102.179 Y116.193 E.00929
G1 X97.709 Y116.193 E.1614
G1 X97.964 Y116.014 E.01125
G1 X99.9 Y112.637 E.14056
;WIDTH:0.474978
G1 X99.923 Y112.496 E.00487
;WIDTH:0.433079
G1 X99.94 Y112.394 E.00316
G1 E-3.5 F3600
;WIPE_START
G1 F900
G1 X99.969 Y112.496 E-.1582
G1 X99.992 Y112.637 E-.21394
G1 X100.366 Y113.289 E-1.12786
;WIPE_END
G1 Z.6 F9000
G1 X89.667 Y115.736 Z.6
G1 Z.2
G1 E5 F2400
;WIDTH:0.499999
G1 F900
G1 X90.931 Y113.546 E.09129
G1 X92.195 Y115.736 E.09129
G1 X89.707 Y115.736 E.08984
G1 X88.523 Y116.245 F9000
;WIDTH:0.430244
G1 F900
G1 X88.684 Y116.152 E.00571
;WIDTH:0.465122
G1 X88.846 Y116.058 E.00622
;WIDTH:0.499999
G1 X89.007 Y115.964 E.00674
G1 X90.937 Y112.643 E.1387
G1 X92.884 Y116.014 E.14056
G1 X93.193 Y116.193 E.0129
G1 X89.139 Y116.193 E.14637
G1 X88.934 Y116.21 E.00744
;WIDTH:0.465122
G1 X88.728 Y116.228 E.00688
;WIDTH:0.430244
G1 X88.563 Y116.242 E.00508
G1 E-3.5 F3600
;WIPE_START
G1 F900
G1 X88.684 Y116.152 E-.22716
G1 X88.846 Y116.058 E-.27997
G1 X89.007 Y115.964 E-.27997
G1 X89.246 Y115.553 E-.71291
;WIPE_END
G1 Z.6 F9000
G1 X97.569 Y108.814 Z.6
G1 Z.2
G1 E5 F2400
;TYPE:Outer wall
;WIDTH:0.499999
G1 F900
G1 X99.515 Y112.186 E.14056
G1 X99.545 Y112.32 E.00496
G1 X99.515 Y112.414 E.00357
G1 X97.569 Y115.786 E.14056
;WIDTH:0.537758
G1 X97.532 Y115.832 E.0023
;WIDTH:0.575516
G1 X97.496 Y115.878 E.00248
;WIDTH:0.613275
G1 X97.46 Y115.925 E.00265
;WIDTH:0.651033
G1 X97.423 Y115.971 E.00283
G1 X97.371 Y115.973 E.00253
;WIDTH:0.64646
G1 X93.478 Y115.973 E.1856
G1 X93.412 Y115.911 E.00433
;WIDTH:0.59764
G1 X93.346 Y115.848 E.00398
;WIDTH:0.54882
G1 X93.28 Y115.786 E.00363
;WIDTH:0.499999
G1 X91.333 Y112.414 E.14056
;WIDTH:0.54762
G1 X91.299 Y112.376 E.00204
;WIDTH:0.59524
G1 X91.265 Y112.338 E.00223
;WIDTH:0.64286
G1 X91.231 Y112.3 E.00242
G1 X91.265 Y112.262 E.00242
;WIDTH:0.59524
G1 X91.299 Y112.224 E.00223
;WIDTH:0.54762
G1 X91.333 Y112.186 E.00204
;WIDTH:0.499999
G1 X93.28 Y108.814 E.14056
G1 X93.407 Y108.711 E.00593
G1 X97.371 Y108.7 E.1431
G1 X97.502 Y108.742 E.00498
G1 X97.542 Y108.785 E.00211
G1 E-3.5 F3600
;WIPE_START
G1 F900
G1 X98.043 Y109.65 E-1.5
;WIPE_END
G1 Z.6 F9000
G1 X82.083 Y112.759 Z.6
G1 Z.2
G1 E5 F2400
;TYPE:Inner wall
;WIDTH:0.58807
G1 F900
G1 X82.592 Y113.64 E.04381
G1 X82.948 Y114.216 E.02919
;WIDTH:0.545994
G1 X83.305 Y114.792 E.02693
;WIDTH:0.503917
G1 X83.662 Y115.368 E.02468
;WIDTH:0.461841
G1 X84.019 Y115.944 E.02243
G1 X83.555 Y115.45 E.02243
;WIDTH:0.503917
G1 X83.091 Y114.956 E.02468
;WIDTH:0.545994
G1 X82.627 Y114.463 E.02693
;WIDTH:0.58807
G1 X82.083 Y113.889 E.03405
G1 X82.083 Y112.799 E.04695
G1 X82.463 Y112.186 F9000
;TYPE:Outer wall
;WIDTH:0.499999
G1 F900
G1 X84.38 Y108.864 E.13848
G1 X84.465 Y108.78 E.00432
G1 X84.578 Y108.75 E.00422
G1 X88.414 Y108.75 E.13848
G1 X88.587 Y108.83 E.0069
G1 X90.529 Y112.186 E.13999
;WIDTH:0.54762
G1 X90.563 Y112.224 E.00204
;WIDTH:0.59524
G1 X90.597 Y112.262 E.00223
;WIDTH:0.64286
G1 X90.631 Y112.3 E.00242
G1 X90.597 Y112.338 E.00242
;WIDTH:0.59524
G1 X90.563 Y112.376 E.00223
;WIDTH:0.54762
G1 X90.529 Y112.414 E.00204
;WIDTH:0.499999
G1 X88.611 Y115.736 E.13848
G1 X88.414 Y115.85 E.00825
G1 X84.578 Y115.85 E.13848
G1 X84.417 Y115.783 E.00632
G1 X84.38 Y115.736 E.00215
G1 X82.463 Y112.414 E.13848
G1 X82.432 Y112.3 E.00427
G1 X82.452 Y112.224 E.00283
G1 X82.012 Y112.414 F9000
;TYPE:Inner wall
;WIDTH:0.446016
G1 F900
G1 X82.007 Y112.3 E.00363
G1 E-3.5 F3600
;WIPE_START
G1 F900
G1 X82.012 Y112.414 E-1.5
;WIPE_END
G1 Z.6 F9000
G1 X106.501 Y108.65 Z.6
G1 Z.2
G1 E5 F2400
;TYPE:Outer wall
;WIDTH:0.499999
G1 F900
G1 X106.635 Y108.693 E.00507
G1 X106.699 Y108.764 E.00346
G1 X108.674 Y112.186 E.14265
G1 X108.704 Y112.32 E.00496
G1 X108.674 Y112.414 E.00357
G1 X106.699 Y115.836 E.14265
;WIDTH:0.541948
G1 X106.65 Y115.893 E.00299
;WIDTH:0.583896
G1 X106.6 Y115.951 E.00324
;WIDTH:0.625844
G1 X106.551 Y116.009 E.00349
G1 X106.501 Y116.011 E.00232
;WIDTH:0.62146
G1 X102.55 Y116.011 E.18055
G1 X102.484 Y115.952 E.00402
;WIDTH:0.580973
G1 X102.418 Y115.894 E.00374
;WIDTH:0.540486
G1 X102.352 Y115.836 E.00346
;WIDTH:0.499999
G1 X100.377 Y112.414 E.14265
G1 X100.347 Y112.28 E.00496
G1 X100.377 Y112.186 E.00357
G1 X102.352 Y108.764 E.14265
G1 X102.478 Y108.662 E.00585
G1 X106.461 Y108.65 E.14381
G1 E-3.5 F3600
;WIPE_START
G1 F900
G1 X106.635 Y108.693 E-.26839
G1 X106.699 Y108.764 E-.14375
G1 X107.061 Y109.392 E-1.08786
;WIPE_END
G1 Z.6 F9000
G1 X99.946 Y112.245 Z.6
G1 Z.2
G1 E5 F2400
;TYPE:Inner wall
;WIDTH:0.39118
G1 F900
G1 X99.946 Y112.355 E.00303
G1 E-3.5 F3600
;WIPE_START
G1 F900
G1 X99.946 Y112.245 E-1.5
;WIPE_END
G1 Z.6 F9000
G1 X115.833 Y108.55 Z.6
G1 Z.2
G1 E5 F2400
;TYPE:Outer wall
;WIDTH:0.499999
G1 F900
G1 X115.972 Y108.597 E.00527
G1 X116.031 Y108.664 E.00326
G1 X118.064 Y112.186 E.14682
G1 X118.094 Y112.32 E.00496
G1 X118.064 Y112.414 E.00357
G1 X116.031 Y115.936 E.14682
;WIDTH:0.537732
G1 X115.955 Y116.01 E.00414
;WIDTH:0.575465
G1 X115.879 Y116.084 E.00446
G1 X115.833 Y116.086 E.00194
;WIDTH:0.57146
G1 X111.767 Y116.086 E.16977
G1 X111.668 Y116.011 E.00518
;WIDTH:0.53573
G1 X111.569 Y115.936 E.00483
;WIDTH:0.499999
G1 X109.536 Y112.414 E.14682
M73 P3 R37
G1 X109.506 Y112.28 E.00496
G1 X109.536 Y112.186 E.00357
G1 X111.569 Y108.664 E.14682
G1 X111.692 Y108.563 E.00575
G1 X111.767 Y108.55 E.00276
G1 X115.793 Y108.55 E.14537
G1 E-3.5 F3600
;WIPE_START
G1 F900
G1 X115.972 Y108.597 E-.27633
G1 X116.031 Y108.664 E-.1354
G1 X116.394 Y109.293 E-1.08827
;WIPE_END
G1 Z.6 F9000
G1 X109.105 Y112.355 Z.6
G1 Z.2
G1 E5 F2400
;TYPE:Inner wall
;WIDTH:0.391182
G1 F900
G1 X109.105 Y112.245 E.00303
G1 E-3.5 F3600
;WIPE_START
G1 F900
G1 X109.105 Y112.355 E-1.5
;WIPE_END
G1 Z.6 F9000
G1 X125.397 Y108.45 Z.6
G1 Z.2
G1 E5 F2400
;TYPE:Outer wall
;WIDTH:0.499999
G1 F900
G1 X125.539 Y108.5 E.00547
G1 X125.594 Y108.564 E.00305
G1 X127.685 Y112.186 E.15098
G1 X127.715 Y112.32 E.00496
G1 X127.685 Y112.414 E.00357
G1 X125.594 Y116.036 E.15098
