; HEADER_BLOCK_START
; generated by OrcaSlicer 1.7.0 on 2023-11-07 at 08:55:13
; total layer number: 115
; HEADER_BLOCK_END

; THUMBNAIL_BLOCK_START
; THUMBNAIL_BLOCK_END

; external perimeters extrusion width = 0.40mm
; perimeters extrusion width = 0.45mm
; infill extrusion width = 0.45mm
; solid infill extrusion width = 0.40mm
; top infill extrusion width = 0.40mm
; first layer extrusion width = 0.50mm

; EXECUTABLE_BLOCK_START
EXCLUDE_OBJECT_DEFINE NAME=Part_Studio_1_-_Part_1.stl_id_0_copy_0 CENTER=110,110 POLYGON=[[88.75,88.75],[131.25,88.75],[131.25,131.25],[88.75,131.25],[88.75,88.75]]
M73 P0 R37
;TYPE:Custom
START_PRINT EXTRUDER_TEMP=245  BED_TEMP=80
G90
G21
M83 ; use relative distances for extrusion
; filament start gcode
M106 S0
;LAYER_CHANGE
;Z:0.2
;HEIGHT:0.2
;BEFORE_LAYER_CHANGE
;0.2
G92 E0

G1 E-6 F1800
;_SET_FAN_SPEED_CHANGING_LAYER
SET_VELOCITY_LIMIT ACCEL=500 ACCEL_TO_DECEL=250
G1 Z.4 F12000
G1 X79.445 Y80.044
G1 Z.4
G1 Z.2
G1 E6 F1800
;TYPE:Skirt
;WIDTH:0.5
G1 F900
G1 X81.896 Y78.008 E.12111
G1 X84.776 Y76.643 E.12111
G1 X88.75 Y76.008 E.15295
G1 X131.25 Y76.008 E1.61527
G1 X134.412 Y76.406 E.12111
G1 X137.375 Y77.576 E.12111
G1 X139.956 Y79.445 E.12111
G1 X141.992 Y81.896 E.12111
G1 X143.357 Y84.776 E.12111
G1 X143.992 Y88.75 E.15295
G1 X143.992 Y131.25 E1.61527
G1 X143.594 Y134.412 E.12111
G1 X142.424 Y137.375 E.12111
G1 X140.555 Y139.956 E.12111
G1 X138.104 Y141.992 E.12111
G1 X135.224 Y143.357 E.12111
M73 P0 R36
G1 X131.25 Y143.992 E.15295
G1 X88.75 Y143.992 E1.61527
G1 X85.588 Y143.594 E.12111
G1 X82.625 Y142.424 E.12111
G1 X80.044 Y140.555 E.12111
G1 X78.008 Y138.104 E.12111
G1 X76.643 Y135.224 E.12111
G1 X76.008 Y131.25 E.15295
G1 X76.008 Y88.75 E1.61527
G1 X76.406 Y85.588 E.12111
G1 X77.576 Y82.625 E.12111
G1 X79.422 Y80.076 E.11959
G1 X79.803 Y80.359 F12000
G1 F900
G1 X79.897 Y80.232 E.00598
G1 X82.335 Y78.272 E.11891
G1 X85.19 Y76.992 E.11891
G1 X88.75 Y76.465 E.13679
G1 X131.25 Y76.465 E1.61527
G1 X134.353 Y76.863 E.11891
G1 X137.255 Y78.032 E.11891
G1 X139.768 Y79.897 E.11891
M73 P1 R36
G1 X141.728 Y82.335 E.11891
G1 X143.008 Y85.19 E.11891
G1 X143.535 Y88.75 E.13679
G1 X143.535 Y131.25 E1.61527
G1 X143.137 Y134.353 E.11891
G1 X141.968 Y137.255 E.11891
G1 X140.103 Y139.768 E.11891
G1 X137.665 Y141.728 E.11891
G1 X134.81 Y143.008 E.11891
G1 X131.25 Y143.535 E.13679
G1 X88.75 Y143.535 E1.61527
G1 X85.647 Y143.137 E.11891
G1 X82.745 Y141.968 E.11891
G1 X80.232 Y140.103 E.11891
G1 X78.272 Y137.665 E.11891
G1 X76.992 Y134.81 E.11891
G1 X76.465 Y131.25 E.13679
G1 X76.465 Y88.75 E1.61527
G1 X76.863 Y85.647 E.11891
G1 X78.032 Y82.745 E.11891
G1 X79.779 Y80.391 E.1114
G1 X80.155 Y80.677 F12000
G1 F900
G1 X80.347 Y80.425 E.01205
G1 X82.772 Y78.543 E.11667
G1 X85.6 Y77.349 E.11667
G1 X88.75 Y76.922 E.12081
G1 X131.25 Y76.922 E1.61527
G1 X134.294 Y77.32 E.11667
G1 X137.132 Y78.488 E.11667
G1 X139.575 Y80.347 E.11667
G1 X141.457 Y82.772 E.11667
G1 X142.651 Y85.6 E.11667
G1 X143.078 Y88.75 E.12081
G1 X143.078 Y131.25 E1.61527
G1 X142.68 Y134.294 E.11667
G1 X141.512 Y137.132 E.11667
G1 X139.653 Y139.575 E.11667
G1 X137.228 Y141.457 E.11667
G1 X134.4 Y142.651 E.11667
G1 X131.25 Y143.078 E.12081
G1 X88.75 Y143.078 E1.61527
M73 P2 R36
G1 X85.706 Y142.68 E.11667
G1 X82.868 Y141.512 E.11667
G1 X80.425 Y139.653 E.11667
G1 X78.543 Y137.228 E.11667
G1 X77.349 Y134.4 E.11667
G1 X76.922 Y131.25 E.12081
G1 X76.922 Y88.75 E1.61527
G1 X77.32 Y85.706 E.11667
G1 X78.488 Y82.868 E.11667
G1 X80.131 Y80.709 E.10309
G1 X80.502 Y81 F12000
G1 F900
G1 X80.798 Y80.622 E.01821
G1 X83.208 Y78.821 E.11438
G1 X86.007 Y77.715 E.11438
G1 X88.75 Y77.379 E.10503
G1 X131.25 Y77.379 E1.61527
G1 X134.233 Y77.777 E.11438
G1 X137.007 Y78.944 E.11438
G1 X139.378 Y80.798 E.11438
G1 X141.179 Y83.208 E.11438
G1 X142.285 Y86.007 E.11438
G1 X142.621 Y88.75 E.10503
G1 X142.621 Y131.25 E1.61527
G1 X142.223 Y134.233 E.11438
G1 X141.056 Y137.007 E.11438
G1 X139.202 Y139.378 E.11438
G1 X136.792 Y141.179 E.11438
G1 X133.993 Y142.285 E.11438
G1 X131.25 Y142.621 E.10503
G1 X88.75 Y142.621 E1.61527
G1 X85.767 Y142.223 E.11438
G1 X82.993 Y141.056 E.11438
G1 X80.622 Y139.202 E.11438
G1 X78.821 Y136.792 E.11438
G1 X77.715 Y133.993 E.11438
G1 X77.379 Y131.25 E.10503
G1 X77.379 Y88.75 E1.61527
G1 X77.777 Y85.767 E.11438
G1 X78.944 Y82.993 E.11438
M73 P3 R36
G1 X80.478 Y81.031 E.09465
G1 X80.844 Y81.325 F12000
G1 F900
G1 X81.247 Y80.824 E.02447
G1 X83.642 Y79.105 E.11205
G1 X86.41 Y78.09 E.11205
G1 X88.75 Y77.836 E.08945
G1 X131.25 Y77.836 E1.61527
M73 P3 R35
G1 X134.171 Y78.234 E.11205
G1 X136.879 Y79.399 E.11205
G1 X139.176 Y81.247 E.11205
G1 X140.895 Y83.642 E.11205
G1 X141.91 Y86.41 E.11205
G1 X142.164 Y88.75 E.08945
G1 X142.164 Y131.25 E1.61527
G1 X141.766 Y134.171 E.11205
G1 X140.601 Y136.879 E.11205
G1 X138.753 Y139.176 E.11205
G1 X136.358 Y140.895 E.11205
G1 X133.59 Y141.91 E.11205
G1 X131.25 Y142.164 E.08945
G1 X88.75 Y142.164 E1.61527
G1 X85.829 Y141.766 E.11205
G1 X83.121 Y140.601 E.11205
G1 X80.824 Y138.753 E.11205
G1 X79.105 Y136.358 E.11205
G1 X78.09 Y133.59 E.11205
G1 X77.836 Y131.25 E.08945
G1 X77.836 Y88.75 E1.61527
G1 X78.234 Y85.829 E.11205
G1 X79.399 Y83.121 E.11205
G1 X80.819 Y81.357 E.08606
G1 X81.179 Y81.655 F12000
G1 F900
G1 X81.696 Y81.03 E.03083
G1 X84.074 Y79.396 E.10966
G1 X86.809 Y78.475 E.10966
G1 X88.75 Y78.293 E.07411
G1 X131.25 Y78.293 E1.61527
G1 X134.108 Y78.691 E.10966
G1 X136.748 Y79.855 E.10966
G1 X138.97 Y81.696 E.10966
G1 X140.604 Y84.074 E.10966
G1 X141.525 Y86.809 E.10966
G1 X141.707 Y88.75 E.07411
G1 X141.707 Y131.25 E1.61527
M73 P4 R35
G1 X141.309 Y134.108 E.10966
G1 X140.145 Y136.748 E.10966
G1 X138.304 Y138.97 E.10966
G1 X135.926 Y140.604 E.10966
G1 X133.191 Y141.525 E.10966
G1 X131.25 Y141.707 E.07411
G1 X88.75 Y141.707 E1.61527
G1 X85.892 Y141.309 E.10966
G1 X83.252 Y140.145 E.10966
G1 X81.03 Y138.304 E.10966
G1 X79.396 Y135.926 E.10966
G1 X78.475 Y133.191 E.10966
G1 X78.293 Y131.25 E.07411
G1 X78.293 Y88.75 E1.61527
G1 X78.691 Y85.892 E.10966
G1 X79.855 Y83.252 E.10966
G1 X81.153 Y81.686 E.07731
; printing object Part Studio 1 - Part 1.stl id:0 copy 0
G1 E-4.2 F1800
;WIPE_START
G1 F900
G1 X81.696 Y81.03 E-1.53218
G1 X81.819 Y80.946 E-.26782
;WIPE_END
EXCLUDE_OBJECT_START NAME=Part_Studio_1_-_Part_1.stl_id_0_copy_0
G1 Z.6 F12000
G1 X90.063 Y129.468 Z.6
G1 Z.2
G1 E6 F1800
;TYPE:Inner wall
;WIDTH:0.571795
G1 F900
G1 X90.018 Y129.396 E.00373
G1 X90.011 Y129.271 E.00549
;WIDTH:0.564381
G1 X90.011 Y127.179 E.09075
;WIDTH:0.593633
G1 X90.038 Y127.006 E.00799
;WIDTH:0.622885
G1 X90.066 Y126.834 E.00842
G1 X90.166 Y126.7 E.00806
G1 X90.066 Y126.566 E.00806
G1 X90.038 Y126.394 E.00842
;WIDTH:0.593633
G1 X90.011 Y126.221 E.00799
;WIDTH:0.564381
G1 X90.011 Y123.129 E.13411
;WIDTH:0.593633
G1 X90.038 Y122.956 E.00799
;WIDTH:0.622885
G1 X90.066 Y122.784 E.00842
G1 X90.166 Y122.65 E.00806
G1 X90.066 Y122.516 E.00806
G1 X90.038 Y122.344 E.00842
;WIDTH:0.593633
G1 X90.011 Y122.171 E.00799
;WIDTH:0.564381
G1 X90.011 Y119.079 E.13411
;WIDTH:0.593633
G1 X90.038 Y118.906 E.00799
;WIDTH:0.622885
G1 X90.066 Y118.734 E.00842
G1 X90.166 Y118.6 E.00806
G1 X90.066 Y118.466 E.00806
G1 X90.038 Y118.294 E.00842
;WIDTH:0.593633
G1 X90.011 Y118.121 E.00799
;WIDTH:0.564381
G1 X90.011 Y115.029 E.13411
;WIDTH:0.593633
G1 X90.038 Y114.856 E.00799
;WIDTH:0.622885
G1 X90.066 Y114.684 E.00842
G1 X90.166 Y114.55 E.00806
G1 X90.066 Y114.416 E.00806
G1 X90.038 Y114.244 E.00842
;WIDTH:0.593633
G1 X90.011 Y114.071 E.00799
;WIDTH:0.564381
G1 X90.011 Y110.979 E.13411
;WIDTH:0.593633
G1 X90.038 Y110.806 E.00799
;WIDTH:0.622885
G1 X90.066 Y110.634 E.00842
G1 X90.166 Y110.5 E.00806
G1 X90.066 Y110.366 E.00806
G1 X90.038 Y110.194 E.00842
;WIDTH:0.593633
G1 X90.011 Y110.021 E.00799
;WIDTH:0.564381
G1 X90.011 Y106.929 E.13411
;WIDTH:0.593634
G1 X90.038 Y106.756 E.00799
;WIDTH:0.622886
G1 X90.066 Y106.584 E.00842
G1 X90.166 Y106.45 E.00806
G1 X90.066 Y106.316 E.00806
G1 X90.038 Y106.144 E.00842
;WIDTH:0.593634
G1 X90.011 Y105.971 E.00799
;WIDTH:0.564381
G1 X90.011 Y102.879 E.13411
;WIDTH:0.593634
G1 X90.038 Y102.706 E.00799
;WIDTH:0.622886
G1 X90.066 Y102.534 E.00842
G1 X90.166 Y102.4 E.00806
G1 X90.066 Y102.266 E.00806
G1 X90.038 Y102.094 E.00842
;WIDTH:0.593634
G1 X90.011 Y101.921 E.00799
;WIDTH:0.564381
G1 X90.011 Y98.829 E.13411
;WIDTH:0.593634
G1 X90.038 Y98.656 E.00799
;WIDTH:0.622886
G1 X90.066 Y98.484 E.00842
G1 X90.166 Y98.35 E.00806
G1 X90.066 Y98.216 E.00806
G1 X90.038 Y98.044 E.00842
;WIDTH:0.593634
G1 X90.011 Y97.871 E.00799
;WIDTH:0.564381
G1 X90.011 Y94.779 E.13411
;WIDTH:0.593634
G1 X90.038 Y94.606 E.00799
;WIDTH:0.622886
G1 X90.066 Y94.434 E.00842
G1 X90.166 Y94.3 E.00806
G1 X90.066 Y94.166 E.00806
G1 X90.038 Y93.994 E.00842
;WIDTH:0.593634
G1 X90.011 Y93.821 E.00799
;WIDTH:0.564381
G1 X90.011 Y90.729 E.13411
G1 X90.127 Y90.486 E.01166
;WIDTH:0.53219
G1 X90.244 Y90.244 E.01094
;WIDTH:0.535897
G1 X90.424 Y90.131 E.00871
;WIDTH:0.571795
G1 X90.604 Y90.018 E.00935
G1 X90.729 Y90.011 E.00549
;WIDTH:0.564381
G1 X129.271 Y90.011 E1.67121
G1 X129.514 Y90.127 E.01166
;WIDTH:0.53219
G1 X129.756 Y90.244 E.01094
G1 X129.873 Y90.486 E.01094
;WIDTH:0.56438
G1 X129.989 Y90.729 E.01166
G1 X129.989 Y93.821 E.13411
;WIDTH:0.593633
G1 X129.962 Y93.994 E.00799
;WIDTH:0.622886
G1 X129.934 Y94.166 E.00842
G1 X129.834 Y94.3 E.00806
G1 X129.934 Y94.434 E.00806
G1 X129.962 Y94.606 E.00842
;WIDTH:0.593633
G1 X129.989 Y94.779 E.00799
;WIDTH:0.56438
G1 X129.989 Y97.871 E.13411
;WIDTH:0.593633
G1 X129.962 Y98.044 E.00799
;WIDTH:0.622886
G1 X129.934 Y98.216 E.00842
G1 X129.834 Y98.35 E.00806
G1 X129.934 Y98.484 E.00806
G1 X129.962 Y98.656 E.00842
;WIDTH:0.593633
G1 X129.989 Y98.829 E.00799
;WIDTH:0.56438
G1 X129.989 Y101.921 E.13411
;WIDTH:0.593633
G1 X129.962 Y102.094 E.00799
;WIDTH:0.622886
G1 X129.934 Y102.266 E.00842
G1 X129.834 Y102.4 E.00806
G1 X129.934 Y102.534 E.00806
G1 X129.962 Y102.706 E.00842
;WIDTH:0.593633
G1 X129.989 Y102.879 E.00799
;WIDTH:0.56438
G1 X129.989 Y105.971 E.13411
;WIDTH:0.593633
G1 X129.962 Y106.144 E.00799
;WIDTH:0.622886
G1 X129.934 Y106.316 E.00842
G1 X129.834 Y106.45 E.00806
G1 X129.934 Y106.584 E.00806
G1 X129.962 Y106.756 E.00842
;WIDTH:0.593633
G1 X129.989 Y106.929 E.00799
;WIDTH:0.56438
G1 X129.989 Y110.021 E.13411
;WIDTH:0.593633
G1 X129.962 Y110.194 E.00799
;WIDTH:0.622886
G1 X129.934 Y110.366 E.00842
G1 X129.834 Y110.5 E.00806
G1 X129.934 Y110.634 E.00806
G1 X129.962 Y110.806 E.00842
;WIDTH:0.593633
G1 X129.989 Y110.979 E.00799
;WIDTH:0.56438
G1 X129.989 Y114.071 E.13411
;WIDTH:0.593633
G1 X129.962 Y114.244 E.00799
;WIDTH:0.622886
G1 X129.934 Y114.416 E.00842
G1 X129.834 Y114.55 E.00806
G1 X129.934 Y114.684 E.00806
G1 X129.962 Y114.856 E.00842
;WIDTH:0.593633
G1 X129.989 Y115.029 E.00799
;WIDTH:0.56438
G1 X129.989 Y118.121 E.13411
;WIDTH:0.593633
G1 X129.962 Y118.294 E.00799
;WIDTH:0.622886
G1 X129.934 Y118.466 E.00842
G1 X129.834 Y118.6 E.00806
G1 X129.934 Y118.734 E.00806
G1 X129.962 Y118.906 E.00842
;WIDTH:0.593633
G1 X129.989 Y119.079 E.00799
;WIDTH:0.56438
G1 X129.989 Y122.171 E.13411
;WIDTH:0.593633
G1 X129.962 Y122.344 E.00799
;WIDTH:0.622886
G1 X129.934 Y122.516 E.00842
G1 X129.834 Y122.65 E.00806
G1 X129.934 Y122.784 E.00806
G1 X129.962 Y122.956 E.00842
;WIDTH:0.593633
G1 X129.989 Y123.129 E.00799
;WIDTH:0.56438
G1 X129.989 Y126.221 E.13411
;WIDTH:0.593633
G1 X129.962 Y126.394 E.00799
;WIDTH:0.622886
G1 X129.934 Y126.566 E.00842
G1 X129.834 Y126.7 E.00806
G1 X129.934 Y126.834 E.00806
G1 X129.962 Y127.006 E.00842
;WIDTH:0.593633
G1 X129.989 Y127.179 E.00799
;WIDTH:0.56438
G1 X129.989 Y129.271 E.09075
;WIDTH:0.571794
G1 X129.982 Y129.396 E.00549
G1 X129.869 Y129.576 E.00935
;WIDTH:0.535897
G1 X129.756 Y129.756 E.00871
G1 X129.576 Y129.869 E.00871
;WIDTH:0.571795
G1 X129.396 Y129.982 E.00935
G1 X129.271 Y129.989 E.00549
;WIDTH:0.564381
G1 X90.729 Y129.989 E1.67121
G1 X90.486 Y129.873 E.01166
;WIDTH:0.53219
G1 X90.244 Y129.756 E.01094
;WIDTH:0.535897
G1 X90.131 Y129.576 E.00871
;WIDTH:0.571795
G1 X90.084 Y129.502 E.00386
G1 X90.5 Y129.271 F12000
;TYPE:Outer wall
;WIDTH:0.499999
G1 F900
G1 X90.5 Y127.179 E.07954
G1 X90.57 Y127.014 E.00681
;WIDTH:0.521459
G1 X90.729 Y126.939 E.00696
G1 X129.271 Y126.939 E1.53365
M73 P5 R35
G1 X129.43 Y127.014 E.00696
;WIDTH:0.499999
G1 X129.5 Y127.179 E.00681
G1 X129.5 Y129.271 E.07954
G1 X129.433 Y129.433 E.00665
G1 X129.311 Y129.497 E.00523
G1 X90.729 Y129.5 E1.46637
G1 X90.567 Y129.433 E.00665
G1 X90.515 Y129.308 E.00513
G1 E-6 F1800
G1 Z.6 F12000
G1 X90.729 Y122.889 Z.6
G1 Z.2
G1 E6 F1800
;WIDTH:0.521459
G1 F900
G1 X129.271 Y122.889 E1.53365
G1 X129.43 Y122.964 E.00696
;WIDTH:0.499999
G1 X129.5 Y123.129 E.00681
G1 X129.5 Y126.221 E.11755
G1 X129.43 Y126.386 E.00681
;WIDTH:0.521459
G1 X129.271 Y126.461 E.00696
G1 X90.729 Y126.461 E1.53365
G1 X90.57 Y126.386 E.00696
;WIDTH:0.499999
G1 X90.5 Y126.221 E.00681
G1 X90.5 Y123.129 E.11755
G1 X90.57 Y122.964 E.00681
;WIDTH:0.521459
G1 X90.692 Y122.906 E.00537
G1 X90.729 Y122.411 F12000
G1 F900
G1 X90.57 Y122.336 E.00696
;WIDTH:0.499999
G1 X90.5 Y122.171 E.00681
G1 X90.5 Y119.079 E.11755
G1 X90.57 Y118.914 E.00681
;WIDTH:0.521459
G1 X90.729 Y118.839 E.00696
G1 X129.271 Y118.839 E1.53365
G1 X129.43 Y118.914 E.00696
;WIDTH:0.499999
G1 X129.5 Y119.079 E.00681
G1 X129.5 Y122.171 E.11755
G1 X129.43 Y122.336 E.00681
;WIDTH:0.521459
G1 X129.271 Y122.411 E.00696
G1 X90.769 Y122.411 E1.53206
G1 E-4.2 F1800
;WIPE_START
G1 F900
G1 X90.57 Y122.336 E-.38144
G1 X90.5 Y122.171 E-.32234
G1 X90.5 Y121.562 E-1.09622
;WIPE_END
G1 Z.6 F12000
G1 X90.436 Y121.562 Z.6
G1 X90.436 Y119.443
G1 X90.75 Y119.1
G1 X129.25 Y118.1
G1 X129.564 Y117.757
G1 X129.564 Y115.393
G1 X129.271 Y114.789
G1 Z.2
G1 E6 F1800
G1 F900
G1 X129.43 Y114.864 E.00696
;WIDTH:0.499999
G1 X129.5 Y115.029 E.00681
G1 X129.5 Y118.121 E.11755
M73 P5 R34
G1 X129.43 Y118.286 E.00681
;WIDTH:0.521459
G1 X129.271 Y118.361 E.00696
G1 X90.729 Y118.361 E1.53365
G1 X90.57 Y118.286 E.00696
;WIDTH:0.499999
G1 X90.5 Y118.121 E.00681
G1 X90.5 Y115.029 E.11755
G1 X90.57 Y114.864 E.00681
;WIDTH:0.521459
G1 X90.729 Y114.789 E.00696
G1 X129.231 Y114.789 E1.53206
M73 P6 R34
G1 E-4.2 F1800
;WIPE_START
G1 F900
G1 X129.43 Y114.864 E-.38144
G1 X129.5 Y115.029 E-.32233
G1 X129.5 Y115.638 E-1.09622
;WIPE_END
G1 Z.6 F12000
G1 X129.564 Y115.638 Z.6
G1 X129.564 Y111.343
G1 X129.25 Y111
G1 X90.75 Y110
G1 X90.436 Y109.657
G1 X90.436 Y107.293
G1 X90.729 Y106.211
G1 Z.2
G1 E6 F1800
;WIDTH:0.52146
G1 F900
G1 X90.57 Y106.136 E.00696
;WIDTH:0.499999
G1 X90.5 Y105.971 E.00681
G1 X90.5 Y102.879 E.11755
G1 X90.57 Y102.714 E.00681
;WIDTH:0.52146
G1 X90.729 Y102.639 E.00696
G1 X129.271 Y102.639 E1.53365
G1 X129.43 Y102.714 E.00696
;WIDTH:0.499999
G1 X129.5 Y102.879 E.00681
G1 X129.5 Y105.971 E.11755
G1 X129.43 Y106.136 E.00681
;WIDTH:0.52146
G1 X129.271 Y106.211 E.00696
G1 X90.769 Y106.211 E1.53206
G1 E-4.2 F1800
;WIPE_START
G1 F900
G1 X90.57 Y106.136 E-.38144
G1 X90.5 Y105.971 E-.32233
G1 X90.5 Y105.362 E-1.09622
;WIPE_END
G1 E0 F1800
G1 Z.6 F12000
G1 X90.436 Y105.362 Z.6
G1 X90.436 Y103.243
G1 X90.75 Y102.9
G1 X129.25 Y101.9
G1 X129.564 Y101.557
G1 X129.564 Y99.193
G1 X129.271 Y98.589
G1 Z.2
G1 E6 F1800
G1 F900
G1 X129.43 Y98.664 E.00696
;WIDTH:0.499999
G1 X129.5 Y98.829 E.00681
G1 X129.5 Y101.921 E.11755
G1 X129.43 Y102.086 E.00681
;WIDTH:0.52146
G1 X129.271 Y102.161 E.00696
G1 X90.729 Y102.161 E1.53365
G1 X90.57 Y102.086 E.00696
;WIDTH:0.499999
G1 X90.5 Y101.921 E.00681
G1 X90.5 Y98.829 E.11755
G1 X90.57 Y98.664 E.00681
;WIDTH:0.52146
G1 X90.729 Y98.589 E.00696
G1 X129.231 Y98.589 E1.53206
G1 E-4.2 F1800
;WIPE_START
G1 F900
G1 X129.43 Y98.664 E-.38144
G1 X129.5 Y98.829 E-.32233
G1 X129.5 Y99.438 E-1.09622
;WIPE_END
G1 Z.6 F12000
G1 X129.564 Y99.438 Z.6
G1 X129.564 Y99.193
G1 X129.25 Y98.85
G1 X90.75 Y97.85
G1 X90.436 Y97.507
G1 X90.436 Y95.143
G1 X90.729 Y94.539
G1 Z.2
G1 E6 F1800
G1 F900
G1 X129.271 Y94.539 E1.53365
G1 X129.43 Y94.614 E.00696
;WIDTH:0.499999
G1 X129.5 Y94.779 E.00681
G1 X129.5 Y97.871 E.11755
G1 X129.43 Y98.036 E.00681
;WIDTH:0.52146
G1 X129.271 Y98.111 E.00696
G1 X90.729 Y98.111 E1.53365
M73 P7 R34
