; HEADER_BLOCK_START
; generated by OrcaSlicer 1.7.0 on 2023-12-28 at 11:20:01
; total layer number: 156
; HEADER_BLOCK_END

; THUMBNAIL_BLOCK_START
; THUMBNAIL_BLOCK_END

; external perimeters extrusion width = 0.40mm
; perimeters extrusion width = 0.45mm
; infill extrusion width = 0.45mm
; solid infill extrusion width = 0.40mm
; top infill extrusion width = 0.40mm
; first layer extrusion width = 0.50mm

; external perimeters extrusion width = 0.40mm
; perimeters extrusion width = 0.45mm
; infill extrusion width = 0.45mm
; solid infill extrusion width = 0.40mm
; top infill extrusion width = 0.40mm
; first layer extrusion width = 0.50mm

; external perimeters extrusion width = 0.40mm
; perimeters extrusion width = 0.45mm
; infill extrusion width = 0.45mm
; solid infill extrusion width = 0.40mm
; top infill extrusion width = 0.40mm
; first layer extrusion width = 0.50mm

; external perimeters extrusion width = 0.40mm
; perimeters extrusion width = 0.45mm
; infill extrusion width = 0.45mm
; solid infill extrusion width = 0.40mm
; top infill extrusion width = 0.40mm
; first layer extrusion width = 0.50mm

; EXECUTABLE_BLOCK_START
EXCLUDE_OBJECT_DEFINE NAME=Part_Studio_1_-_Part_1.stl_id_0_copy_0 CENTER=84.9936,84.9892 POLYGON=[[83.4936,84.9892],[83.5024,84.8271],[83.5287,84.6668],[83.5722,84.5103],[83.6323,84.3594],[83.7084,84.2159],[83.7995,84.0815],[83.9046,83.9577],[84.0226,83.846],[84.1519,83.7477],[84.291,83.664],[84.4384,83.5958],[84.5923,83.5439],[84.751,83.509],[84.9124,83.4914],[85.0748,83.4914],[85.2363,83.509],[85.3949,83.5439],[85.5488,83.5958],[85.6963,83.664],[85.8354,83.7477],[85.9647,83.846],[86.0826,83.9577],[86.1878,84.0815],[86.2789,84.2159],[86.355,84.3594],[86.4151,84.5103],[86.4586,84.6668],[86.4848,84.8271],[86.4936,84.9892],[86.4848,85.1514],[86.4586,85.3117],[86.4151,85.4682],[86.355,85.6191],[86.2789,85.7626],[86.1878,85.897],[86.0826,86.0208],[85.9647,86.1325],[85.8354,86.2308],[85.6963,86.3145],[85.5488,86.3827],[85.3949,86.4346],[85.2363,86.4695],[85.0748,86.487],[84.9124,86.487],[84.751,86.4695],[84.5923,86.4346],[84.4384,86.3827],[84.291,86.3145],[84.1519,86.2308],[84.0226,86.1325],[83.9046,86.0208],[83.7995,85.897],[83.7084,85.7626],[83.6323,85.6191],[83.5722,85.4682],[83.5287,85.3117],[83.5024,85.1514],[83.4936,84.9892]]
EXCLUDE_OBJECT_DEFINE NAME=Part_Studio_1_-_Part_1.stl_id_1_copy_0 CENTER=84.9914,134.988 POLYGON=[[83.4936,134.907],[83.5112,134.745],[83.5461,134.587],[83.598,134.433],[83.6662,134.285],[83.7499,134.146],[83.8482,134.017],[83.9599,133.899],[84.0837,133.794],[84.2181,133.703],[84.3616,133.627],[84.5125,133.567],[84.669,133.523],[84.8293,133.497],[84.9914,133.488],[85.1536,133.497],[85.3139,133.523],[85.4704,133.567],[85.6213,133.627],[85.7648,133.703],[85.8992,133.794],[86.023,133.899],[86.1347,134.017],[86.233,134.146],[86.3167,134.285],[86.3849,134.433],[86.4368,134.587],[86.4717,134.745],[86.4892,134.907],[86.4892,135.069],[86.4717,135.231],[86.4368,135.389],[86.3849,135.543],[86.3167,135.691],[86.233,135.83],[86.1347,135.959],[86.023,136.077],[85.8992,136.182],[85.7648,136.273],[85.6213,136.349],[85.4704,136.41],[85.3139,136.453],[85.1536,136.479],[84.9914,136.488],[84.8293,136.479],[84.669,136.453],[84.5125,136.41],[84.3616,136.349],[84.2181,136.273],[84.0837,136.182],[83.9599,136.077],[83.8482,135.959],[83.7499,135.83],[83.6662,135.691],[83.598,135.543],[83.5461,135.389],[83.5112,135.231],[83.4936,135.069],[83.4936,134.907]]
EXCLUDE_OBJECT_DEFINE NAME=Part_Studio_1_-_Part_1.stl_id_2_copy_0 CENTER=134.992,84.9914 POLYGON=[[133.495,84.9102],[133.512,84.7488],[133.547,84.5901],[133.599,84.4362],[133.667,84.2888],[133.751,84.1497],[133.849,84.0204],[133.961,83.9024],[134.085,83.7973],[134.219,83.7061],[134.363,83.6301],[134.513,83.57],[134.67,83.5265],[134.83,83.5002],[134.992,83.4914],[135.155,83.5002],[135.315,83.5265],[135.471,83.57],[135.622,83.6301],[135.766,83.7061],[135.9,83.7973],[136.024,83.9024],[136.136,84.0204],[136.234,84.1496],[136.318,84.2888],[136.386,84.4362],[136.438,84.5901],[136.473,84.7488],[136.49,84.9102],[136.49,85.0726],[136.473,85.2341],[136.438,85.3927],[136.386,85.5466],[136.318,85.694],[136.234,85.8332],[136.136,85.9625],[136.024,86.0804],[135.9,86.1856],[135.766,86.2767],[135.622,86.3528],[135.471,86.4129],[135.315,86.4564],[135.155,86.4826],[134.992,86.4914],[134.83,86.4826],[134.67,86.4564],[134.513,86.4129],[134.363,86.3528],[134.219,86.2767],[134.085,86.1856],[133.961,86.0804],[133.849,85.9625],[133.751,85.8332],[133.667,85.694],[133.599,85.5466],[133.547,85.3927],[133.512,85.2341],[133.495,85.0726],[133.495,84.9102]]
EXCLUDE_OBJECT_DEFINE NAME=Part_Studio_1_-_Part_1.stl_id_3_copy_0 CENTER=134.998,135 POLYGON=[[133.499,135.041],[133.503,134.879],[133.525,134.718],[133.564,134.56],[133.62,134.408],[133.693,134.262],[133.78,134.125],[133.882,133.999],[133.997,133.884],[134.123,133.782],[134.26,133.695],[134.406,133.623],[134.558,133.567],[134.716,133.527],[134.877,133.505],[135.039,133.501],[135.201,133.514],[135.36,133.545],[135.516,133.593],[135.665,133.657],[135.806,133.737],[135.938,133.831],[136.059,133.94],[136.167,134.061],[136.262,134.193],[136.342,134.334],[136.406,134.483],[136.454,134.638],[136.485,134.798],[136.498,134.96],[136.493,135.122],[136.471,135.283],[136.432,135.441],[136.376,135.593],[136.304,135.739],[136.217,135.876],[136.115,136.002],[136,136.117],[135.873,136.219],[135.737,136.306],[135.591,136.378],[135.439,136.434],[135.281,136.474],[135.12,136.496],[134.958,136.5],[134.796,136.487],[134.636,136.456],[134.481,136.408],[134.332,136.344],[134.19,136.264],[134.059,136.17],[133.938,136.061],[133.829,135.94],[133.734,135.808],[133.654,135.667],[133.59,135.518],[133.543,135.363],[133.512,135.203],[133.499,135.041]]
M73 P0 R4
;TYPE:Custom
START_PRINT EXTRUDER_TEMP=255  BED_TEMP=80
G90
G21
M83 ; use relative distances for extrusion
; filament start gcode
M106 S0
;LAYER_CHANGE
;Z:0.3
;HEIGHT:0.3
;BEFORE_LAYER_CHANGE
;0.3
G92 E0

G1 E-2.5 F3600
;_SET_FAN_SPEED_CHANGING_LAYER
; printing object Part Studio 1 - Part 1.stl id:0 copy 0
EXCLUDE_OBJECT_START NAME=Part_Studio_1_-_Part_1.stl_id_0_copy_0
G1 X80.975 Y80.896 F9000
G1 Z.4
G1 Z.3
G1 E2.5 F3600
;TYPE:Brim
;WIDTH:0.5
G1 F900
G1 X81.44 Y80.487 E.03198
G1 X82.093 Y80.041 E.04082
G1 X82.643 Y79.757 E.03198
G1 X83.223 Y79.533 E.03206
G1 X83.823 Y79.374 E.03206
G1 X84.439 Y79.28 E.03213
G1 X84.903 Y79.254 E.02404
G1 X85.536 Y79.279 E.0327
G1 X86.115 Y79.364 E.0302
G1 X86.727 Y79.521 E.0326
G1 X87.309 Y79.741 E.03209
G1 X87.861 Y80.021 E.03197
G1 X88.517 Y80.463 E.04082
G1 X88.985 Y80.869 E.03198
G1 X89.407 Y81.325 E.03206
G1 X89.778 Y81.825 E.03214
G1 X90.012 Y82.211 E.02329
G1 X90.284 Y82.771 E.03214
G1 X90.492 Y83.354 E.03198
G1 X90.664 Y84.126 E.04082
G1 X90.725 Y84.743 E.03198
G1 X90.718 Y85.364 E.03206
G1 X90.644 Y85.98 E.03206
G1 X90.503 Y86.585 E.03206
G1 X90.298 Y87.173 E.03214
G1 X90.11 Y87.583 E.02329
G1 X89.798 Y88.123 E.03214
G1 X89.432 Y88.622 E.03198
G1 X88.89 Y89.199 E.04082
G1 X88.414 Y89.594 E.03198
G1 X87.895 Y89.938 E.03214
G1 X87.497 Y90.151 E.02329
G1 X86.922 Y90.391 E.03214
G1 X86.327 Y90.568 E.03206
M73 P1 R4
G1 X85.716 Y90.68 E.03206
G1 X85.096 Y90.725 E.03206
G1 X84.477 Y90.702 E.03198
G1 X83.697 Y90.577 E.04082
G1 X83.101 Y90.404 E.03198
G1 X82.527 Y90.168 E.03206
G1 X81.982 Y89.871 E.03206
G1 X81.47 Y89.516 E.03214
G1 X81.125 Y89.225 E.02329
G1 X80.689 Y88.781 E.03214
G1 X80.304 Y88.293 E.03206
G1 X79.975 Y87.767 E.03206
G1 X79.704 Y87.208 E.03206
G1 X79.495 Y86.624 E.03198
G1 X79.323 Y85.852 E.04082
G1 X79.263 Y85.236 E.03198
G1 X79.27 Y84.615 E.03206
G1 X79.344 Y83.998 E.03206
G1 X79.484 Y83.393 E.03206
G1 X79.689 Y82.807 E.03206
G1 X79.954 Y82.249 E.03189
G1 X80.278 Y81.723 E.0319
G1 X80.554 Y81.356 E.02367
G1 X80.948 Y80.926 E.03011
G1 X81.269 Y81.22 F9000
G1 F900
G1 X81.276 Y81.213 E.00048
G1 X81.701 Y80.837 E.02932
G1 X82.323 Y80.412 E.03888
G1 X82.829 Y80.152 E.02932
G1 X83.364 Y79.946 E.02962
G1 X83.919 Y79.8 E.02962
G1 X84.477 Y79.715 E.02915
G1 X84.913 Y79.69 E.02253
G1 X85.489 Y79.713 E.02974
G1 X86.036 Y79.793 E.02852
G1 X86.602 Y79.94 E.03019
G1 X87.126 Y80.138 E.0289
G1 X87.633 Y80.394 E.02932
G1 X88.258 Y80.814 E.03888
G1 X88.686 Y81.188 E.02932
G1 X89.066 Y81.598 E.02889
G1 X89.412 Y82.063 E.02991
G1 X89.632 Y82.424 E.02181
G1 X89.878 Y82.933 E.02918
G1 X90.07 Y83.468 E.02932
G1 X90.234 Y84.203 E.03888
G1 X90.289 Y84.768 E.02932
G1 X90.281 Y85.342 E.02962
G1 X90.215 Y85.898 E.02889
G1 X90.086 Y86.457 E.02962
G1 X89.895 Y87.004 E.02991
G1 X89.725 Y87.378 E.02118
G1 X89.437 Y87.878 E.02981
G1 X89.102 Y88.337 E.02932
G1 X88.585 Y88.886 E.03888
G1 X88.148 Y89.248 E.02932
G1 X87.676 Y89.56 E.02919
G1 X87.304 Y89.759 E.02181
G1 X86.769 Y89.983 E.02991
G1 X86.232 Y90.142 E.02889
G1 X85.668 Y90.246 E.02962
G1 X85.096 Y90.288 E.02962
G1 X84.528 Y90.268 E.02932
G1 X83.784 Y90.149 E.03888
G1 X83.239 Y89.99 E.02932
G1 X82.708 Y89.771 E.02962
G1 X82.205 Y89.496 E.02962
G1 X81.741 Y89.173 E.02918
G1 X81.417 Y88.901 E.02181
G1 X81.012 Y88.487 E.02991
G1 X80.657 Y88.036 E.02962
G1 X80.36 Y87.561 E.02889
M73 P2 R4
G1 X80.109 Y87.045 E.02962
G1 X79.917 Y86.511 E.02932
G1 X79.753 Y85.775 E.03888
G1 X79.699 Y85.21 E.02932
G1 X79.706 Y84.636 E.02962
G1 X79.773 Y84.081 E.02889
G1 X79.901 Y83.521 E.02962
G1 X80.09 Y82.979 E.02962
G1 X80.335 Y82.464 E.02946
G1 X80.635 Y81.974 E.02968
G1 X80.894 Y81.63 E.02218
G1 X81.242 Y81.249 E.02666
G1 X81.564 Y81.543 F9000
G1 F900
G1 X81.577 Y81.529 E.00098
G1 X81.963 Y81.186 E.02666
G1 X82.554 Y80.783 E.03691
G1 X83.014 Y80.548 E.02665
G1 X83.505 Y80.36 E.02718
G1 X84.001 Y80.229 E.02647
G1 X84.516 Y80.149 E.02691
G1 X84.923 Y80.127 E.02103
G1 X85.442 Y80.147 E.02678
G1 X85.956 Y80.223 E.02683
G1 X86.463 Y80.354 E.02705
G1 X86.944 Y80.534 E.02648
G1 X87.405 Y80.767 E.02666
G1 X87.998 Y81.166 E.03691
G1 X88.377 Y81.496 E.02594
G1 X88.726 Y81.872 E.02648
G1 X89.047 Y82.302 E.02768
G1 X89.251 Y82.638 E.02032
G1 X89.473 Y83.096 E.02624
G1 X89.648 Y83.582 E.02666
G1 X89.804 Y84.28 E.03691
G1 X89.853 Y84.794 E.02665
G1 X89.845 Y85.32 E.02719
G1 X89.783 Y85.83 E.02648
G1 X89.668 Y86.329 E.02647
G1 X89.493 Y86.836 E.02769
G1 X89.34 Y87.172 E.01907
G1 X89.074 Y87.634 E.02749
G1 X88.77 Y88.052 E.02665
G1 X88.28 Y88.573 E.03692
G1 X87.882 Y88.901 E.02666
G1 X87.458 Y89.182 E.02625
G1 X87.111 Y89.368 E.02032
G1 X86.616 Y89.574 E.02768
G1 X86.124 Y89.719 E.02648
G1 X85.605 Y89.814 E.0272
G1 X85.094 Y89.851 E.02645
G1 X84.578 Y89.834 E.02665
G1 X83.872 Y89.721 E.03692
G1 X83.377 Y89.575 E.02665
G1 X82.89 Y89.374 E.02718
G1 X82.44 Y89.128 E.02647
G1 X82.011 Y88.831 E.02697
G1 X81.71 Y88.577 E.02032
G1 X81.335 Y88.193 E.02767
G1 X81.018 Y87.79 E.02647
G1 X80.745 Y87.356 E.02648
G1 X80.514 Y86.882 E.02719
G1 X80.339 Y86.397 E.02665
G1 X80.183 Y85.699 E.03691
G1 X80.135 Y85.185 E.02665
G1 X80.142 Y84.658 E.02719
G1 X80.204 Y84.149 E.02648
G1 X80.323 Y83.635 E.0272
G1 X80.491 Y83.151 E.02646
G1 X80.715 Y82.678 E.02703
G1 X80.993 Y82.224 E.02744
G1 X81.234 Y81.904 E.02068
G1 X81.537 Y81.572 E.02321
G1 X81.859 Y81.866 F9000
G1 F900
G1 X81.878 Y81.845 E.0015
G1 X82.226 Y81.536 E.02398
G1 X82.784 Y81.155 E.03493
G1 X83.198 Y80.944 E.02396
G1 X83.646 Y80.773 E.02475
G1 X84.097 Y80.655 E.02407
G1 X84.556 Y80.584 E.02395
M73 P3 R4
G1 X84.933 Y80.563 E.01952
G1 X85.394 Y80.581 E.02382
G1 X85.862 Y80.649 E.02442
G1 X86.325 Y80.768 E.02465
G1 X86.762 Y80.931 E.02407
G1 X87.177 Y81.14 E.02397
G1 X87.738 Y81.518 E.03494
G1 X88.078 Y81.815 E.02329
G1 X88.386 Y82.146 E.02337
G1 X88.682 Y82.54 E.02542
G1 X88.871 Y82.852 E.01882
G1 X89.068 Y83.259 E.02333
G1 X89.226 Y83.696 E.02399
G1 X89.374 Y84.356 E.03493
G1 X89.417 Y84.818 E.02396
G1 X89.409 Y85.298 E.02476
G1 X89.355 Y85.747 E.02337
G1 X89.251 Y86.202 E.02407
G1 X89.09 Y86.669 E.02547
G1 X88.954 Y86.968 E.01694
G1 X88.712 Y87.391 E.02517
G1 X88.439 Y87.766 E.02396
G1 X87.976 Y88.259 E.03493
G1 X87.617 Y88.555 E.02399
G1 X87.24 Y88.804 E.02333
G1 X86.918 Y88.976 E.01882
G1 X86.463 Y89.165 E.02542
G1 X86.016 Y89.296 E.02407
G1 X85.557 Y89.38 E.02407
G1 X85.093 Y89.414 E.02404
G1 X84.629 Y89.4 E.02396
G1 X83.96 Y89.292 E.03493
G1 X83.515 Y89.161 E.02395
G1 X83.073 Y88.977 E.02475
G1 X82.664 Y88.753 E.02407
G1 X82.281 Y88.488 E.02403
G1 X82.002 Y88.253 E.01881
G1 X81.659 Y87.9 E.02541
G1 X81.371 Y87.533 E.02407
G1 X81.124 Y87.137 E.02409
G1 X80.919 Y86.719 E.02404
G1 X80.761 Y86.283 E.02396
G1 X80.614 Y85.622 E.03493
G1 X80.571 Y85.16 E.02396
G1 X80.578 Y84.68 E.02476
G1 X80.635 Y84.218 E.02407
G1 X80.744 Y83.75 E.02479
G1 X80.898 Y83.31 E.02405
G1 X81.096 Y82.892 E.0239
G1 X81.35 Y82.475 E.02518
G1 X81.573 Y82.178 E.01918
G1 X81.832 Y81.896 E.01976
G1 X82.154 Y82.189 F9000
G1 F900
G1 X82.18 Y82.16 E.00201
G1 X82.488 Y81.886 E.0213
G1 X83.015 Y81.526 E.03291
G1 X83.381 Y81.34 E.02124
G1 X83.786 Y81.187 E.02232
G1 X84.192 Y81.081 E.02169
G1 X84.595 Y81.019 E.02101
G1 X84.943 Y80.999 E.01801
G1 X85.347 Y81.015 E.02089
G1 X85.77 Y81.076 E.02202
G1 X86.187 Y81.182 E.02224
G1 X86.581 Y81.329 E.02167
G1 X86.949 Y81.513 E.02126
G1 X87.479 Y81.869 E.03294
G1 X87.779 Y82.133 E.02063
G1 X88.047 Y82.421 E.02031
G1 X88.316 Y82.779 E.02316
G1 X88.484 Y83.055 E.01668
G1 X88.663 Y83.422 E.02107
G1 X88.804 Y83.81 E.02131
G1 X88.943 Y84.433 E.03291
G1 X88.981 Y84.842 E.02124
G1 X88.973 Y85.275 E.02234
G1 X88.923 Y85.679 E.02101
G1 X88.833 Y86.075 E.02099
G1 X88.687 Y86.502 E.02326
G1 X88.569 Y86.763 E.01481
G1 X88.349 Y87.148 E.02285
G1 X88.108 Y87.481 E.02125
G1 X87.671 Y87.946 E.03291
G1 X87.352 Y88.208 E.0213
G1 X87.011 Y88.432 E.02107
G1 X86.726 Y88.584 E.01667
G1 X86.311 Y88.755 E.02314
G1 X85.908 Y88.873 E.02167
G1 X85.508 Y88.946 E.02099
G1 X85.09 Y88.978 E.02165
G1 X84.678 Y88.965 E.02126
G1 X84.049 Y88.864 E.03291
M73 P4 R4
G1 X83.654 Y88.747 E.02124
G1 X83.255 Y88.58 E.02232
G1 X82.887 Y88.378 E.02168
G1 X82.551 Y88.145 E.02111
G1 X82.295 Y87.929 E.01728
G1 X81.983 Y87.607 E.02313
G1 X81.725 Y87.277 E.02167
G1 X81.509 Y86.932 E.021
G1 X81.324 Y86.555 E.02165
G1 X81.183 Y86.168 E.02125
G1 X81.044 Y85.546 E.03291
G1 X81.007 Y85.136 E.02124
G1 X81.014 Y84.704 E.02233
G1 X81.066 Y84.287 E.02166
G1 X81.162 Y83.879 E.02166
G1 X81.3 Y83.482 E.02167
G1 X81.477 Y83.105 E.02151
G1 X81.707 Y82.726 E.0229
G1 X81.905 Y82.462 E.01702
G1 X82.127 Y82.219 E.01698
G1 X82.454 Y82.54 F9000
G1 F900
G1 X82.732 Y82.258 E.02046
G1 X83.363 Y81.841 E.03906
G1 X84.088 Y81.56 E.04013
G1 X84.583 Y81.46 E.02605
G1 X85.266 Y81.452 E.03524
G1 X85.982 Y81.584 E.03761
G1 X86.692 Y81.876 E.03961
G1 X87.248 Y82.247 E.03451
G1 X87.749 Y82.756 E.03687
G1 X88.098 Y83.275 E.03226
G1 X88.392 Y83.98 E.03944
G1 X88.526 Y84.666 E.0361
G1 X88.524 Y85.342 E.03491
G1 X88.373 Y86.066 E.03818
G1 X88.094 Y86.713 E.03633
G1 X87.761 Y87.212 E.031
G1 X87.255 Y87.721 E.037
G1 X86.624 Y88.137 E.03903
G1 X85.899 Y88.418 E.04014
G1 X85.404 Y88.518 E.02608
G1 X84.734 Y88.528 E.03455
G1 X84.008 Y88.396 E.03809
G1 X83.296 Y88.102 E.03979
G1 X82.821 Y87.798 E.02909
G1 X82.307 Y87.305 E.03679
G1 X81.912 Y86.746 E.03531
G1 X81.614 Y86.062 E.03851
G1 X81.464 Y85.333 E.03843
G1 X81.473 Y84.563 E.03976
G1 X81.58 Y84.011 E.02903
G1 X81.846 Y83.354 E.03655
G1 X82.22 Y82.778 E.03546
G1 X82.425 Y82.569 E.01514
G1 X82.726 Y82.874 F9000
G1 F900
G1 X83.046 Y82.56 E.02313
G1 X83.607 Y82.202 E.0344
G1 X84.247 Y81.966 E.03519
G1 X84.673 Y81.887 E.02235
G1 X85.276 Y81.887 E.03116
G1 X85.909 Y82.013 E.03328
G1 X86.529 Y82.28 E.03488
G1 X86.934 Y82.549 E.02509
G1 X87.381 Y82.989 E.03235
G1 X87.743 Y83.528 E.03355
G1 X87.992 Y84.152 E.03464
G1 X88.1 Y84.753 E.03155
G1 X88.088 Y85.345 E.03055
G1 X87.945 Y85.982 E.0337
G1 X87.693 Y86.544 E.03177
G1 X87.396 Y86.973 E.02697
M73 P5 R4
G1 X86.942 Y87.418 E.03279
G1 X86.38 Y87.777 E.03443
G1 X85.74 Y88.013 E.0352
G1 X85.314 Y88.092 E.02237
G1 X84.723 Y88.093 E.03053
G1 X84.081 Y87.966 E.03374
G1 X83.459 Y87.698 E.03498
G1 X83.053 Y87.429 E.02512
G1 X82.605 Y86.987 E.03251
G1 X82.265 Y86.491 E.03106
G1 X82.011 Y85.884 E.03394
G1 X81.89 Y85.241 E.03379
G1 X81.909 Y84.565 E.03489
G1 X82.009 Y84.09 E.02506
