; HEADER_BLOCK_START
; generated by OrcaSlicer 1.7.0 on 2023-12-27 at 22:31:12
; total layer number: 257
; HEADER_BLOCK_END

; THUMBNAIL_BLOCK_START
; THUMBNAIL_BLOCK_END

; external perimeters extrusion width = 0.40mm
; perimeters extrusion width = 0.45mm
; infill extrusion width = 0.45mm
; solid infill extrusion width = 0.40mm
; top infill extrusion width = 0.40mm
; first layer extrusion width = 0.50mm

; EXECUTABLE_BLOCK_START
EXCLUDE_OBJECT_DEFINE NAME=retraction_tower.stl_id_0_copy_0 CENTER=110,110 POLYGON=[[90,105.5],[90.1022,104.724],[90.4019,104],[90.8787,103.379],[91.5,102.902],[92.2235,102.602],[93,102.5],[127,102.5],[127.776,102.602],[128.5,102.902],[129.121,103.379],[129.598,104],[129.898,104.724],[130,105.5],[130,114.5],[129.898,115.276],[129.598,116],[129.121,116.621],[128.5,117.098],[127.776,117.398],[127,117.5],[93,117.5],[92.2235,117.398],[91.5,117.098],[90.8787,116.621],[90.4019,116],[90.1022,115.276],[90,114.5],[90,105.5]]
M73 P0 R20
;TYPE:Custom
START_PRINT EXTRUDER_TEMP=255  BED_TEMP=80
G90
G21
M83 ; use relative distances for extrusion
; filament start gcode
M106 S0
;LAYER_CHANGE
;Z:0.3
;HEIGHT:0.3
;BEFORE_LAYER_CHANGE
;0.3
G92 E0

;_SET_FAN_SPEED_CHANGING_LAYER
; Calib_Retraction_tower: Z_HEIGHT: 0.3, length:0
; printing object retraction_tower.stl id:0 copy 0
EXCLUDE_OBJECT_START NAME=retraction_tower.stl_id_0_copy_0
G1 X127.597 Y103.27 F9000
G1 Z.3
G1 E0 F1800
;TYPE:Inner wall
;WIDTH:0.5
G1 F900
G1 X128.154 Y103.501 E.03111
G1 X128.632 Y103.868 E.03111
G1 X128.999 Y104.346 E.03111
G1 X129.23 Y104.903 E.03111
G1 X129.314 Y105.71 E.04193
G1 X129.314 Y114.455 E.45136
G1 X129.23 Y115.097 E.03345
G1 X128.999 Y115.654 E.03111
G1 X128.632 Y116.132 E.03111
G1 X128.154 Y116.499 E.03111
G1 X127.597 Y116.73 E.03111
G1 X126.955 Y116.814 E.03344
G1 X93.045 Y116.814 E1.75031
G1 X92.403 Y116.73 E.03344
G1 X91.846 Y116.499 E.03111
G1 X91.368 Y116.132 E.03111
G1 X91.001 Y115.654 E.03111
G1 X90.77 Y115.097 E.03111
G1 X90.686 Y114.455 E.03345
G1 X90.686 Y105.545 E.45991
G1 X90.77 Y104.903 E.03344
G1 X91.001 Y104.346 E.03111
G1 X91.368 Y103.868 E.03111
G1 X91.846 Y103.501 E.03111
G1 X92.403 Y103.27 E.03111
G1 X93.045 Y103.186 E.03344
G1 X126.955 Y103.186 E1.75031
G1 X127.558 Y103.265 E.03138
G1 X127.711 Y102.846 F9000
;TYPE:Outer wall
G1 F900
G1 X128.374 Y103.12 E.03703
G1 X128.943 Y103.557 E.03703
G1 X129.38 Y104.126 E.03703
G1 X129.654 Y104.789 E.03703
G1 X129.75 Y105.71 E.04783
G1 X129.75 Y114.484 E.45284
G1 X129.654 Y115.211 E.03788
G1 X129.38 Y115.874 E.03703
G1 X128.943 Y116.443 E.03703
G1 X128.374 Y116.88 E.03703
G1 X127.711 Y117.154 E.03703
G1 X126.984 Y117.25 E.03788
G1 X93.016 Y117.25 E1.75326
G1 X92.289 Y117.154 E.03788
G1 X91.626 Y116.88 E.03703
G1 X91.057 Y116.443 E.03703
G1 X90.62 Y115.874 E.03703
G1 X90.346 Y115.211 E.03703
G1 X90.25 Y114.484 E.03788
G1 X90.25 Y105.516 E.46285
M73 P1 R20
G1 X90.346 Y104.789 E.03788
G1 X90.62 Y104.126 E.03703
G1 X91.057 Y103.557 E.03703
G1 X91.626 Y103.12 E.03703
G1 X92.289 Y102.846 E.03703
G1 X93.016 Y102.75 E.03788
G1 X126.984 Y102.75 E1.75326
G1 X127.672 Y102.841 E.03581
;WIPE_START
G1 X128.136 Y103.026
;WIPE_END
G1 X129.002 Y104.716 F9000
;TYPE:Bottom surface
;WIDTH:0.5047
G1 F1200
G1 X128.39 Y104.104 E.04515
G1 X127.985 Y103.794 E.02663
G1 X127.51 Y103.597 E.02683
G1 X127.222 Y103.559 E.01516
G1 X128.941 Y105.278 E.12684
G1 X128.979 Y105.567 E.0152
G1 X128.979 Y105.939 E.01941
G1 X126.561 Y103.521 E.1784
G1 X125.938 Y103.521 E.03249
G1 X128.979 Y106.562 E.22434
G1 X128.979 Y107.184 E.03249
G1 X125.316 Y103.521 E.27029
G1 X124.693 Y103.521 E.03249
G1 X128.979 Y107.807 E.31624
G1 X128.979 Y108.43 E.03249
G1 X124.07 Y103.521 E.36218
G1 X123.448 Y103.521 E.03249
G1 X128.979 Y109.052 E.40813
G1 X128.979 Y109.675 E.03249
G1 X122.825 Y103.521 E.45407
G1 X122.202 Y103.521 E.03249
G1 X128.979 Y110.298 E.50002
G1 X128.979 Y110.921 E.03249
G1 X121.579 Y103.521 E.54596
G1 X120.957 Y103.521 E.03249
G1 X128.979 Y111.543 E.59191
G1 X128.979 Y112.166 E.03249
G1 X120.334 Y103.521 E.63785
G1 X119.711 Y103.521 E.03249
G1 X128.979 Y112.789 E.6838
G1 X128.979 Y113.411 E.03249
G1 X119.089 Y103.521 E.72975
G1 X118.466 Y103.521 E.03249
G1 X128.979 Y114.034 E.77569
G1 X128.979 Y114.433 E.02082
G1 X128.953 Y114.631 E.0104
G1 X117.843 Y103.521 E.81972
G1 X117.221 Y103.521 E.03249
G1 X128.846 Y115.147 E.8578
G1 X128.706 Y115.485 E.0191
G1 X128.644 Y115.567 E.00537
G1 X116.598 Y103.521 E.88878
M73 P2 R20
G1 X115.975 Y103.521 E.03249
G1 X128.367 Y115.913 E.91433
G1 X128.015 Y116.183 E.02317
G1 X115.352 Y103.521 E.93428
G1 X114.73 Y103.521 E.03249
G1 X127.582 Y116.373 E.94828
G1 X127.51 Y116.403 E.00406
G1 X127.05 Y116.464 E.02422
G1 X114.107 Y103.521 E.95495
G1 X113.484 Y103.521 E.03249
G1 X126.442 Y116.479 E.95609
G1 X125.82 Y116.479 E.03249
G1 X112.862 Y103.521 E.95609
G1 X112.239 Y103.521 E.03249
G1 X125.197 Y116.479 E.95609
G1 X124.574 Y116.479 E.03249
G1 X111.616 Y103.521 E.95609
G1 X110.993 Y103.521 E.03249
G1 X123.951 Y116.479 E.95609
G1 X123.329 Y116.479 E.03249
G1 X110.371 Y103.521 E.95609
G1 X109.748 Y103.521 E.03249
G1 X122.706 Y116.479 E.95609
G1 X122.083 Y116.479 E.03249
G1 X109.125 Y103.521 E.95609
M73 P2 R19
G1 X108.503 Y103.521 E.03249
G1 X121.461 Y116.479 E.95609
M73 P3 R19
G1 X120.838 Y116.479 E.03249
G1 X107.88 Y103.521 E.95609
G1 X107.257 Y103.521 E.03249
G1 X120.215 Y116.479 E.95609
G1 X119.592 Y116.479 E.03249
G1 X106.635 Y103.521 E.95609
G1 X106.012 Y103.521 E.03249
G1 X118.97 Y116.479 E.95609
G1 X118.347 Y116.479 E.03249
G1 X105.389 Y103.521 E.95609
G1 X104.766 Y103.521 E.03249
G1 X117.724 Y116.479 E.95609
G1 X117.102 Y116.479 E.03249
G1 X104.144 Y103.521 E.95609
G1 X103.521 Y103.521 E.03249
G1 X116.479 Y116.479 E.95609
G1 X115.856 Y116.479 E.03249
G1 X102.898 Y103.521 E.95609
G1 X102.276 Y103.521 E.03249
G1 X115.234 Y116.479 E.95609
G1 X114.611 Y116.479 E.03249
G1 X101.653 Y103.521 E.95609
G1 X101.03 Y103.521 E.03249
G1 X113.988 Y116.479 E.95609
G1 X113.365 Y116.479 E.03249
G1 X100.407 Y103.521 E.95609
M73 P4 R19
G1 X99.785 Y103.521 E.03249
G1 X112.743 Y116.479 E.95609
G1 X112.12 Y116.479 E.03249
G1 X99.162 Y103.521 E.95609
G1 X98.539 Y103.521 E.03249
G1 X111.497 Y116.479 E.95609
G1 X110.875 Y116.479 E.03249
G1 X97.917 Y103.521 E.95609
G1 X97.294 Y103.521 E.03249
G1 X110.252 Y116.479 E.95609
G1 X109.629 Y116.479 E.03249
G1 X96.671 Y103.521 E.95609
G1 X96.049 Y103.521 E.03249
G1 X109.006 Y116.479 E.95609
G1 X108.384 Y116.479 E.03249
G1 X95.426 Y103.521 E.95609
G1 X94.803 Y103.521 E.03249
G1 X107.761 Y116.479 E.95609
G1 X107.138 Y116.479 E.03249
G1 X94.18 Y103.521 E.95609
G1 X93.558 Y103.521 E.03249
G1 X106.516 Y116.479 E.95609
G1 X105.893 Y116.479 E.03249
G1 X92.95 Y103.536 E.95495
M73 P5 R19
G1 X92.49 Y103.597 E.02422
G1 X92.418 Y103.627 E.00407
G1 X105.27 Y116.479 E.94828
G1 X104.648 Y116.479 E.03249
G1 X91.985 Y103.817 E.93428
G1 X91.633 Y104.087 E.02317
G1 X104.025 Y116.479 E.91433
G1 X103.402 Y116.479 E.03249
G1 X91.356 Y104.433 E.88878
G1 X91.294 Y104.515 E.00537
G1 X91.154 Y104.853 E.0191
G1 X102.779 Y116.479 E.85779
G1 X102.157 Y116.479 E.03249
G1 X91.047 Y105.369 E.81972
G1 X91.021 Y105.567 E.0104
G1 X91.021 Y105.966 E.02082
G1 X101.534 Y116.479 E.77569
G1 X100.911 Y116.479 E.03249
G1 X91.021 Y106.589 E.72974
G1 X91.021 Y107.211 E.03249
G1 X100.289 Y116.479 E.6838
G1 X99.666 Y116.479 E.03249
G1 X91.021 Y107.834 E.63785
G1 X91.021 Y108.457 E.03249
G1 X99.043 Y116.479 E.59191
G1 X98.421 Y116.479 E.03249
G1 X91.021 Y109.079 E.54596
G1 X91.021 Y109.702 E.03249
G1 X97.798 Y116.479 E.50002
G1 X97.175 Y116.479 E.03249
G1 X91.021 Y110.325 E.45407
G1 X91.021 Y110.948 E.03249
G1 X96.552 Y116.479 E.40812
G1 X95.93 Y116.479 E.03249
G1 X91.021 Y111.57 E.36218
G1 X91.021 Y112.193 E.03249
G1 X95.307 Y116.479 E.31623
G1 X94.684 Y116.479 E.03249
G1 X91.021 Y112.816 E.27029
G1 X91.021 Y113.438 E.03249
G1 X94.062 Y116.479 E.22434
M73 P6 R19
G1 X93.439 Y116.479 E.03249
G1 X91.021 Y114.061 E.1784
G1 X91.021 Y114.433 E.01941
G1 X91.059 Y114.722 E.0152
G1 X92.778 Y116.441 E.12684
G1 X92.49 Y116.403 E.01516
G1 X92.015 Y116.206 E.02683
G1 X91.61 Y115.895 E.02663
G1 X90.998 Y115.284 E.04513
; stop printing object retraction_tower.stl id:0 copy 0
;LAYER_CHANGE
;Z:0.5
;HEIGHT:0.2
;BEFORE_LAYER_CHANGE
;0.5
G92 E0

;WIPE_START
G1 F1200
G1 X91.352 Y115.637
;WIPE_END
EXCLUDE_OBJECT_END NAME=retraction_tower.stl_id_0_copy_0
;_SET_FAN_SPEED_CHANGING_LAYER
; Calib_Retraction_tower: Z_HEIGHT: 0.5, length:0
M104 S240 ; set nozzle temperature
M140 S80 ; set bed temperature
; printing object retraction_tower.stl id:0 copy 0
EXCLUDE_OBJECT_START NAME=retraction_tower.stl_id_0_copy_0
G1 X127.624 Y103.169 Z.5 F9000
;TYPE:Inner wall
;WIDTH:0.449999
G1 F4800
G1 X128.206 Y103.41 E.02026
G1 X128.706 Y103.794 E.02025
G1 X129.09 Y104.294 E.02025
G1 X129.331 Y104.875 E.02026
G1 X129.418 Y105.71 E.02699
G1 X129.418 Y114.462 E.28141
G1 X129.331 Y115.124 E.02149
G1 X129.09 Y115.706 E.02026
G1 X128.706 Y116.206 E.02025
G1 X128.206 Y116.59 E.02025
G1 X127.625 Y116.831 E.02026
G1 X126.962 Y116.918 E.02149
G1 X93.038 Y116.918 E1.09086
G1 X92.376 Y116.831 E.02149
G1 X91.794 Y116.59 E.02026
G1 X91.294 Y116.206 E.02025
G1 X90.91 Y115.706 E.02025
G1 X90.669 Y115.125 E.02026
G1 X90.582 Y114.462 E.02149
G1 X90.582 Y105.538 E.28695
G1 X90.669 Y104.876 E.02149
G1 X90.91 Y104.294 E.02026
G1 X91.294 Y103.794 E.02025
G1 X91.794 Y103.41 E.02025
G1 X92.375 Y103.169 E.02026
G1 X93.038 Y103.082 E.02149
G1 X126.962 Y103.082 E1.09086
G1 X127.585 Y103.164 E.02021
G1 X127.724 Y102.797 F9000
;TYPE:Outer wall
;WIDTH:0.399999
G1 F3000
G1 X128.399 Y103.077 E.02061
G1 X128.979 Y103.521 E.0206
G1 X129.423 Y104.101 E.0206
G1 X129.703 Y104.776 E.02061
G1 X129.8 Y105.71 E.02651
G1 X129.8 Y114.487 E.24755
G1 X129.703 Y115.224 E.02098
G1 X129.423 Y115.899 E.02061
G1 X128.979 Y116.479 E.0206
G1 X128.399 Y116.923 E.0206
G1 X127.724 Y117.203 E.02061
G1 X126.987 Y117.3 E.02098
G1 X93.013 Y117.3 E.95829
G1 X92.276 Y117.203 E.02098
G1 X91.601 Y116.923 E.02061
G1 X91.021 Y116.479 E.0206
G1 X90.577 Y115.899 E.0206
G1 X90.297 Y115.224 E.02061
G1 X90.2 Y114.487 E.02098
G1 X90.2 Y105.513 E.25312
G1 X90.297 Y104.776 E.02098
G1 X90.577 Y104.101 E.02061
G1 X91.021 Y103.521 E.0206
G1 X91.601 Y103.077 E.0206
G1 X92.276 Y102.797 E.02061
G1 X93.013 Y102.7 E.02098
G1 X126.987 Y102.7 E.95829
G1 X127.685 Y102.792 E.01985
;WIPE_START
G1 X128.149 Y102.977
;WIPE_END
G1 X127.246 Y116.752 F9000
;TYPE:Internal solid infill
;WIDTH:0.400161
G1 F4800
G1 X129.065 Y114.933 E.07259
G1 X129.129 Y114.363 E.01618
G1 X126.863 Y116.629 E.09045
G1 X126.358 Y116.629 E.01426
G1 X129.129 Y113.858 E.11061
G1 X129.129 Y113.353 E.01426
G1 X125.853 Y116.629 E.13078
G1 X125.347 Y116.629 E.01426
G1 X129.129 Y112.847 E.15094
G1 X129.129 Y112.342 E.01426
G1 X124.842 Y116.629 E.1711
G1 X124.337 Y116.629 E.01426
G1 X129.129 Y111.837 E.19126
G1 X129.129 Y111.332 E.01426
G1 X123.832 Y116.629 E.21143
G1 X123.326 Y116.629 E.01426
G1 X129.129 Y110.826 E.23159
G1 X129.129 Y110.321 E.01426
G1 X122.821 Y116.629 E.25175
G1 X122.316 Y116.629 E.01426
G1 X129.129 Y109.816 E.27191
G1 X129.129 Y109.311 E.01426
G1 X121.811 Y116.629 E.29207
G1 X121.306 Y116.629 E.01426
G1 X129.129 Y108.806 E.31224
G1 X129.129 Y108.3 E.01426
G1 X120.8 Y116.629 E.3324
G1 X120.295 Y116.629 E.01426
G1 X129.129 Y107.795 E.35256
G1 X129.129 Y107.29 E.01426
G1 X119.79 Y116.629 E.37272
G1 X119.285 Y116.629 E.01426
G1 X129.129 Y106.785 E.39289
G1 X129.129 Y106.28 E.01426
G1 X118.78 Y116.629 E.41305
G1 X118.274 Y116.629 E.01426
G1 X129.129 Y105.774 E.43321
G1 X129.129 Y105.557 E.00613
G1 X129.096 Y105.303 E.00724
G1 X117.769 Y116.629 E.45204
G1 X117.264 Y116.629 E.01426
G1 X129.018 Y104.875 E.4691
G1 X128.87 Y104.518 E.01091
G1 X116.759 Y116.629 E.48336
G1 X116.253 Y116.629 E.01426
G1 X128.667 Y104.216 E.49539
G1 X128.5 Y104 E.00771
M73 P7 R19
G1 X128.431 Y103.946 E.00246
G1 X115.748 Y116.629 E.50616
G1 X115.243 Y116.629 E.01426
G1 X128.145 Y103.727 E.51491
G1 X128.061 Y103.662 E.003
G1 X127.809 Y103.558 E.00769
G1 X114.738 Y116.629 E.52166
G1 X114.233 Y116.629 E.01426
G1 X127.428 Y103.434 E.5266
G1 X126.981 Y103.376 E.01271
G1 X113.727 Y116.629 E.52894
G1 X113.222 Y116.629 E.01426
G1 X126.481 Y103.371 E.52914
G1 X125.976 Y103.371 E.01426
G1 X112.717 Y116.629 E.52914
G1 X112.212 Y116.629 E.01426
G1 X125.471 Y103.371 E.52914
G1 X124.965 Y103.371 E.01426
G1 X111.707 Y116.629 E.52914
G1 X111.201 Y116.629 E.01426
G1 X124.46 Y103.371 E.52914
G1 X123.955 Y103.371 E.01426
G1 X110.696 Y116.629 E.52914
G1 X110.191 Y116.629 E.01426
G1 X123.45 Y103.371 E.52914
G1 X122.945 Y103.371 E.01426
G1 X109.686 Y116.629 E.52914
G1 X109.18 Y116.629 E.01426
G1 X122.439 Y103.371 E.52914
G1 X121.934 Y103.371 E.01426
G1 X108.675 Y116.629 E.52914
G1 X108.17 Y116.629 E.01426
G1 X121.429 Y103.371 E.52914
G1 X120.924 Y103.371 E.01426
G1 X107.665 Y116.629 E.52914
G1 X107.16 Y116.629 E.01426
G1 X120.419 Y103.371 E.52914
G1 X119.913 Y103.371 E.01426
G1 X106.654 Y116.629 E.52914
G1 X106.149 Y116.629 E.01426
G1 X119.408 Y103.371 E.52914
G1 X118.903 Y103.371 E.01426
G1 X105.644 Y116.629 E.52914
G1 X105.139 Y116.629 E.01426
G1 X118.398 Y103.371 E.52914
G1 X117.892 Y103.371 E.01426
G1 X104.634 Y116.629 E.52914
G1 X104.128 Y116.629 E.01426
G1 X117.387 Y103.371 E.52914
G1 X116.882 Y103.371 E.01426
G1 X103.623 Y116.629 E.52914
G1 X103.118 Y116.629 E.01426
G1 X116.377 Y103.371 E.52914
M73 P7 R18
G1 X115.872 Y103.371 E.01426
G1 X102.613 Y116.629 E.52914
G1 X102.107 Y116.629 E.01426
G1 X115.366 Y103.371 E.52914
G1 X114.861 Y103.371 E.01426
G1 X101.602 Y116.629 E.52914
G1 X101.097 Y116.629 E.01426
G1 X114.356 Y103.371 E.52914
G1 X113.851 Y103.371 E.01426
G1 X100.592 Y116.629 E.52914
G1 X100.087 Y116.629 E.01426
G1 X113.346 Y103.371 E.52914
M73 P8 R18
G1 X112.84 Y103.371 E.01426
G1 X99.581 Y116.629 E.52914
G1 X99.076 Y116.629 E.01426
G1 X112.335 Y103.371 E.52914
G1 X111.83 Y103.371 E.01426
G1 X98.571 Y116.629 E.52914
G1 X98.066 Y116.629 E.01426
G1 X111.325 Y103.371 E.52914
G1 X110.819 Y103.371 E.01426
G1 X97.561 Y116.629 E.52914
G1 X97.055 Y116.629 E.01426
G1 X110.314 Y103.371 E.52914
G1 X109.809 Y103.371 E.01426
G1 X96.55 Y116.629 E.52914
G1 X96.045 Y116.629 E.01426
G1 X109.304 Y103.371 E.52914
G1 X108.799 Y103.371 E.01426
G1 X95.54 Y116.629 E.52914
G1 X95.034 Y116.629 E.01426
G1 X108.293 Y103.371 E.52914
G1 X107.788 Y103.371 E.01426
G1 X94.529 Y116.629 E.52914
G1 X94.024 Y116.629 E.01426
G1 X107.283 Y103.371 E.52914
G1 X106.778 Y103.371 E.01426
G1 X93.519 Y116.629 E.52914
G1 X93.019 Y116.624 E.01411
G1 X106.273 Y103.371 E.52894
G1 X105.767 Y103.371 E.01426
G1 X92.572 Y116.566 E.5266
G1 X92.451 Y116.55 E.00346
G1 X92.191 Y116.442 E.00794
G1 X105.262 Y103.371 E.52166
G1 X104.757 Y103.371 E.01426
G1 X91.855 Y116.273 E.51491
G1 X91.569 Y116.054 E.01017
G1 X104.252 Y103.371 E.50616
G1 X103.746 Y103.371 E.01426
G1 X91.333 Y115.784 E.49539
G1 X91.162 Y115.561 E.00792
G1 X91.13 Y115.482 E.00241
G1 X103.241 Y103.371 E.48335
G1 X102.736 Y103.371 E.01426
G1 X90.982 Y115.125 E.4691
G1 X90.95 Y115.049 E.00231
G1 X90.904 Y114.697 E.01002
G1 X102.231 Y103.371 E.45203
G1 X101.726 Y103.371 E.01426
G1 X90.871 Y114.226 E.43321
G1 X90.871 Y113.72 E.01426
G1 X101.22 Y103.371 E.41305
G1 X100.715 Y103.371 E.01426
G1 X90.871 Y113.215 E.39288
G1 X90.871 Y112.71 E.01426
G1 X100.21 Y103.371 E.37272
G1 X99.705 Y103.371 E.01426
G1 X90.871 Y112.205 E.35256
G1 X90.871 Y111.7 E.01426
G1 X99.2 Y103.371 E.3324
G1 X98.694 Y103.371 E.01426
G1 X90.871 Y111.194 E.31223
G1 X90.871 Y110.689 E.01426
G1 X98.189 Y103.371 E.29207
G1 X97.684 Y103.371 E.01426
G1 X90.871 Y110.184 E.27191
G1 X90.871 Y109.679 E.01426
G1 X97.179 Y103.371 E.25175
G1 X96.673 Y103.371 E.01426
G1 X90.871 Y109.173 E.23158
G1 X90.871 Y108.668 E.01426
G1 X96.168 Y103.371 E.21142
M73 P9 R18
G1 X95.663 Y103.371 E.01426
G1 X90.871 Y108.163 E.19126
G1 X90.871 Y107.658 E.01426
G1 X95.158 Y103.371 E.1711
G1 X94.653 Y103.371 E.01426
G1 X90.871 Y107.153 E.15094
G1 X90.871 Y106.647 E.01426
G1 X94.147 Y103.371 E.13077
G1 X93.642 Y103.371 E.01426
G1 X90.871 Y106.142 E.11061
G1 X90.871 Y105.637 E.01426
G1 X93.137 Y103.371 E.09045
