; HEADER_BLOCK_START
; generated by OrcaSlicer 1.7.0 on 2023-11-18 at 18:35:29
; total layer number: 132
; HEADER_BLOCK_END

; THUMBNAIL_BLOCK_START
; THUMBNAIL_BLOCK_END

; external perimeters extrusion width = 0.40mm
; perimeters extrusion width = 0.45mm
; infill extrusion width = 0.45mm
; solid infill extrusion width = 0.40mm
; top infill extrusion width = 0.40mm
; first layer extrusion width = 0.50mm

; EXECUTABLE_BLOCK_START
EXCLUDE_OBJECT_DEFINE NAME=retraction_tower.stl_id_0_copy_0 CENTER=110,110 POLYGON=[[90,105.5],[90.1022,104.724],[90.4019,104],[90.8787,103.379],[91.5,102.902],[92.2235,102.602],[93,102.5],[127,102.5],[127.776,102.602],[128.5,102.902],[129.121,103.379],[129.598,104],[129.898,104.724],[130,105.5],[130,114.5],[129.898,115.276],[129.598,116],[129.121,116.621],[128.5,117.098],[127.776,117.398],[127,117.5],[93,117.5],[92.2235,117.398],[91.5,117.098],[90.8787,116.621],[90.4019,116],[90.1022,115.276],[90,114.5],[90,105.5]]
M73 P0 R21
;TYPE:Custom
START_PRINT EXTRUDER_TEMP=255  BED_TEMP=80
G90
G21
M83 ; use relative distances for extrusion
; filament start gcode
M106 S0
;LAYER_CHANGE
;Z:0.2
;HEIGHT:0.2
;BEFORE_LAYER_CHANGE
;0.2
G92 E0

G1 E-4 F1800
;_SET_FAN_SPEED_CHANGING_LAYER
; Calib_Retraction_tower: Z_HEIGHT: 0.2, length:1
SET_VELOCITY_LIMIT SQUARE_CORNER_VELOCITY=8
G1 X83.122 Y93.269 F12000
G1 Z.4
G1 Z.2
G1 E4 F1800
;TYPE:Skirt
;WIDTH:0.5
G1 F900
G1 X83.743 Y92.793 E.02828
G1 X86.624 Y91.129 E.1201
G1 X87.347 Y90.83 E.02828
G1 X90.56 Y89.969 E.1201
G1 X93 Y89.758 E.08842
G1 X127 Y89.758 E1.2276
G1 X128.663 Y89.867 E.06018
G1 X129.44 Y89.969 E.02828
G1 X132.653 Y90.83 E.1201
G1 X133.376 Y91.129 E.02828
G1 X136.257 Y92.793 E.12011
G1 X136.878 Y93.269 E.02828
G1 X139.231 Y95.622 E.1201
G1 X139.707 Y96.243 E.02828
G1 X141.371 Y99.124 E.1201
G1 X141.67 Y99.847 E.02828
G1 X142.531 Y103.06 E.12011
G1 X142.742 Y105.5 E.08842
G1 X142.742 Y114.5 E.32495
G1 X142.531 Y116.94 E.08842
G1 X141.67 Y120.153 E.12011
G1 X141.371 Y120.876 E.02828
G1 X139.707 Y123.757 E.1201
G1 X139.231 Y124.378 E.02828
G1 X136.878 Y126.731 E.1201
G1 X136.257 Y127.207 E.02828
G1 X133.376 Y128.871 E.12011
G1 X132.653 Y129.17 E.02828
G1 X129.44 Y130.031 E.12011
G1 X128.663 Y130.133 E.02828
G1 X127 Y130.242 E.06018
G1 X93 Y130.242 E1.2276
G1 X90.56 Y130.031 E.08842
G1 X87.347 Y129.17 E.12011
G1 X86.624 Y128.871 E.02828
G1 X83.743 Y127.207 E.12011
M73 P0 R20
G1 X83.122 Y126.731 E.02828
G1 X80.769 Y124.378 E.1201
G1 X80.293 Y123.757 E.02828
G1 X78.629 Y120.876 E.1201
G1 X78.33 Y120.153 E.02828
G1 X77.469 Y116.94 E.12011
G1 X77.258 Y114.5 E.08842
G1 X77.258 Y105.5 E.32495
M73 P1 R20
G1 X77.367 Y103.837 E.06018
G1 X77.469 Y103.06 E.02828
G1 X78.33 Y99.847 E.12011
G1 X78.629 Y99.124 E.02828
G1 X80.293 Y96.243 E.1201
G1 X80.769 Y95.622 E.02828
G1 X83.093 Y93.298 E.11866
G1 X83.4 Y93.632 F12000
G1 F900
G1 X84.021 Y93.155 E.02828
G1 X86.799 Y91.552 E.1158
G1 X87.522 Y91.252 E.02828
G1 X90.62 Y90.422 E.1158
G1 X93 Y90.215 E.08626
G1 X127 Y90.215 E1.2276
G1 X128.604 Y90.32 E.05802
G1 X129.38 Y90.422 E.02828
G1 X132.478 Y91.252 E.1158
G1 X133.201 Y91.552 E.02828
G1 X135.979 Y93.155 E.1158
G1 X136.6 Y93.632 E.02828
G1 X138.868 Y95.9 E.1158
G1 X139.345 Y96.521 E.02828
G1 X140.948 Y99.299 E.1158
G1 X141.248 Y100.022 E.02828
G1 X142.078 Y103.12 E.1158
G1 X142.285 Y105.5 E.08626
G1 X142.285 Y114.5 E.32495
G1 X142.078 Y116.88 E.08626
G1 X141.248 Y119.978 E.1158
G1 X140.948 Y120.701 E.02828
G1 X139.345 Y123.479 E.1158
G1 X138.868 Y124.1 E.02828
G1 X136.6 Y126.368 E.1158
G1 X135.979 Y126.845 E.02828
G1 X133.201 Y128.448 E.1158
G1 X132.478 Y128.748 E.02828
G1 X129.38 Y129.578 E.1158
G1 X128.604 Y129.68 E.02828
G1 X127 Y129.785 E.05802
G1 X93 Y129.785 E1.2276
G1 X90.62 Y129.578 E.08626
G1 X87.522 Y128.748 E.1158
G1 X86.799 Y128.448 E.02828
G1 X84.021 Y126.845 E.1158
G1 X83.4 Y126.368 E.02828
G1 X81.132 Y124.1 E.11579
G1 X80.655 Y123.479 E.02828
G1 X79.052 Y120.701 E.1158
G1 X78.752 Y119.978 E.02828
G1 X77.922 Y116.88 E.1158
G1 X77.715 Y114.5 E.08626
G1 X77.715 Y105.5 E.32495
G1 X77.82 Y103.896 E.05802
G1 X77.922 Y103.12 E.02828
G1 X78.752 Y100.022 E.1158
G1 X79.052 Y99.299 E.02828
M73 P2 R20
G1 X80.655 Y96.521 E.1158
G1 X81.132 Y95.9 E.02828
G1 X83.372 Y93.66 E.11435
G1 X83.678 Y93.995 F12000
G1 F900
G1 X84.299 Y93.518 E.02828
G1 X86.973 Y91.974 E.11149
G1 X87.697 Y91.674 E.02828
G1 X90.68 Y90.875 E.11149
G1 X93 Y90.672 E.0841
G1 X127 Y90.672 E1.2276
G1 X128.544 Y90.773 E.05586
G1 X129.32 Y90.875 E.02828
G1 X132.303 Y91.674 E.11149
G1 X133.027 Y91.974 E.02828
G1 X135.701 Y93.518 E.11149
G1 X136.322 Y93.995 E.02828
G1 X138.505 Y96.178 E.11149
G1 X138.982 Y96.799 E.02828
G1 X140.526 Y99.473 E.11149
G1 X140.826 Y100.197 E.02828
G1 X141.625 Y103.18 E.11149
G1 X141.828 Y105.5 E.0841
G1 X141.828 Y114.5 E.32495
G1 X141.625 Y116.82 E.0841
G1 X140.826 Y119.803 E.11149
G1 X140.526 Y120.527 E.02828
G1 X138.982 Y123.201 E.11149
G1 X138.505 Y123.822 E.02828
G1 X136.322 Y126.005 E.11149
G1 X135.701 Y126.482 E.02828
G1 X133.026 Y128.026 E.11149
G1 X132.303 Y128.326 E.02828
G1 X129.32 Y129.125 E.11149
G1 X128.544 Y129.227 E.02828
G1 X127 Y129.328 E.05586
G1 X93 Y129.328 E1.2276
G1 X90.68 Y129.125 E.0841
G1 X87.697 Y128.326 E.11149
G1 X86.973 Y128.026 E.02828
G1 X84.299 Y126.482 E.11149
G1 X83.678 Y126.005 E.02828
G1 X81.495 Y123.822 E.11149
G1 X81.018 Y123.201 E.02828
G1 X79.474 Y120.527 E.11149
G1 X79.174 Y119.803 E.02828
G1 X78.375 Y116.82 E.11149
G1 X78.172 Y114.5 E.0841
G1 X78.172 Y105.5 E.32495
G1 X78.273 Y103.956 E.05586
G1 X78.375 Y103.18 E.02828
G1 X79.174 Y100.197 E.11149
G1 X79.474 Y99.473 E.02828
G1 X81.018 Y96.799 E.11149
G1 X81.495 Y96.178 E.02828
G1 X83.65 Y94.023 E.11004
G1 X83.956 Y94.357 F12000
G1 F900
G1 X84.578 Y93.881 E.02828
G1 X87.148 Y92.396 E.10718
M73 P3 R20
G1 X87.872 Y92.097 E.02828
G1 X90.739 Y91.328 E.10718
G1 X93 Y91.129 E.08194
G1 X127 Y91.129 E1.2276
G1 X128.484 Y91.226 E.05371
G1 X129.261 Y91.328 E.02828
G1 X132.128 Y92.097 E.10718
G1 X132.852 Y92.396 E.02828
G1 X135.422 Y93.881 E.10718
G1 X136.044 Y94.357 E.02828
G1 X138.143 Y96.456 E.10718
G1 X138.619 Y97.078 E.02828
G1 X140.104 Y99.648 E.10718
G1 X140.403 Y100.372 E.02828
G1 X141.172 Y103.239 E.10718
G1 X141.371 Y105.5 E.08194
G1 X141.371 Y114.5 E.32495
G1 X141.172 Y116.761 E.08194
G1 X140.403 Y119.628 E.10718
G1 X140.104 Y120.352 E.02828
G1 X138.619 Y122.922 E.10718
G1 X138.143 Y123.544 E.02828
G1 X136.044 Y125.643 E.10718
G1 X135.422 Y126.119 E.02828
G1 X132.852 Y127.604 E.10718
G1 X132.128 Y127.903 E.02828
G1 X129.261 Y128.672 E.10718
G1 X127 Y128.871 E.08194
G1 X93 Y128.871 E1.2276
G1 X90.739 Y128.672 E.08194
G1 X87.872 Y127.903 E.10718
G1 X87.148 Y127.604 E.02828
G1 X84.578 Y126.119 E.10718
G1 X83.956 Y125.643 E.02828
G1 X81.857 Y123.544 E.10718
G1 X81.381 Y122.922 E.02828
G1 X79.896 Y120.352 E.10718
G1 X79.597 Y119.628 E.02828
G1 X78.828 Y116.761 E.10718
G1 X78.629 Y114.5 E.08194
G1 X78.629 Y105.5 E.32495
G1 X78.726 Y104.016 E.0537
G1 X78.828 Y103.239 E.02828
G1 X79.597 Y100.372 E.10718
G1 X79.896 Y99.648 E.02828
G1 X81.381 Y97.078 E.10718
G1 X81.857 Y96.456 E.02828
G1 X83.928 Y94.386 E.10574
G1 X84.235 Y94.72 F12000
G1 F900
G1 X84.856 Y94.243 E.02828
G1 X87.323 Y92.819 E.10287
G1 X88.047 Y92.519 E.02828
G1 X90.799 Y91.781 E.10287
G1 X93 Y91.586 E.07978
G1 X127 Y91.586 E1.2276
M73 P4 R20
G1 X128.425 Y91.679 E.05155
G1 X129.201 Y91.781 E.02828
G1 X131.953 Y92.519 E.10287
G1 X132.677 Y92.819 E.02828
G1 X135.144 Y94.243 E.10287
G1 X135.765 Y94.72 E.02828
G1 X137.78 Y96.735 E.10287
G1 X138.257 Y97.356 E.02828
G1 X139.681 Y99.823 E.10287
G1 X139.981 Y100.547 E.02828
G1 X140.719 Y103.299 E.10287
G1 X140.914 Y105.5 E.07978
G1 X140.914 Y114.5 E.32495
G1 X140.719 Y116.701 E.07978
G1 X139.981 Y119.453 E.10287
G1 X139.681 Y120.177 E.02828
G1 X138.257 Y122.644 E.10287
G1 X137.78 Y123.265 E.02828
G1 X135.765 Y125.28 E.10287
G1 X135.144 Y125.757 E.02828
G1 X132.677 Y127.181 E.10287
G1 X131.953 Y127.481 E.02828
G1 X129.201 Y128.219 E.10287
G1 X127 Y128.414 E.07978
G1 X93 Y128.414 E1.2276
G1 X90.799 Y128.219 E.07978
G1 X88.047 Y127.481 E.10287
G1 X87.323 Y127.181 E.02828
G1 X84.856 Y125.757 E.10287
G1 X84.235 Y125.28 E.02828
G1 X82.22 Y123.265 E.10287
G1 X81.743 Y122.644 E.02828
G1 X80.319 Y120.177 E.10287
G1 X80.019 Y119.453 E.02828
G1 X79.281 Y116.701 E.10287
G1 X79.086 Y114.5 E.07978
G1 X79.086 Y105.5 E.32495
G1 X79.179 Y104.075 E.05155
G1 X79.281 Y103.299 E.02828
G1 X80.019 Y100.547 E.10287
G1 X80.319 Y99.823 E.02828
G1 X81.743 Y97.356 E.10287
G1 X82.22 Y96.735 E.02828
G1 X84.206 Y94.748 E.10143
G1 X84.513 Y95.083 F12000
G1 F900
G1 X85.134 Y94.606 E.02828
G1 X87.498 Y93.241 E.09856
G1 X88.222 Y92.941 E.02828
G1 X90.859 Y92.235 E.09856
G1 X93 Y92.043 E.07763
G1 X127 Y92.043 E1.2276
M73 P5 R20
G1 X128.365 Y92.132 E.04939
G1 X129.141 Y92.235 E.02828
G1 X131.778 Y92.941 E.09856
G1 X132.502 Y93.241 E.02828
G1 X134.866 Y94.606 E.09856
G1 X135.487 Y95.083 E.02828
G1 X137.417 Y97.013 E.09856
G1 X137.894 Y97.634 E.02828
G1 X139.259 Y99.998 E.09856
G1 X139.559 Y100.722 E.02828
G1 X140.265 Y103.359 E.09856
G1 X140.457 Y105.5 E.07763
G1 X140.457 Y114.5 E.32495
G1 X140.265 Y116.641 E.07763
G1 X139.559 Y119.278 E.09856
G1 X139.259 Y120.002 E.02828
G1 X137.894 Y122.366 E.09856
G1 X137.417 Y122.987 E.02828
G1 X135.487 Y124.917 E.09856
G1 X134.866 Y125.394 E.02828
G1 X132.502 Y126.759 E.09856
G1 X131.778 Y127.059 E.02828
G1 X129.141 Y127.765 E.09856
G1 X127 Y127.957 E.07763
G1 X93 Y127.957 E1.2276
G1 X90.859 Y127.765 E.07763
G1 X88.222 Y127.059 E.09856
G1 X87.498 Y126.759 E.02828
G1 X85.134 Y125.394 E.09856
G1 X84.513 Y124.917 E.02828
G1 X82.583 Y122.987 E.09856
G1 X82.106 Y122.366 E.02828
G1 X80.741 Y120.002 E.09856
G1 X80.441 Y119.278 E.02828
G1 X79.735 Y116.641 E.09856
G1 X79.543 Y114.5 E.07763
M73 P5 R19
G1 X79.543 Y105.5 E.32495
G1 X79.632 Y104.135 E.04939
G1 X79.735 Y103.359 E.02828
G1 X80.441 Y100.722 E.09856
G1 X80.741 Y99.998 E.02828
G1 X82.106 Y97.634 E.09856
G1 X82.583 Y97.013 E.02828
G1 X84.485 Y95.111 E.09712
; printing object retraction_tower.stl id:0 copy 0
G1 E-.7 F1800
;WIPE_START
G1 F900
G1 X85.134 Y94.606 E-.24685
G1 X85.288 Y94.517 E-.05315
;WIPE_END
EXCLUDE_OBJECT_START NAME=retraction_tower.stl_id_0_copy_0
G17
G3 Z.6 I-.28 J1.184 P1  F12000
G1 X129.209 Y104.908 Z.6
G1 Z.2
G1 E1 F1800
;TYPE:Inner wall
;WIDTH:0.499999
G1 F900
G1 X129.293 Y105.71 E.02913
G1 X129.293 Y114.454 E.31568
G1 X129.209 Y115.092 E.02324
G1 X128.98 Y115.643 E.02155
G1 X128.617 Y116.117 E.02155
G1 X128.143 Y116.48 E.02155
G1 X127.592 Y116.709 E.02155
G1 X126.954 Y116.793 E.02324
G1 X93.046 Y116.793 E1.22426
M73 P6 R19
G1 X92.408 Y116.709 E.02324
G1 X91.857 Y116.48 E.02155
G1 X91.383 Y116.117 E.02155
G1 X91.02 Y115.643 E.02155
G1 X90.791 Y115.092 E.02155
G1 X90.707 Y114.454 E.02324
G1 X90.707 Y105.546 E.32161
G1 X90.791 Y104.908 E.02324
G1 X91.02 Y104.357 E.02155
G1 X91.383 Y103.883 E.02155
G1 X91.857 Y103.52 E.02155
G1 X92.408 Y103.291 E.02155
G1 X93.046 Y103.207 E.02324
G1 X126.954 Y103.207 E1.22426
G1 X127.592 Y103.291 E.02324
G1 X128.143 Y103.52 E.02155
G1 X128.617 Y103.883 E.02155
G1 X128.98 Y104.357 E.02155
G1 X129.194 Y104.871 E.02011
G1 X129.654 Y104.789 F12000
;TYPE:Outer wall
G1 F900
G1 X129.75 Y105.71 E.03346
G1 X129.75 Y114.484 E.31676
G1 X129.654 Y115.211 E.0265
G1 X129.38 Y115.874 E.0259
G1 X128.943 Y116.443 E.0259
G1 X128.374 Y116.88 E.0259
G1 X127.711 Y117.154 E.0259
G1 X126.984 Y117.25 E.0265
G1 X93.016 Y117.25 E1.22642
G1 X92.289 Y117.154 E.0265
G1 X91.626 Y116.88 E.0259
G1 X91.057 Y116.443 E.0259
G1 X90.62 Y115.874 E.0259
G1 X90.346 Y115.211 E.0259
G1 X90.25 Y114.484 E.0265
G1 X90.25 Y105.516 E.32377
G1 X90.346 Y104.789 E.0265
G1 X90.62 Y104.126 E.0259
G1 X91.057 Y103.557 E.0259
G1 X91.626 Y103.12 E.0259
G1 X92.289 Y102.846 E.0259
G1 X93.016 Y102.75 E.0265
G1 X126.984 Y102.75 E1.22642
G1 X127.711 Y102.846 E.0265
G1 X128.374 Y103.12 E.0259
G1 X128.943 Y103.557 E.0259
G1 X129.38 Y104.126 E.0259
G1 X129.639 Y104.752 E.02446
G1 E-1 F1800
G17
G3 Z.6 I.541 J-1.09 P1  F12000
G1 X127.07 Y103.476 Z.6
G1 Z.2
G1 E1 F1800
;TYPE:Bottom surface
;WIDTH:0.5
G1 F1200
G1 X129.024 Y105.43 E.09979
G1 X129.042 Y106.094
G1 X126.406 Y103.458 E.13458
G1 X125.759 Y103.458
G1 X129.042 Y106.741 E.16759
G1 X129.042 Y107.387
G1 X125.113 Y103.458 E.20059
M73 P7 R19
G1 X124.467 Y103.458
G1 X129.042 Y108.033 E.2336
G1 X129.042 Y108.68
G1 X123.82 Y103.458 E.26661
G1 X123.174 Y103.458
G1 X129.042 Y109.326 E.29961
G1 X129.042 Y109.973
G1 X122.527 Y103.458 E.33262
G1 X121.881 Y103.458
G1 X129.042 Y110.619 E.36563
G1 X129.042 Y111.265
G1 X121.235 Y103.458 E.39863
G1 X120.588 Y103.458
G1 X129.042 Y111.912 E.43164
G1 X129.042 Y112.558
G1 X119.942 Y103.458 E.46465
G1 X119.295 Y103.458
G1 X129.042 Y113.205 E.49765
G1 X129.042 Y113.851
G1 X118.649 Y103.458 E.53066
G1 X118.003 Y103.458
G1 X129.035 Y114.49 E.56331
G1 X128.952 Y115.055
G1 X117.356 Y103.458 E.59212
G1 X116.71 Y103.458
G1 X128.763 Y115.512 E.61545
G1 X128.483 Y115.878
G1 X116.063 Y103.458 E.63418
G1 X115.417 Y103.458
G1 X128.131 Y116.173 E.64922
G1 X127.703 Y116.391
G1 X114.771 Y103.458 E.66035
G1 X114.124 Y103.458
G1 X127.176 Y116.51 E.66644
G1 X126.561 Y116.542
G1 X113.478 Y103.458 E.66804
M73 P8 R19
G1 X112.831 Y103.458
G1 X125.914 Y116.542 E.66804
G1 X125.268 Y116.542
G1 X112.185 Y103.458 E.66804
G1 X111.538 Y103.458
G1 X124.622 Y116.542 E.66804
G1 X123.975 Y116.542
G1 X110.892 Y103.458 E.66804
G1 X110.246 Y103.458
G1 X123.329 Y116.542 E.66804
G1 X122.682 Y116.542
G1 X109.599 Y103.458 E.66804
G1 X108.953 Y103.458
G1 X122.036 Y116.542 E.66804
G1 X121.39 Y116.542
G1 X108.306 Y103.458 E.66804
G1 X107.66 Y103.458
G1 X120.743 Y116.542 E.66804
G1 X120.097 Y116.542
G1 X107.014 Y103.458 E.66804
G1 X106.367 Y103.458
G1 X119.45 Y116.542 E.66804
G1 X118.804 Y116.542
G1 X105.721 Y103.458 E.66804
G1 X105.074 Y103.458
G1 X118.157 Y116.542 E.66804
M73 P9 R19
G1 X117.511 Y116.542
G1 X104.428 Y103.458 E.66804
G1 X103.782 Y103.458
G1 X116.865 Y116.542 E.66804
G1 X116.218 Y116.542
G1 X103.135 Y103.458 E.66804
G1 X102.489 Y103.458
G1 X115.572 Y116.542 E.66804
G1 X114.925 Y116.542
G1 X101.842 Y103.458 E.66804
G1 X101.196 Y103.458
G1 X114.279 Y116.542 E.66804
G1 X113.633 Y116.542
G1 X100.55 Y103.458 E.66804
G1 X99.903 Y103.458
G1 X112.986 Y116.542 E.66804
G1 X112.34 Y116.542
G1 X99.257 Y103.458 E.66804
G1 X98.61 Y103.458
G1 X111.693 Y116.542 E.66804
G1 X111.047 Y116.542
G1 X97.964 Y103.458 E.66804
G1 X97.318 Y103.458
G1 X110.401 Y116.542 E.66804
G1 X109.754 Y116.542
G1 X96.671 Y103.458 E.66804
M73 P10 R19
G1 X96.025 Y103.458
G1 X109.108 Y116.542 E.66804
G1 X108.461 Y116.542
G1 X95.378 Y103.458 E.66804
G1 X94.732 Y103.458
G1 X107.815 Y116.542 E.66804
G1 X107.169 Y116.542
G1 X94.085 Y103.458 E.66804
M73 P10 R18
G1 X93.439 Y103.458
G1 X106.522 Y116.542 E.66804
G1 X105.876 Y116.542
G1 X92.824 Y103.49 E.66644
G1 X92.297 Y103.609
G1 X105.229 Y116.542 E.66034
G1 X104.583 Y116.542
G1 X91.869 Y103.827 E.64921
G1 X91.517 Y104.122
G1 X103.937 Y116.542 E.63418
G1 X103.29 Y116.542
G1 X91.237 Y104.488 E.61545
G1 X91.048 Y104.946
G1 X102.644 Y116.542 E.59211
G1 X101.997 Y116.542
G1 X90.965 Y105.51 E.5633
G1 X90.958 Y106.149
G1 X101.351 Y116.542 E.53065
M73 P11 R18
G1 X100.704 Y116.542
G1 X90.958 Y106.796 E.49765
G1 X90.958 Y107.442
G1 X100.058 Y116.542 E.46464
G1 X99.412 Y116.542
G1 X90.958 Y108.088 E.43163
G1 X90.958 Y108.735
G1 X98.765 Y116.542 E.39863
G1 X98.119 Y116.542
G1 X90.958 Y109.381 E.36562
G1 X90.958 Y110.028
G1 X97.472 Y116.542 E.33261
G1 X96.826 Y116.542
G1 X90.958 Y110.674 E.29961
G1 X90.958 Y111.32
G1 X96.18 Y116.542 E.2666
G1 X95.533 Y116.542
G1 X90.958 Y111.967 E.23359
G1 X90.958 Y112.613
G1 X94.887 Y116.542 E.20059
G1 X94.24 Y116.542
G1 X90.958 Y113.26 E.16758
G1 X90.958 Y113.906
G1 X93.594 Y116.542 E.13457
G1 X92.93 Y116.524
G1 X90.976 Y114.57 E.09978
G1 E-1 F1800
G17
G3 Z.6 I-.943 J.77 P1  F12000
G1 X92.533 Y116.476 Z.6
G1 Z.2
G1 E1 F1800
;TYPE:Gap infill
;WIDTH:0.0977696
G1 F900
G1 X92.478 Y116.449 E.00026
;WIDTH:0.119382
G1 X92.391 Y116.391 E.00063
;WIDTH:0.160224
G1 X92.304 Y116.333 E.00097
;WIDTH:0.201066
G1 X92.217 Y116.275 E.00131
;WIDTH:0.241907
