; HEADER_BLOCK_START
; generated by OrcaSlicer 1.7.0 on 2023-11-09 at 23:07:48
; total layer number: 132
; HEADER_BLOCK_END

; THUMBNAIL_BLOCK_START
; THUMBNAIL_BLOCK_END

; external perimeters extrusion width = 0.40mm
; perimeters extrusion width = 0.45mm
; infill extrusion width = 0.45mm
; solid infill extrusion width = 0.40mm
; top infill extrusion width = 0.40mm
; first layer extrusion width = 0.50mm

; EXECUTABLE_BLOCK_START
EXCLUDE_OBJECT_DEFINE NAME=retraction_tower.stl_id_0_copy_0 CENTER=110,110 POLYGON=[[90,105.5],[90.1022,104.724],[90.4019,104],[90.8787,103.379],[91.5,102.902],[92.2235,102.602],[93,102.5],[127,102.5],[127.776,102.602],[128.5,102.902],[129.121,103.379],[129.598,104],[129.898,104.724],[130,105.5],[130,114.5],[129.898,115.276],[129.598,116],[129.121,116.621],[128.5,117.098],[127.776,117.398],[127,117.5],[93,117.5],[92.2235,117.398],[91.5,117.098],[90.8787,116.621],[90.4019,116],[90.1022,115.276],[90,114.5],[90,105.5]]
M73 P0 R20
;TYPE:Custom
START_PRINT EXTRUDER_TEMP=240  BED_TEMP=80
G90
G21
M83 ; use relative distances for extrusion
; filament start gcode
M106 S0
;LAYER_CHANGE
;Z:0.2
;HEIGHT:0.2
;BEFORE_LAYER_CHANGE
;0.2
G92 E0

G1 E-6 F1800
;_SET_FAN_SPEED_CHANGING_LAYER
; Calib_Retraction_tower: Z_HEIGHT: 0.2, length:1
SET_VELOCITY_LIMIT ACCEL=500 ACCEL_TO_DECEL=250
G1 Z.4 F12000
G1 X83.122 Y93.269
G1 Z.4
G1 Z.2
G1 E6 F1800
;TYPE:Skirt
;WIDTH:0.5
G1 F900
G1 X83.743 Y92.793 E.02976
G1 X86.624 Y91.129 E.12643
G1 X87.347 Y90.83 E.02976
G1 X90.56 Y89.969 E.12643
G1 X93 Y89.758 E.09307
G1 X127 Y89.758 E1.29222
G1 X128.663 Y89.867 E.06335
G1 X129.44 Y89.969 E.02976
G1 X132.653 Y90.83 E.12643
G1 X133.376 Y91.129 E.02976
G1 X136.257 Y92.793 E.12643
G1 X136.878 Y93.269 E.02976
G1 X139.231 Y95.622 E.12643
G1 X139.707 Y96.243 E.02976
G1 X141.371 Y99.124 E.12643
G1 X141.67 Y99.847 E.02976
G1 X142.531 Y103.06 E.12643
G1 X142.742 Y105.5 E.09307
G1 X142.742 Y114.5 E.34206
G1 X142.531 Y116.94 E.09307
G1 X141.67 Y120.153 E.12643
G1 X141.371 Y120.876 E.02976
G1 X139.707 Y123.757 E.12643
G1 X139.231 Y124.378 E.02977
G1 X136.878 Y126.731 E.12643
G1 X136.257 Y127.207 E.02976
G1 X133.376 Y128.871 E.12643
G1 X132.653 Y129.17 E.02976
G1 X129.44 Y130.031 E.12643
G1 X128.663 Y130.133 E.02976
G1 X127 Y130.242 E.06335
G1 X93 Y130.242 E1.29222
G1 X90.56 Y130.031 E.09307
G1 X87.347 Y129.17 E.12643
G1 X86.624 Y128.871 E.02976
G1 X83.743 Y127.207 E.12643
G1 X83.122 Y126.731 E.02976
G1 X80.769 Y124.378 E.12642
G1 X80.293 Y123.757 E.02977
G1 X78.629 Y120.876 E.12642
G1 X78.33 Y120.153 E.02976
G1 X77.469 Y116.94 E.12643
G1 X77.258 Y114.5 E.09307
G1 X77.258 Y105.5 E.34206
M73 P1 R20
G1 X77.367 Y103.837 E.06335
G1 X77.469 Y103.06 E.02976
G1 X78.33 Y99.847 E.12643
G1 X78.629 Y99.124 E.02976
G1 X80.293 Y96.243 E.12643
G1 X80.769 Y95.622 E.02976
G1 X83.093 Y93.298 E.12491
G1 X83.4 Y93.632 F12000
G1 F900
G1 X84.021 Y93.155 E.02976
G1 X86.799 Y91.552 E.12189
G1 X87.522 Y91.252 E.02976
G1 X90.62 Y90.422 E.12189
G1 X93 Y90.215 E.0908
G1 X127 Y90.215 E1.29222
G1 X128.604 Y90.32 E.06108
G1 X129.38 Y90.422 E.02976
G1 X132.478 Y91.252 E.12189
G1 X133.201 Y91.552 E.02976
G1 X135.979 Y93.155 E.12189
G1 X136.6 Y93.632 E.02976
G1 X138.868 Y95.9 E.12189
G1 X139.345 Y96.521 E.02976
G1 X140.948 Y99.299 E.12189
G1 X141.248 Y100.022 E.02976
G1 X142.078 Y103.12 E.12189
G1 X142.285 Y105.5 E.0908
G1 X142.285 Y114.5 E.34206
G1 X142.078 Y116.88 E.0908
G1 X141.248 Y119.978 E.12189
G1 X140.948 Y120.701 E.02976
G1 X139.345 Y123.479 E.12189
G1 X138.868 Y124.1 E.02977
G1 X136.6 Y126.368 E.12189
G1 X135.979 Y126.845 E.02976
G1 X133.201 Y128.448 E.12189
G1 X132.478 Y128.748 E.02976
G1 X129.38 Y129.578 E.12189
G1 X128.604 Y129.68 E.02976
G1 X127 Y129.785 E.06108
G1 X93 Y129.785 E1.29222
G1 X90.62 Y129.578 E.0908
G1 X87.522 Y128.748 E.12189
G1 X86.799 Y128.448 E.02976
G1 X84.021 Y126.845 E.12189
G1 X83.4 Y126.368 E.02976
G1 X81.132 Y124.1 E.12189
G1 X80.655 Y123.479 E.02977
G1 X79.052 Y120.701 E.12189
G1 X78.752 Y119.978 E.02976
G1 X77.922 Y116.88 E.12189
G1 X77.715 Y114.5 E.0908
G1 X77.715 Y105.5 E.34206
M73 P2 R20
G1 X77.82 Y103.896 E.06108
G1 X77.922 Y103.12 E.02976
G1 X78.752 Y100.022 E.12189
G1 X79.052 Y99.299 E.02976
G1 X80.655 Y96.521 E.12189
G1 X81.132 Y95.9 E.02976
G1 X83.372 Y93.66 E.12037
G1 X83.678 Y93.995 F12000
G1 F900
G1 X84.299 Y93.518 E.02976
G1 X86.973 Y91.974 E.11736
G1 X87.697 Y91.674 E.02976
G1 X90.68 Y90.875 E.11736
G1 X93 Y90.672 E.08853
G1 X127 Y90.672 E1.29222
G1 X128.544 Y90.773 E.0588
G1 X129.32 Y90.875 E.02976
G1 X132.303 Y91.674 E.11736
G1 X133.027 Y91.974 E.02976
G1 X135.701 Y93.518 E.11736
G1 X136.322 Y93.995 E.02976
G1 X138.505 Y96.178 E.11736
G1 X138.982 Y96.799 E.02976
G1 X140.526 Y99.473 E.11736
G1 X140.826 Y100.197 E.02976
G1 X141.625 Y103.18 E.11736
G1 X141.828 Y105.5 E.08853
G1 X141.828 Y114.5 E.34206
G1 X141.625 Y116.82 E.08853
G1 X140.826 Y119.803 E.11736
G1 X140.526 Y120.527 E.02976
G1 X138.982 Y123.201 E.11736
G1 X138.505 Y123.822 E.02977
G1 X136.322 Y126.005 E.11736
G1 X135.701 Y126.482 E.02976
G1 X133.026 Y128.026 E.11736
G1 X132.303 Y128.326 E.02976
G1 X129.32 Y129.125 E.11736
G1 X128.544 Y129.227 E.02976
G1 X127 Y129.328 E.0588
G1 X93 Y129.328 E1.29222
G1 X90.68 Y129.125 E.08853
G1 X87.697 Y128.326 E.11736
G1 X86.973 Y128.026 E.02976
G1 X84.299 Y126.482 E.11736
G1 X83.678 Y126.005 E.02976
G1 X81.495 Y123.822 E.11735
G1 X81.018 Y123.201 E.02977
G1 X79.474 Y120.527 E.11736
G1 X79.174 Y119.803 E.02976
G1 X78.375 Y116.82 E.11736
G1 X78.172 Y114.5 E.08853
G1 X78.172 Y105.5 E.34206
G1 X78.273 Y103.956 E.0588
G1 X78.375 Y103.18 E.02976
G1 X79.174 Y100.197 E.11736
M73 P3 R20
G1 X79.474 Y99.473 E.02976
G1 X81.018 Y96.799 E.11736
G1 X81.495 Y96.178 E.02976
G1 X83.65 Y94.023 E.11584
G1 X83.956 Y94.357 F12000
G1 F900
G1 X84.578 Y93.881 E.02976
G1 X87.148 Y92.396 E.11282
G1 X87.872 Y92.097 E.02976
G1 X90.739 Y91.328 E.11282
G1 X93 Y91.129 E.08626
G1 X127 Y91.129 E1.29222
G1 X128.484 Y91.226 E.05653
G1 X129.261 Y91.328 E.02976
G1 X132.128 Y92.097 E.11282
G1 X132.852 Y92.396 E.02976
G1 X135.422 Y93.881 E.11282
G1 X136.044 Y94.357 E.02976
G1 X138.143 Y96.456 E.11282
G1 X138.619 Y97.078 E.02976
G1 X140.104 Y99.648 E.11282
G1 X140.403 Y100.372 E.02976
G1 X141.172 Y103.239 E.11282
G1 X141.371 Y105.5 E.08625
G1 X141.371 Y114.5 E.34206
G1 X141.172 Y116.761 E.08625
G1 X140.403 Y119.628 E.11282
G1 X140.104 Y120.352 E.02976
G1 X138.619 Y122.922 E.11282
G1 X138.143 Y123.544 E.02977
G1 X136.044 Y125.643 E.11282
G1 X135.422 Y126.119 E.02976
G1 X132.852 Y127.604 E.11282
G1 X132.128 Y127.903 E.02976
G1 X129.261 Y128.672 E.11282
G1 X127 Y128.871 E.08625
G1 X93 Y128.871 E1.29222
G1 X90.739 Y128.672 E.08625
G1 X87.872 Y127.903 E.11282
G1 X87.148 Y127.604 E.02976
G1 X84.578 Y126.119 E.11282
G1 X83.956 Y125.643 E.02976
G1 X81.857 Y123.544 E.11282
G1 X81.381 Y122.922 E.02977
G1 X79.896 Y120.352 E.11282
G1 X79.597 Y119.628 E.02976
G1 X78.828 Y116.761 E.11282
G1 X78.629 Y114.5 E.08625
G1 X78.629 Y105.5 E.34206
G1 X78.726 Y104.016 E.05653
G1 X78.828 Y103.239 E.02976
G1 X79.597 Y100.372 E.11282
G1 X79.896 Y99.648 E.02976
G1 X81.381 Y97.078 E.11282
M73 P3 R19
G1 X81.857 Y96.456 E.02976
G1 X83.928 Y94.386 E.1113
G1 X84.235 Y94.72 F12000
G1 F900
G1 X84.856 Y94.243 E.02976
G1 X87.323 Y92.819 E.10829
M73 P4 R19
G1 X88.047 Y92.519 E.02976
G1 X90.799 Y91.781 E.10829
G1 X93 Y91.586 E.08398
G1 X127 Y91.586 E1.29222
G1 X128.425 Y91.679 E.05426
G1 X129.201 Y91.781 E.02976
G1 X131.953 Y92.519 E.10829
G1 X132.677 Y92.819 E.02976
G1 X135.144 Y94.243 E.10829
G1 X135.765 Y94.72 E.02976
G1 X137.78 Y96.735 E.10829
G1 X138.257 Y97.356 E.02976
G1 X139.681 Y99.823 E.10829
G1 X139.981 Y100.547 E.02976
G1 X140.719 Y103.299 E.10829
G1 X140.914 Y105.5 E.08398
G1 X140.914 Y114.5 E.34206
G1 X140.719 Y116.701 E.08398
G1 X139.981 Y119.453 E.10829
G1 X139.681 Y120.177 E.02976
G1 X138.257 Y122.644 E.10829
G1 X137.78 Y123.265 E.02977
G1 X135.765 Y125.28 E.10829
G1 X135.144 Y125.757 E.02976
G1 X132.677 Y127.181 E.10829
G1 X131.953 Y127.481 E.02976
G1 X129.201 Y128.219 E.10829
G1 X127 Y128.414 E.08398
G1 X93 Y128.414 E1.29222
G1 X90.799 Y128.219 E.08398
G1 X88.047 Y127.481 E.10829
G1 X87.323 Y127.181 E.02976
G1 X84.856 Y125.757 E.10829
G1 X84.235 Y125.28 E.02976
G1 X82.22 Y123.265 E.10828
G1 X81.743 Y122.644 E.02977
G1 X80.319 Y120.177 E.10829
G1 X80.019 Y119.453 E.02976
G1 X79.281 Y116.701 E.10829
G1 X79.086 Y114.5 E.08398
G1 X79.086 Y105.5 E.34206
G1 X79.179 Y104.075 E.05426
G1 X79.281 Y103.299 E.02976
G1 X80.019 Y100.547 E.10829
G1 X80.319 Y99.823 E.02976
G1 X81.743 Y97.356 E.10829
G1 X82.22 Y96.735 E.02976
G1 X84.206 Y94.748 E.10677
G1 X84.513 Y95.083 F12000
G1 F900
G1 X85.134 Y94.606 E.02976
G1 X87.498 Y93.241 E.10375
G1 X88.222 Y92.941 E.02976
G1 X90.859 Y92.235 E.10375
G1 X93 Y92.043 E.08171
G1 X127 Y92.043 E1.29222
M73 P5 R19
G1 X128.365 Y92.132 E.05199
G1 X129.141 Y92.235 E.02976
G1 X131.778 Y92.941 E.10375
G1 X132.502 Y93.241 E.02976
G1 X134.866 Y94.606 E.10375
G1 X135.487 Y95.083 E.02976
G1 X137.417 Y97.013 E.10375
G1 X137.894 Y97.634 E.02976
G1 X139.259 Y99.998 E.10375
G1 X139.559 Y100.722 E.02976
G1 X140.265 Y103.359 E.10375
G1 X140.457 Y105.5 E.08171
G1 X140.457 Y114.5 E.34206
G1 X140.265 Y116.641 E.08171
G1 X139.559 Y119.278 E.10375
G1 X139.259 Y120.002 E.02976
G1 X137.894 Y122.366 E.10375
G1 X137.417 Y122.987 E.02977
G1 X135.487 Y124.917 E.10375
G1 X134.866 Y125.394 E.02976
G1 X132.502 Y126.759 E.10375
G1 X131.778 Y127.059 E.02976
G1 X129.141 Y127.765 E.10375
G1 X127 Y127.957 E.08171
G1 X93 Y127.957 E1.29222
G1 X90.859 Y127.765 E.08171
G1 X88.222 Y127.059 E.10375
G1 X87.498 Y126.759 E.02976
G1 X85.134 Y125.394 E.10375
G1 X84.513 Y124.917 E.02976
G1 X82.583 Y122.987 E.10375
G1 X82.106 Y122.366 E.02977
G1 X80.741 Y120.002 E.10375
G1 X80.441 Y119.278 E.02976
G1 X79.735 Y116.641 E.10375
G1 X79.543 Y114.5 E.08171
G1 X79.543 Y105.5 E.34206
G1 X79.632 Y104.135 E.05199
G1 X79.735 Y103.359 E.02976
G1 X80.441 Y100.722 E.10375
G1 X80.741 Y99.998 E.02976
G1 X82.106 Y97.634 E.10375
G1 X82.583 Y97.013 E.02976
G1 X84.485 Y95.111 E.10223
; printing object retraction_tower.stl id:0 copy 0
G1 E-.7 F1800
;WIPE_START
G1 F900
G1 X85.134 Y94.606 E-.24685
G1 X85.288 Y94.517 E-.05315
;WIPE_END
EXCLUDE_OBJECT_START NAME=retraction_tower.stl_id_0_copy_0
G1 Z.6 F12000
G1 X129.209 Y104.908 Z.6
G1 Z.2
G1 E1 F1800
;TYPE:Inner wall
;WIDTH:0.499999
G1 F900
G1 X129.293 Y105.71 E.03066
G1 X129.293 Y114.454 E.3323
G1 X129.209 Y115.092 E.02447
G1 X128.98 Y115.643 E.02269
G1 X128.617 Y116.117 E.02269
G1 X128.143 Y116.48 E.02269
G1 X127.592 Y116.709 E.02269
G1 X126.954 Y116.793 E.02447
G1 X93.046 Y116.793 E1.28869
M73 P6 R19
G1 X92.408 Y116.709 E.02447
G1 X91.857 Y116.48 E.02269
G1 X91.383 Y116.117 E.02269
G1 X91.02 Y115.643 E.02269
G1 X90.791 Y115.092 E.02269
G1 X90.707 Y114.454 E.02447
G1 X90.707 Y105.546 E.33853
G1 X90.791 Y104.908 E.02447
G1 X91.02 Y104.357 E.02269
G1 X91.383 Y103.883 E.02269
G1 X91.857 Y103.52 E.02269
G1 X92.408 Y103.291 E.02269
G1 X93.046 Y103.207 E.02447
G1 X126.954 Y103.207 E1.28869
G1 X127.592 Y103.291 E.02447
G1 X128.143 Y103.52 E.02269
G1 X128.617 Y103.883 E.02269
G1 X128.98 Y104.357 E.02269
G1 X129.194 Y104.871 E.02117
G1 X129.654 Y104.789 F12000
;TYPE:Outer wall
G1 F900
G1 X129.75 Y105.71 E.03522
G1 X129.75 Y114.484 E.33344
G1 X129.654 Y115.211 E.02789
G1 X129.38 Y115.874 E.02726
G1 X128.943 Y116.443 E.02726
G1 X128.374 Y116.88 E.02726
G1 X127.711 Y117.154 E.02726
G1 X126.984 Y117.25 E.02789
G1 X93.016 Y117.25 E1.29097
G1 X92.289 Y117.154 E.02789
G1 X91.626 Y116.88 E.02726
G1 X91.057 Y116.443 E.02726
G1 X90.62 Y115.874 E.02726
G1 X90.346 Y115.211 E.02726
G1 X90.25 Y114.484 E.02789
G1 X90.25 Y105.516 E.34081
G1 X90.346 Y104.789 E.02789
G1 X90.62 Y104.126 E.02726
G1 X91.057 Y103.557 E.02726
G1 X91.626 Y103.12 E.02726
G1 X92.289 Y102.846 E.02726
G1 X93.016 Y102.75 E.02789
G1 X126.984 Y102.75 E1.29097
G1 X127.711 Y102.846 E.02789
G1 X128.374 Y103.12 E.02726
G1 X128.943 Y103.557 E.02726
G1 X129.38 Y104.126 E.02726
G1 X129.639 Y104.752 E.02574
G1 X128.676 Y104.541 F12000
;TYPE:Bottom surface
;WIDTH:0.5
G1 F1200
G1 X128.931 Y105.497 E.03761
M73 P7 R19
G1 X127.957 Y103.823 F12000
G1 F1200
G1 X128.167 Y104.421 E.02407
G1 X128.522 Y105.724 E.05133
G1 X128.784 Y107.049 E.05134
G1 X128.941 Y108.306 E.04812
G1 E-1 F1800
G1 Z.6 F12000
G1 X128.815 Y115.122 Z.6
G1 Z.2
G1 E1 F1800
G1 F1200
G1 X128.894 Y114.787 E.0131
G1 E-1 F1800
G1 Z.6 F12000
G1 X128.941 Y111.739 Z.6
G1 Z.2
G1 E1 F1800
G1 F1200
G1 X128.879 Y112.437 E.02664
G1 X128.663 Y113.771 E.05138
G1 X128.354 Y115.087 E.05138
G1 X128.031 Y116.123 E.04124
G1 X127.462 Y116.371 F12000
G1 F1200
G1 X127.535 Y116.185 E.0076
G1 X127.929 Y114.908 E.05077
G1 X128.23 Y113.607 E.05076
G1 X128.436 Y112.288 E.05076
G1 X128.548 Y110.957 E.05075
G1 X128.564 Y109.622 E.05074
G1 X128.483 Y108.29 E.05073
G1 X128.307 Y106.966 E.05073
G1 X128.037 Y105.66 E.05072
G1 X127.673 Y104.376 E.05071
G1 X127.399 Y103.621 E.03053
G1 X126.887 Y103.559 F12000
G1 F1200
G1 X127.147 Y104.24 E.02772
G1 X127.526 Y105.503 E.05008
G1 X127.812 Y106.789 E.05009
G1 X128.003 Y108.093 E.0501
G1 X128.1 Y109.408 E.0501
G1 X128.1 Y110.726 E.05011
G1 X128.005 Y112.042 E.05012
G1 X127.814 Y113.347 E.05013
G1 X127.528 Y114.635 E.05013
G1 X127.15 Y115.898 E.05014
G1 X126.944 Y116.439 E.02199
G1 X126.458 Y116.441 F12000
G1 F1200
G1 X126.799 Y115.506 E.03784
G1 X127.153 Y114.252 E.0495
G1 X127.414 Y112.976 E.0495
G1 X127.581 Y111.685 E.04949
G1 X127.652 Y110.385 E.04948
G1 X127.627 Y109.084 E.04947
G1 X127.506 Y107.788 E.04947
G1 X127.29 Y106.504 E.04946
G1 X126.98 Y105.241 E.04945
G1 X126.578 Y104.004 E.04944
G1 X126.397 Y103.559 E.01825
G1 X125.912 Y103.559 F12000
G1 F1200
G1 X126.39 Y104.864 E.05281
G1 X126.733 Y106.101 E.0488
G1 X126.983 Y107.361 E.04881
G1 X127.138 Y108.636 E.04882
G1 X127.197 Y109.919 E.04883
G1 X127.161 Y111.204 E.04883
G1 X127.028 Y112.482 E.04884
G1 X126.801 Y113.747 E.04885
G1 X126.48 Y114.992 E.04886
G1 X126.066 Y116.209 E.04886
G1 X125.968 Y116.441 E.00957
G1 X125.473 Y116.441 F12000
G1 F1200
G1 X125.818 Y115.555 E.03613
G1 X126.187 Y114.342 E.04821
G1 X126.464 Y113.104 E.0482
G1 X126.646 Y111.849 E.04819
G1 X126.733 Y110.584 E.04818
G1 X126.724 Y109.317 E.04818
G1 X126.618 Y108.054 E.04817
G1 X126.418 Y106.803 E.04816
G1 X126.124 Y105.57 E.04815
G1 X125.737 Y104.364 E.04814
G1 X125.409 Y103.559 E.03303
G1 X124.916 Y103.559 F12000
G1 F1200
G1 X125 Y103.737 E.00747
G1 X125.442 Y104.905 E.04748
G1 X125.792 Y106.104 E.04748
G1 X126.05 Y107.327 E.04749
G1 X126.214 Y108.566 E.0475
G1 X126.282 Y109.814 E.04751
G1 X126.253 Y111.064 E.04752
G1 X126.129 Y112.309 E.04753
G1 X125.91 Y113.54 E.04753
G1 X125.597 Y114.751 E.04754
G1 X125.192 Y115.935 E.04755
G1 X124.975 Y116.441 E.02094
G1 X124.479 Y116.441 F12000
G1 F1200
G1 X124.625 Y116.124 E.01325
G1 X125.051 Y114.967 E.04688
G1 X125.386 Y113.78 E.04687
G1 X125.628 Y112.571 E.04686
G1 X125.775 Y111.347 E.04686
G1 X125.826 Y110.115 E.04685
G1 X125.782 Y108.883 E.04684
G1 X125.641 Y107.659 E.04683
G1 X125.406 Y106.45 E.04682
G1 X125.078 Y105.263 E.04681
G1 X124.658 Y104.105 E.04681
G1 X124.41 Y103.559 E.02279
G1 X123.908 Y103.559 F12000
G1 F1200
G1 X124.236 Y104.281 E.03015
G1 X124.649 Y105.423 E.04612
G1 X124.97 Y106.593 E.04613
G1 X125.198 Y107.785 E.04614
G1 X125.331 Y108.992 E.04615
G1 X125.369 Y110.206 E.04616
G1 X125.31 Y111.42 E.04617
G1 X125.156 Y112.625 E.04618
G1 X124.907 Y113.814 E.04618
G1 X124.565 Y114.98 E.04619
G1 X124.132 Y116.116 E.0462
G1 X123.978 Y116.441 E.01366
G1 E-1 F1800
G1 Z.6 F12000
G1 X123.401 Y103.559 Z.6
G1 Z.2
G1 E1 F1800
G1 F1200
G1 X123.73 Y104.255 E.02924
G1 X124.152 Y105.373 E.04543
G1 X124.483 Y106.522 E.04544
G1 X124.721 Y107.694 E.04545
G1 X124.865 Y108.881 E.04546
G1 X124.912 Y110.076 E.04547
G1 X124.864 Y111.272 E.04547
G1 X124.72 Y112.46 E.04548
G1 X124.481 Y113.633 E.04549
G1 X124.149 Y114.783 E.0455
G1 X123.726 Y115.903 E.04551
G1 X123.472 Y116.441 E.0226
G1 X122.973 Y116.441 F12000
G1 F1200
G1 X123.409 Y115.474 E.04032
G1 X123.804 Y114.363 E.04481
G1 X124.108 Y113.224 E.0448
G1 X124.317 Y112.064 E.04479
G1 X124.432 Y110.892 E.04478
