; HEADER_BLOCK_START
; generated by OrcaSlicer 1.7.0 on 2023-11-07 at 00:01:02
; total layer number: 247
; HEADER_BLOCK_END

; THUMBNAIL_BLOCK_START
; THUMBNAIL_BLOCK_END

; external perimeters extrusion width = 0.40mm
; perimeters extrusion width = 0.45mm
; infill extrusion width = 0.45mm
; solid infill extrusion width = 0.40mm
; top infill extrusion width = 0.40mm
; first layer extrusion width = 0.50mm

; EXECUTABLE_BLOCK_START
EXCLUDE_OBJECT_DEFINE NAME=SchubUnten_id_0_copy_0 CENTER=109.998,110.002 POLYGON=[[92.23,183.995],[92.266,50.9952],[108.72,35.9997],[111.32,36.0004],[127.766,51.0048],[127.73,184.005],[92.23,183.995]]
M73 P0 R244
;TYPE:Custom
START_PRINT EXTRUDER_TEMP=245  BED_TEMP=80
G90
G21
M83 ; use relative distances for extrusion
; filament start gcode
M106 S0
;LAYER_CHANGE
;Z:0.2
;HEIGHT:0.2
;BEFORE_LAYER_CHANGE
;0.2
G92 E0

G1 E-6 F1800
;_SET_FAN_SPEED_CHANGING_LAYER
SET_VELOCITY_LIMIT ACCEL=500 ACCEL_TO_DECEL=250
G1 Z.4 F12000
G1 X81.094 Y44.867
G1 Z.4
G1 Z.2
G1 E6 F1800
;TYPE:Skirt
;WIDTH:0.5
G1 F900
G1 X82.964 Y42.287 E.12111
G1 X86.64 Y39.562 E.17391
G1 X103.092 Y31.466 E.69689
G1 X106.105 Y30.428 E.12111
G1 X108.722 Y30.157 E.09998
G1 X111.322 Y30.158 E.09882
G1 X114.483 Y30.557 E.12111
G1 X116.95 Y31.47 E.09998
G1 X133.398 Y39.575 E.69689
G1 X136.058 Y41.329 E.12111
G1 X138.199 Y43.689 E.12111
G1 X139.688 Y46.507 E.12111
G1 X140.508 Y51.008 E.17391
G1 X140.473 Y183.308 E5.02824
G1 X140.073 Y186.47 E.12111
G1 X138.902 Y189.433 E.12111
G1 X137.032 Y192.013 E.12111
G1 X134.581 Y194.049 E.12111
G1 X131.701 Y195.413 E.12111
G1 X127.727 Y196.047 E.15295
G1 X92.227 Y196.038 E1.34922
G1 X89.065 Y195.638 E.12111
G1 X86.102 Y194.467 E.12111
G1 X83.522 Y192.597 E.12111
G1 X81.486 Y190.146 E.12111
G1 X80.122 Y187.266 E.12111
G1 X79.488 Y183.292 E.15295
G1 X79.523 Y50.992 E5.02824
G1 X79.923 Y47.83 E.12111
G1 X81.079 Y44.904 E.11959
G1 X81.513 Y45.079 F12000
G1 F900
G1 X81.55 Y44.987 E.00376
G1 X83.415 Y42.475 E.11891
G1 X86.842 Y39.972 E.16129
G1 X103.294 Y31.876 E.69689
G1 X106.254 Y30.864 E.11891
G1 X108.721 Y30.614 E.09425
G1 X111.321 Y30.615 E.09882
G1 X114.425 Y31.014 E.11891
G1 X116.748 Y31.88 E.09425
G1 X133.196 Y39.985 E.69689
G1 X135.804 Y41.714 E.11891
G1 X137.89 Y44.045 E.11891
G1 X139.32 Y46.828 E.11891
G1 X140.051 Y51.008 E.16129
G1 X140.016 Y183.308 E5.02824
G1 X139.616 Y186.411 E.11891
G1 X138.446 Y189.313 E.11891
G1 X136.581 Y191.825 E.11891
G1 X134.142 Y193.784 E.11891
G1 X131.287 Y195.064 E.11891
G1 X127.727 Y195.59 E.13679
G1 X92.227 Y195.581 E1.34922
G1 X89.124 Y195.181 E.11891
G1 X86.222 Y194.011 E.11891
G1 X83.71 Y192.146 E.11891
G1 X81.751 Y189.707 E.11891
G1 X80.471 Y186.852 E.11891
G1 X79.945 Y183.292 E.13679
G1 X79.981 Y50.992 E5.02824
G1 X80.38 Y47.889 E.11891
G1 X81.498 Y45.116 E.11363
M73 P0 R243
G1 X81.93 Y45.294 F12000
G1 F900
G1 X82.006 Y45.11 E.00756
G1 X83.866 Y42.668 E.11667
G1 X87.044 Y40.382 E.14879
G1 X103.496 Y32.287 E.69689
G1 X106.403 Y31.3 E.11667
G1 X108.721 Y31.071 E.08855
G1 X111.321 Y31.072 E.09882
G1 X114.365 Y31.471 E.11667
G1 X116.546 Y32.29 E.08855
G1 X132.994 Y40.395 E.69689
G1 X135.548 Y42.097 E.11667
G1 X137.578 Y44.4 E.11667
G1 X138.947 Y47.147 E.11667
G1 X139.594 Y51.008 E.14879
G1 X139.558 Y183.308 E5.02824
G1 X139.159 Y186.352 E.11667
G1 X137.99 Y189.19 E.11667
G1 X136.131 Y191.632 E.11667
G1 X133.705 Y193.513 E.11667
G1 X130.877 Y194.707 E.11667
G1 X127.727 Y195.133 E.12081
G1 X92.227 Y195.124 E1.34922
G1 X89.183 Y194.724 E.11667
G1 X86.345 Y193.556 E.11667
G1 X83.903 Y191.696 E.11667
G1 X82.022 Y189.27 E.11667
G1 X80.828 Y186.442 E.11667
G1 X80.402 Y183.292 E.12081
G1 X80.438 Y50.992 E5.02824
G1 X80.837 Y47.948 E.11667
G1 X81.915 Y45.331 E.10759
G1 X82.345 Y45.512 F12000
G1 F900
G1 X82.461 Y45.235 E.0114
G1 X84.316 Y42.865 E.11438
G1 X87.245 Y40.792 E.1364
G1 X103.698 Y32.697 E.69689
G1 X106.55 Y31.737 E.11438
G1 X108.721 Y31.528 E.0829
G1 X111.321 Y31.529 E.09882
G1 X114.304 Y31.928 E.11438
G1 X116.344 Y32.7 E.0829
G1 X132.792 Y40.805 E.69689
G1 X135.292 Y42.48 E.11438
G1 X137.264 Y44.753 E.11438
G1 X138.572 Y47.464 E.11438
G1 X139.137 Y51.008 E.1364
G1 X139.101 Y183.308 E5.02824
G1 X138.702 Y186.291 E.11438
G1 X137.535 Y189.065 E.11438
G1 X135.68 Y191.435 E.11438
G1 X133.269 Y193.236 E.11438
G1 X130.47 Y194.341 E.11438
G1 X127.727 Y194.676 E.10503
G1 X92.227 Y194.666 E1.34922
G1 X89.244 Y194.267 E.11438
G1 X86.47 Y193.1 E.11438
G1 X84.1 Y191.245 E.11438
G1 X82.299 Y188.834 E.11438
G1 X81.194 Y186.035 E.11438
G1 X80.859 Y183.292 E.10503
G1 X80.895 Y50.992 E5.02824
G1 X81.294 Y48.009 E.11438
G1 X82.329 Y45.549 E.10146
G1 X82.758 Y45.733 F12000
G1 F900
G1 X82.917 Y45.364 E.0153
G1 X84.765 Y43.067 E.11205
G1 X87.447 Y41.202 E.12414
G1 X103.899 Y33.107 E.69689
G1 X106.696 Y32.174 E.11205
G1 X108.721 Y31.985 E.07729
G1 X111.321 Y31.986 E.09882
G1 X114.242 Y32.385 E.11205
G1 X116.142 Y33.11 E.07729
G1 X132.59 Y41.215 E.69689
G1 X135.034 Y42.863 E.11205
G1 X136.948 Y45.105 E.11205
G1 X138.192 Y47.778 E.11205
G1 X138.68 Y51.008 E.12414
G1 X138.644 Y183.308 E5.02824
M73 P0 R242
G1 X138.245 Y186.229 E.11205
G1 X137.079 Y188.936 E.11205
G1 X135.231 Y191.233 E.11205
G1 X132.835 Y192.951 E.11205
G1 X130.067 Y193.966 E.11205
G1 X127.727 Y194.219 E.08945
G1 X92.227 Y194.209 E1.34922
G1 X89.306 Y193.81 E.11205
G1 X86.599 Y192.644 E.11205
G1 X84.302 Y190.796 E.11205
G1 X82.584 Y188.4 E.11205
G1 X81.569 Y185.632 E.11205
G1 X81.316 Y183.292 E.08945
G1 X81.352 Y50.992 E5.02824
G1 X81.751 Y48.071 E.11205
G1 X82.742 Y45.77 E.09523
G1 X83.168 Y45.958 F12000
G1 F900
G1 X83.372 Y45.495 E.01925
G1 X85.214 Y43.274 E.10966
G1 X87.649 Y41.613 E.11202
G1 X104.101 Y33.517 E.69689
G1 X106.841 Y32.612 E.10966
G1 X108.721 Y32.443 E.07173
G1 X111.321 Y32.443 E.09882
G1 X114.179 Y32.842 E.10966
G1 X115.94 Y33.52 E.07173
G1 X132.388 Y41.625 E.69689
G1 X134.776 Y43.245 E.10966
G1 X136.629 Y45.456 E.10966
G1 X137.808 Y48.089 E.10966
G1 X138.223 Y51.008 E.11202
G1 X138.187 Y183.308 E5.02824
M73 P1 R242
G1 X137.788 Y186.165 E.10966
G1 X136.624 Y188.805 E.10966
G1 X134.782 Y191.026 E.10966
G1 X132.403 Y192.66 E.10966
G1 X129.669 Y193.581 E.10966
G1 X127.727 Y193.762 E.07411
G1 X92.227 Y193.752 E1.34922
G1 X89.37 Y193.353 E.10966
G1 X86.73 Y192.189 E.10966
G1 X84.509 Y190.347 E.10966
G1 X82.875 Y187.968 E.10966
G1 X81.954 Y185.234 E.10966
G1 X81.773 Y183.292 E.07411
G1 X81.809 Y50.992 E5.02824
G1 X82.208 Y48.135 E.10966
G1 X83.152 Y45.995 E.0889
; printing object SchubUnten id:0 copy 0
G1 E-4.2 F1800
;WIPE_START
G1 F900
G1 X83.372 Y45.495 E-.98354
G1 X83.662 Y45.146 E-.81646
;WIPE_END
EXCLUDE_OBJECT_START NAME=SchubUnten_id_0_copy_0
G1 Z.6 F12000
G1 X115.194 Y52.166 Z.6
G1 Z.2
G1 E6 F1800
;TYPE:Inner wall
;WIDTH:0.499999
G1 F900
G1 X126.601 Y52.169 E.43357
G1 X126.6 Y57.629 E.20755
G1 X126.566 Y182.14 E4.73219
G1 X115.607 Y182.137 E.41654
M73 P1 R241
G1 X115.645 Y182.023 E.00458
G1 X115.677 Y64.321 E4.4734
G1 X115.661 Y64.135 E.0071
G1 X115.523 Y63.75 E.01557
G1 X115.282 Y63.457 E.01442
G1 X115.081 Y63.372 E.0083
G1 X115.282 Y63.287 E.0083
G1 X115.524 Y62.995 E.01442
G1 X115.601 Y62.834 E.00678
G1 X115.677 Y62.423 E.01588
G1 X115.68 Y52.98 E.35889
G1 X115.451 Y52.294 E.02747
G1 X115.23 Y52.183 E.00942
G1 E-6 F1800
G1 Z.6 F12000
G1 X110.536 Y51.79 Z.6
G1 Z.2
G1 E6 F1800
;WIDTH:0.592813
G1 F900
G1 X109.495 Y51.789 E.04759
G1 X109.757 Y51.422 E.02063
G1 X109.77 Y51.222 E.00918
;WIDTH:0.550057
G1 X109.784 Y51.021 E.00846
;WIDTH:0.507301
G1 X109.786 Y44.068 E.2685
G1 X110.25 Y44.068 E.01793
G1 X110.248 Y51.022 E.2685
;WIDTH:0.550057
G1 X110.261 Y51.222 E.00846
;WIDTH:0.592813
G1 X110.275 Y51.422 E.00918
G1 X110.513 Y51.757 E.0188
G1 E-6 F1800
G1 Z.6 F12000
G1 X104.429 Y52.744 Z.6
G1 Z.2
G1 E6 F1800
;WIDTH:0.499999
G1 F900
G1 X104.351 Y52.977 E.00932
G1 X104.349 Y62.42 E.35889
G1 X104.364 Y62.606 E.0071
G1 X104.502 Y62.992 E.01557
G1 X104.744 Y63.284 E.01442
G1 X104.972 Y63.369 E.00926
G1 X104.744 Y63.454 E.00926
G1 X104.502 Y63.747 E.01442
G1 X104.425 Y63.908 E.00678
G1 X104.348 Y64.318 E.01588
G1 X104.316 Y182.02 E4.4734
G1 X104.354 Y182.134 E.00458
G1 X93.395 Y182.131 E.41654
G1 X93.43 Y52.16 E4.93974
G1 X104.79 Y52.163 E.43175
G1 X104.58 Y52.291 E.00936
G1 X104.442 Y52.707 E.01663
G1 X104.847 Y52.861 F12000
G1 F900
G1 X104.946 Y52.566 E.01182
;WIDTH:0.535899
G1 X105.158 Y52.416 E.01063
;WIDTH:0.571798
G1 X105.369 Y52.267 E.01141
G1 X105.494 Y52.26 E.00549
;WIDTH:0.564383
G1 X108.637 Y52.26 E.13628
G1 X108.982 Y52.277 E.01496
;WIDTH:0.532191
G1 X109.326 Y52.293 E.01404
;WIDTH:0.499999
G1 X110.705 Y52.293 E.05239
;WIDTH:0.532189
G1 X111.05 Y52.277 E.01404
;WIDTH:0.564379
G1 X111.394 Y52.261 E.01496
G1 X114.537 Y52.262 E.13628
G1 X114.811 Y52.415 E.01362
;WIDTH:0.532189
G1 X115.085 Y52.569 E.01278
;WIDTH:0.499999
G1 X115.223 Y52.98 E.01648
G1 X115.22 Y62.423 E.35889
G1 X115.174 Y62.669 E.00953
G1 X114.983 Y62.941 E.01264
;WIDTH:0.535091
G1 X114.534 Y63.126 E.01985
G1 X105.491 Y63.123 E.37007
G1 X105.043 Y62.939 E.01985
;WIDTH:0.499999
G1 X104.852 Y62.667 E.01264
G1 X104.806 Y62.42 E.00953
G1 X104.808 Y52.977 E.35889
G1 X104.834 Y52.899 E.00314
G1 X105.265 Y52.977 F12000
;TYPE:Outer wall
G1 F900
G1 X105.311 Y52.84 E.00549
G1 X105.494 Y52.749 E.00777
G1 X114.537 Y52.751 E.34369
G1 X114.72 Y52.843 E.00777
G1 X114.765 Y52.98 E.00549
G1 X114.763 Y62.423 E.35889
G1 X114.732 Y62.537 E.0045
G1 X114.534 Y62.651 E.00868
G1 X105.491 Y62.649 E.34369
G1 X105.342 Y62.593 E.00606
G1 X105.263 Y62.42 E.00722
G1 X105.265 Y53.017 E.35737
G1 E-6 F1800
G1 Z.6 F12000
G1 X111.25 Y51.678 Z.6
G1 Z.2
G1 E6 F1800
;TYPE:Inner wall
;WIDTH:0.564378
G1 F900
G1 X111.394 Y51.74 E.00683
G1 X114.537 Y51.74 E.13628
G1 X115.026 Y51.725 E.02123
;WIDTH:0.532189
G1 X115.516 Y51.709 E.01992
;WIDTH:0.499999
G1 X127.059 Y51.712 E.4387
G1 X127.057 Y57.63 E.22492
G1 X127.023 Y182.598 E4.74957
G1 X115.13 Y182.594 E.45201
G1 X114.957 Y182.612 E.00661
;WIDTH:0.465122
G1 X114.784 Y182.629 E.00611
;WIDTH:0.430245
G1 X114.611 Y182.646 E.0056
G1 X114.758 Y182.576 E.00524
;WIDTH:0.465122
G1 X114.904 Y182.505 E.00571
;WIDTH:0.499999
G1 X115.05 Y182.434 E.00618
G1 X115.188 Y182.023 E.01648
G1 X115.219 Y64.321 E4.4734
G1 X115.174 Y64.075 E.00953
G1 X114.983 Y63.803 E.01264
;WIDTH:0.53509
G1 X114.534 Y63.618 E.01985
G1 X105.491 Y63.616 E.37007
G1 X105.042 Y63.8 E.01985
;WIDTH:0.499999
G1 X104.851 Y64.072 E.01264
G1 X104.805 Y64.319 E.00953
G1 X104.773 Y182.02 E4.4734
M73 P1 R240
G1 X104.91 Y182.431 E.01648
G1 X105.093 Y182.504 E.00747
;WIDTH:0.461947
G1 X105.276 Y182.576 E.00685
;WIDTH:0.423895
G1 X105.459 Y182.649 E.00623
G1 X105.249 Y182.63 E.00666
;WIDTH:0.461947
G1 X105.04 Y182.611 E.00733
;WIDTH:0.499999
G1 X104.83 Y182.592 E.008
G1 X92.937 Y182.588 E.45201
G1 X92.973 Y51.702 E4.97448
G1 X104.516 Y51.706 E.4387
;WIDTH:0.532191
G1 X105.005 Y51.722 E.01992
;WIDTH:0.564383
G1 X105.494 Y51.738 E.02123
G1 X108.637 Y51.739 E.13628
;WIDTH:0.571796
G1 X108.762 Y51.732 E.00549
G1 X108.914 Y51.644 E.00775
;WIDTH:0.535898
G1 X109.067 Y51.556 E.00722
;WIDTH:0.499999
G1 X109.283 Y51.252 E.01415
G1 X109.323 Y51.021 E.00891
G1 X109.325 Y43.607 E.28179
G1 X110.711 Y43.607 E.05267
G1 X110.709 Y51.022 E.28179
G1 X110.749 Y51.253 E.00891
G1 X110.965 Y51.556 E.01415
;WIDTH:0.532189
G1 X111.18 Y51.648 E.0095
;WIDTH:0.564378
G1 X111.213 Y51.662 E.00157
G1 X111.394 Y51.25 F12000
;TYPE:Outer wall
;WIDTH:0.499999
G1 F900
G1 X127.516 Y51.255 E.61272
G1 X127.514 Y57.63 E.24229
G1 X127.48 Y183.055 E4.76694
G1 X92.48 Y183.045 E1.33022
G1 X92.516 Y51.245 E5.00923
G1 X108.637 Y51.25 E.61272
G1 X108.781 Y51.199 E.00577
G1 X108.866 Y51.021 E.00751
G1 X108.868 Y43.15 E.29916
G1 X111.168 Y43.15 E.08741
G1 X111.166 Y51.022 E.29916
G1 X111.251 Y51.2 E.00751
G1 X111.357 Y51.237 E.00425
G1 E-4.2 F1800
;WIPE_START
G1 F900
G1 X112.357 Y51.238 E-1.8
;WIPE_END
G1 Z.6 F12000
G1 X112.357 Y51.315 Z.6
G1 X114.83 Y52.687
G1 X115.201 Y53.828
G1 X115.199 Y62.059
G1 X114.891 Y64.205
G1 X114.76 Y64.289
G1 Z.2
G1 E6 F1800
G1 F900
G1 X114.731 Y182.023 E4.47464
G1 X114.685 Y182.16 E.00549
G1 X114.502 Y182.251 E.00777
G1 X105.459 Y182.249 E.34369
G1 X105.276 Y182.157 E.00777
G1 X105.231 Y182.02 E.00549
G1 X105.262 Y64.319 E4.4734
M73 P2 R240
G1 X105.293 Y64.204 E.0045
G1 X105.341 Y64.146 E.00288
G1 X105.491 Y64.09 E.00606
G1 X114.534 Y64.093 E.34369
G1 X114.683 Y64.148 E.00606
G1 X114.741 Y64.253 E.00455
G1 E-6 F1800
G1 Z.6 F12000
G1 X114.611 Y182.646 Z.6
G1 Z.2
G1 E6 F1800
;TYPE:Inner wall
;WIDTH:0.395368
G1 F900
G1 X114.502 Y182.651 E.00321
;WIDTH:0.385844
G1 X105.459 Y182.649 E.25785
G1 X103.964 Y181.744 F12000
;TYPE:Bottom surface
;WIDTH:0.5
G1 F1200
G1 X103.516 Y181.782 E.01709
G1 E-6 F1800
M73 P2 R239
G1 Z.6 F12000
G1 X103.966 Y177.616 Z.6
G1 Z.2
G1 E6 F1800
G1 F1200
G1 X102.634 Y177.726 E.05077
G1 X100.222 Y177.829 E.09177
G1 X97.807 Y177.836 E.09177
G1 X95.394 Y177.747 E.09177
G1 X93.748 Y177.621 E.06277
G1 X93.748 Y177.17 F12000
G1 F1200
G1 X96.042 Y177.323 E.08739
G1 X98.447 Y177.386 E.09142
G1 X100.852 Y177.354 E.09142
G1 X103.254 Y177.226 E.09142
G1 X103.966 Y177.159 E.02717
G1 X103.966 Y175.79 F12000
G1 F1200
G1 X101.74 Y175.945 E.0848
G1 X99.363 Y176.014 E.09037
G1 X96.986 Y175.987 E.09038
G1 X94.611 Y175.865 E.09038
G1 X93.748 Y175.785 E.03292
G1 X93.748 Y175.336 F12000
G1 F1200
G1 X96.202 Y175.5 E.09346
G1 X98.57 Y175.559 E.09003
G1 X100.938 Y175.521 E.09002
G1 X103.303 Y175.388 E.09002
G1 X103.966 Y175.324 E.02532
G1 X103.966 Y174.874 F12000
G1 F1200
G1 X101.571 Y175.038 E.09124
G1 X99.213 Y175.101 E.08967
G1 X96.854 Y175.068 E.08967
G1 X94.498 Y174.94 E.08968
G1 X93.749 Y174.868 E.0286
G1 X93.749 Y174.412 F12000
G1 F1200
G1 X94.235 Y174.461 E.01859
G1 X96.581 Y174.601 E.08932
G1 X98.931 Y174.645 E.08932
G1 X101.28 Y174.593 E.08932
G1 X103.626 Y174.445 E.08931
G1 X103.966 Y174.41 E.01302
G1 X103.967 Y173.946 F12000
G1 F1200
G1 X102.42 Y174.075 E.05898
G1 X100.082 Y174.174 E.08896
G1 X97.741 Y174.177 E.08896
G1 X95.402 Y174.085 E.08897
G1 X93.749 Y173.951 E.06303
G1 X93.749 Y173.495 F12000
G1 F1200
G1 X95.661 Y173.642 E.07287
G1 X97.99 Y173.725 E.08861
G1 X100.322 Y173.711 E.08861
G1 X102.65 Y173.602 E.0886
G1 X103.967 Y173.486 E.05022
G1 X103.967 Y173.033 F12000
G1 F1200
G1 X101.989 Y173.185 E.0754
G1 X99.668 Y173.268 E.08825
G1 X97.346 Y173.254 E.08825
G1 X95.027 Y173.144 E.08825
G1 X93.749 Y173.031 E.04876
G1 X93.749 Y172.58 F12000
G1 F1200
G1 X95.826 Y172.735 E.07917
G1 X98.138 Y172.812 E.08789
G1 X100.45 Y172.793 E.08789
G1 X102.76 Y172.678 E.08788
G1 X103.967 Y172.568 E.04608
G1 E-6 F1800
G1 Z.6 F12000
G1 X103.968 Y170.272 Z.6
G1 Z.2
G1 E6 F1800
G1 F1200
G1 X102.823 Y170.382 E.04369
G1 X100.562 Y170.504 E.08606
G1 X98.298 Y170.529 E.08607
G1 X96.034 Y170.458 E.08607
G1 X93.75 Y170.288 E.08707
G1 X93.75 Y170.736 F12000
G1 F1200
G1 X94.955 Y170.848 E.04599
G1 X97.226 Y170.964 E.08644
G1 X99.5 Y170.984 E.08643
G1 X101.773 Y170.908 E.08643
G1 X103.967 Y170.742 E.08365
G1 X103.967 Y171.195 F12000
G1 F1200
G1 X102.152 Y171.344 E.06922
G1 X99.87 Y171.436 E.0868
G1 X97.587 Y171.431 E.0868
G1 X95.305 Y171.331 E.0868
G1 X93.75 Y171.196 E.05934
G1 X93.749 Y171.654 F12000
G1 F1200
G1 X94.809 Y171.754 E.04045
G1 X97.099 Y171.875 E.08717
G1 X99.393 Y171.9 E.08716
G1 X101.685 Y171.829 E.08716
G1 X103.967 Y171.662 E.08698
G1 X103.967 Y172.109 F12000
G1 F1200
G1 X102.653 Y172.228 E.05015
G1 X100.353 Y172.339 E.08752
G1 X98.05 Y172.354 E.08753
G1 X95.748 Y172.273 E.08753
G1 X93.749 Y172.119 E.07619
G1 E-6 F1800
G1 Z.6 F12000
G1 X93.75 Y169.824 Z.6
G1 Z.2
G1 E6 F1800
G1 F1200
G1 X96.282 Y170.013 E.0965
G1 X98.536 Y170.073 E.0857
G1 X100.79 Y170.038 E.0857
G1 X103.041 Y169.907 E.08569
G1 X103.968 Y169.814 E.03539
G1 X103.968 Y169.355 F12000
G1 F1200
G1 X102.444 Y169.493 E.05815
G1 X100.202 Y169.599 E.08532
G1 X97.957 Y169.61 E.08533
G1 X95.713 Y169.524 E.08533
G1 X93.75 Y169.365 E.07485
G1 X93.75 Y168.901 F12000
G1 F1200
G1 X94.347 Y168.966 E.02281
G1 X96.577 Y169.111 E.08496
G1 X98.812 Y169.16 E.08496
G1 X101.047 Y169.113 E.08495
G1 X103.277 Y168.97 E.08495
G1 X103.968 Y168.896 E.02639
G1 X103.968 Y168.437 F12000
G1 F1200
G1 X103.31 Y168.509 E.02517
