; HEADER_BLOCK_START
; generated by OrcaSlicer 1.7.0 on 2023-11-11 at 10:56:54
; total layer number: 246
; HEADER_BLOCK_END

; THUMBNAIL_BLOCK_START
; THUMBNAIL_BLOCK_END

; external perimeters extrusion width = 0.40mm
; perimeters extrusion width = 0.45mm
; infill extrusion width = 0.45mm
; solid infill extrusion width = 0.40mm
; top infill extrusion width = 0.40mm
; support material extrusion width = 0.40mm
; first layer extrusion width = 0.50mm

; EXECUTABLE_BLOCK_START
EXCLUDE_OBJECT_DEFINE NAME=SchubUnten_id_0_copy_0 CENTER=67,117.689 POLYGON=[[49.25,58.6891],[65.7,43.6891],[68.3,43.6891],[84.75,58.6891],[84.75,191.689],[49.25,191.689],[49.25,58.6891]]
M73 P0 R214
;TYPE:Custom
START_PRINT EXTRUDER_TEMP=245  BED_TEMP=80
G90
G21
M83 ; use relative distances for extrusion
; filament start gcode
M106 S0
;LAYER_CHANGE
;Z:0.2
;HEIGHT:0.2
;BEFORE_LAYER_CHANGE
;0.2
G92 E0

G1 E-4 F1800
;_SET_FAN_SPEED_CHANGING_LAYER
G1 Z.4 F12000
G1 X39.945 Y49.983
G1 Z.4
G1 Z.2
G1 E4 F1800
;TYPE:Skirt
;WIDTH:0.5
G1 F900
G1 X43.433 Y47.352 E.16605
G1 X59.883 Y38.912 E.70269
G1 X62.878 Y37.823 E.12111
G1 X65.7 Y37.507 E.10793
G1 X68.3 Y37.507 E.09882
G1 X71.462 Y37.905 E.12111
G1 X74.117 Y38.912 E.10793
G1 X90.567 Y47.352 E.70269
G1 X93.198 Y49.149 E.12111
G1 X95.301 Y51.544 E.12111
G1 X96.744 Y54.385 E.12111
G1 X97.492 Y58.689 E.16605
G1 X97.492 Y190.979 E5.02786
G1 X97.094 Y194.141 E.12111
G1 X95.924 Y197.104 E.12111
G1 X94.055 Y199.685 E.12111
G1 X91.604 Y201.721 E.12111
G1 X88.724 Y203.086 E.12111
G1 X84.75 Y203.722 E.15295
G1 X49.25 Y203.722 E1.34922
G1 X46.088 Y203.323 E.12111
G1 X43.125 Y202.153 E.12111
G1 X40.544 Y200.284 E.12111
G1 X38.508 Y197.833 E.12111
G1 X37.143 Y194.953 E.12111
G1 X36.508 Y190.979 E.15295
G1 X36.508 Y58.689 E5.02786
G1 X36.906 Y55.528 E.12111
G1 X38.076 Y52.564 E.12111
G1 X39.922 Y50.015 E.11959
G1 X40.303 Y50.298 F12000
G1 F900
G1 X40.397 Y50.172 E.00598
G1 X43.642 Y47.758 E.1537
G1 X60.092 Y39.318 E.70269
G1 X63.035 Y38.256 E.11891
G1 X65.7 Y37.964 E.10191
G1 X68.3 Y37.964 E.09882
G1 X71.403 Y38.362 E.11891
G1 X73.908 Y39.318 E.10191
G1 X90.358 Y47.758 E.70269
G1 X92.937 Y49.529 E.11891
G1 X94.985 Y51.894 E.11891
G1 X96.37 Y54.7 E.11891
G1 X97.035 Y58.689 E.1537
G1 X97.035 Y190.979 E5.02786
G1 X96.637 Y194.082 E.11891
G1 X95.468 Y196.984 E.11891
G1 X93.603 Y199.497 E.11891
G1 X91.165 Y201.457 E.11891
G1 X88.31 Y202.737 E.11891
G1 X84.75 Y203.264 E.13679
G1 X49.25 Y203.264 E1.34922
G1 X46.147 Y202.866 E.11891
G1 X43.245 Y201.697 E.11891
G1 X40.732 Y199.832 E.11891
G1 X38.772 Y197.394 E.11891
G1 X37.492 Y194.539 E.11891
G1 X36.965 Y190.979 E.13679
G1 X36.965 Y58.689 E5.02786
M73 P0 R213
G1 X37.363 Y55.586 E.11891
G1 X38.532 Y52.684 E.11891
G1 X40.279 Y50.33 E.1114
G1 X40.655 Y50.616 F12000
G1 F900
G1 X40.847 Y50.364 E.01205
G1 X43.85 Y48.165 E.14147
G1 X60.3 Y39.725 E.70269
G1 X63.19 Y38.69 E.11667
G1 X65.7 Y38.421 E.09593
G1 X68.3 Y38.421 E.09882
G1 X71.344 Y38.819 E.11667
G1 X73.7 Y39.725 E.09593
G1 X90.15 Y48.165 E.70269
G1 X92.676 Y49.909 E.11667
G1 X94.668 Y52.244 E.11667
G1 X95.993 Y55.013 E.11667
G1 X96.578 Y58.689 E.14147
G1 X96.578 Y190.979 E5.02786
G1 X96.18 Y194.023 E.11667
G1 X95.012 Y196.861 E.11667
G1 X93.153 Y199.304 E.11667
G1 X90.728 Y201.186 E.11667
G1 X87.9 Y202.38 E.11667
G1 X84.75 Y202.807 E.12081
G1 X49.25 Y202.807 E1.34922
G1 X46.206 Y202.409 E.11667
G1 X43.368 Y201.241 E.11667
G1 X40.925 Y199.382 E.11667
G1 X39.043 Y196.957 E.11667
G1 X37.849 Y194.129 E.11667
G1 X37.422 Y190.979 E.12081
G1 X37.422 Y58.689 E5.02786
G1 X37.82 Y55.645 E.11667
G1 X38.988 Y52.807 E.11667
G1 X40.631 Y50.648 E.10309
G1 X41.002 Y50.939 F12000
G1 F900
G1 X41.298 Y50.561 E.01821
G1 X44.059 Y48.572 E.12936
G1 X60.509 Y40.132 E.70269
G1 X63.345 Y39.124 E.11438
G1 X65.7 Y38.878 E.08999
G1 X68.3 Y38.878 E.09882
G1 X71.283 Y39.276 E.11438
G1 X73.491 Y40.132 E.08999
G1 X89.941 Y48.572 E.70269
G1 X92.413 Y50.288 E.11438
G1 X94.349 Y52.592 E.11438
G1 X95.612 Y55.324 E.11438
G1 X96.121 Y58.689 E.12936
G1 X96.121 Y190.979 E5.02786
G1 X95.723 Y193.962 E.11438
G1 X94.556 Y196.736 E.11438
G1 X92.702 Y199.107 E.11438
G1 X90.292 Y200.908 E.11438
G1 X87.493 Y202.015 E.11438
G1 X84.75 Y202.35 E.10503
G1 X49.25 Y202.35 E1.34922
G1 X46.267 Y201.952 E.11438
G1 X43.493 Y200.785 E.11438
G1 X41.122 Y198.932 E.11438
G1 X39.321 Y196.521 E.11438
G1 X38.215 Y193.722 E.11438
G1 X37.879 Y190.979 E.10503
G1 X37.879 Y58.689 E5.02786
G1 X38.277 Y55.706 E.11438
G1 X39.444 Y52.932 E.11438
G1 X40.978 Y50.97 E.09465
G1 X41.344 Y51.264 F12000
G1 F900
G1 X41.747 Y50.763 E.02447
G1 X44.268 Y48.978 E.11737
G1 X60.718 Y40.538 E.70269
G1 X63.499 Y39.559 E.11205
G1 X65.7 Y39.335 E.0841
G1 X68.3 Y39.335 E.09882
M73 P0 R212
G1 X71.221 Y39.733 E.11205
G1 X73.282 Y40.538 E.0841
G1 X89.732 Y48.978 E.70269
G1 X92.149 Y50.666 E.11205
G1 X94.027 Y52.939 E.11205
G1 X95.227 Y55.632 E.11205
G1 X95.664 Y58.689 E.11737
G1 X95.664 Y190.979 E5.02786
G1 X95.266 Y193.9 E.11205
G1 X94.101 Y196.608 E.11205
G1 X92.253 Y198.905 E.11205
G1 X89.858 Y200.624 E.11205
G1 X87.09 Y201.639 E.11205
G1 X84.75 Y201.893 E.08945
G1 X49.25 Y201.893 E1.34922
G1 X46.329 Y201.495 E.11205
M73 P1 R212
G1 X43.621 Y200.33 E.11205
G1 X41.324 Y198.482 E.11205
G1 X39.605 Y196.087 E.11205
G1 X38.59 Y193.319 E.11205
G1 X38.336 Y190.979 E.08945
G1 X38.336 Y58.689 E5.02786
G1 X38.734 Y55.768 E.11205
G1 X39.899 Y53.06 E.11205
G1 X41.319 Y51.296 E.08606
G1 X41.679 Y51.594 F12000
G1 F900
G1 X42.196 Y50.969 E.03083
G1 X44.476 Y49.385 E.10553
G1 X60.926 Y40.945 E.70269
G1 X63.651 Y39.995 E.10966
G1 X65.7 Y39.792 E.07826
G1 X68.3 Y39.792 E.09882
G1 X71.158 Y40.19 E.10966
G1 X73.074 Y40.945 E.07826
G1 X89.524 Y49.385 E.70269
G1 X91.885 Y51.044 E.10966
G1 X93.702 Y53.285 E.10966
G1 X94.838 Y55.937 E.10966
G1 X95.207 Y58.689 E.10553
G1 X95.207 Y190.979 E5.02786
G1 X94.809 Y193.837 E.10966
G1 X93.645 Y196.477 E.10966
G1 X91.804 Y198.699 E.10966
G1 X89.426 Y200.333 E.10966
G1 X86.691 Y201.254 E.10966
G1 X84.75 Y201.436 E.07411
G1 X49.25 Y201.436 E1.34922
G1 X46.392 Y201.038 E.10966
G1 X43.752 Y199.874 E.10966
G1 X41.53 Y198.033 E.10966
G1 X39.896 Y195.655 E.10966
G1 X38.975 Y192.92 E.10966
G1 X38.793 Y190.979 E.07411
G1 X38.793 Y58.689 E5.02786
G1 X39.191 Y55.831 E.10966
G1 X40.355 Y53.191 E.10966
G1 X41.653 Y51.625 E.07731
; printing object SchubUnten id:0 copy 0
G1 E-2.8 F1800
;WIPE_START
G1 F900
G1 X42.196 Y50.969 E-1.02145
G1 X42.318 Y50.884 E-.17855
;WIPE_END
EXCLUDE_OBJECT_START NAME=SchubUnten_id_0_copy_0
G1 Z.6 F12000
G1 X65.521 Y59.814 Z.6
G1 Z.2
G1 E4 F1800
;TYPE:Inner wall
;WIDTH:0.499999
G1 F900
G1 X65.821 Y59.718 E.01198
G1 X66.117 Y59.49 E.01418
G1 X66.317 Y59.194 E.01359
G1 X66.424 Y58.711 E.01881
G1 X66.424 Y51.413 E.27734
G1 X67.576 Y51.413 E.04377
G1 X67.576 Y58.711 E.27734
G1 X67.683 Y59.194 E.01881
G1 X67.883 Y59.49 E.01359
G1 X68.054 Y59.64 E.00865
G1 X68.334 Y59.787 E.012
G1 X68.719 Y59.853 E.01482
G1 X83.586 Y59.853 E.56505
G1 X83.586 Y74.721 E.56505
G1 X83.586 Y189.815 E4.37431
M73 P1 R211
G1 X50.414 Y189.815 E1.26073
G1 X50.414 Y59.853 E4.93936
G1 X65.281 Y59.853 E.56505
G1 X65.424 Y59.844 E.00544
G1 X65.483 Y59.826 E.00232
G1 X65.339 Y59.392 F12000
G1 F900
G1 X65.385 Y59.388 E.00174
G1 X65.68 Y59.268 E.01209
G1 X65.903 Y59 E.01324
G1 X65.967 Y58.711 E.01129
G1 X65.967 Y51 E.29304
G1 X65.993 Y50.956 E.00194
G1 X67.989 Y50.956 E.07586
G1 X68.033 Y50.982 E.00194
G1 X68.033 Y58.711 E.29373
G1 X68.097 Y59 E.01129
G1 X68.217 Y59.178 E.00816
G1 X68.448 Y59.341 E.01074
G1 X68.719 Y59.396 E.01048
G1 X84.043 Y59.396 E.58242
G1 X84.043 Y74.721 E.58242
G1 X84.043 Y190.272 E4.39168
G1 X49.957 Y190.272 E1.29548
G1 X49.957 Y59.396 E4.9741
G1 X65.281 Y59.396 E.58242
G1 X65.3 Y59.395 E.00069
G1 X65.281 Y58.939 F12000
;TYPE:Outer wall
G1 F900
G1 X65.449 Y58.866 E.00692
G1 X65.51 Y58.711 E.00637
G1 X65.51 Y50.793 E.30093
G1 X65.804 Y50.499 E.01578
G1 X68.196 Y50.499 E.09094
G1 X68.49 Y50.793 E.01578
G1 X68.49 Y58.711 E.30093
G1 X68.551 Y58.866 E.00637
G1 X68.719 Y58.939 E.00692
G1 X84.5 Y58.939 E.59979
G1 X84.5 Y74.721 E.59979
G1 X84.5 Y190.729 E4.40905
G1 X49.5 Y190.729 E1.33022
G1 X49.5 Y58.939 E5.00885
M73 P1 R210
G1 X65.241 Y58.939 E.59827
G1 E-4 F1800
G1 Z.6 F12000
G1 X83.334 Y60.656 Z.6
G1 Z.2
G1 E4 F1800
;TYPE:Bottom surface
;WIDTH:0.5
G1 F1200
G1 X82.782 Y60.104 E.02967
G1 X82.136 Y60.104
G1 X83.334 Y61.303 E.06443
G1 X83.334 Y61.949
G1 X81.489 Y60.104 E.09919
G1 X80.842 Y60.104
G1 X83.334 Y62.596 E.13395
G1 X83.334 Y63.242
G1 X80.196 Y60.103 E.16871
G1 X79.549 Y60.103
G1 X83.334 Y63.888 E.20346
G1 X83.334 Y64.535
G1 X78.902 Y60.103 E.23822
G1 X78.256 Y60.102
G1 X83.334 Y65.181 E.27298
G1 X83.334 Y65.828
G1 X77.609 Y60.102 E.30774
G1 X76.962 Y60.102
G1 X83.334 Y66.474 E.3425
G1 X83.334 Y67.12
G1 X76.316 Y60.102 E.37726
G1 X75.669 Y60.101
G1 X83.334 Y67.767 E.41202
G1 X83.334 Y68.413
G1 X75.022 Y60.101 E.44678
G1 X74.375 Y60.101
G1 X83.334 Y69.06 E.48154
G1 X83.334 Y69.706
G1 X73.729 Y60.1 E.51629
G1 X73.082 Y60.1
G1 X83.334 Y70.352 E.55105
G1 X83.334 Y70.999
G1 X72.435 Y60.1 E.58581
G1 X71.789 Y60.1
G1 X83.334 Y71.645 E.62057
G1 X83.334 Y72.292
G1 X71.142 Y60.099 E.65533
G1 X70.495 Y60.099
G1 X83.334 Y72.938 E.69009
G1 X83.334 Y73.584
G1 X69.849 Y60.099 E.72485
G1 X69.202 Y60.098
G1 X83.334 Y74.231 E.75961
G1 X83.334 Y74.877
G1 X68.548 Y60.091 E.79474
G1 E-4 F1800
G1 Z.6 F12000
G1 X67.324 Y52.403 Z.6
G1 Z.2
G1 E4 F1800
G1 F1200
G1 X66.675 Y51.754 E.03488
G1 X66.675 Y52.4
G1 X67.324 Y53.05 E.03491
G1 X67.324 Y53.696
G1 X66.675 Y53.046 E.03493
G1 X66.674 Y53.692
G1 X67.324 Y54.342 E.03496
G1 X67.324 Y54.989
G1 X66.674 Y54.338 E.03498
G1 X66.673 Y54.984
G1 X67.324 Y55.635 E.03501
G1 X67.324 Y56.282
G1 X66.673 Y55.63 E.03503
G1 X66.672 Y56.276
G1 X67.324 Y56.928 E.03506
G1 X67.324 Y57.574
G1 X66.672 Y56.922 E.03508
G1 X66.671 Y57.568
G1 X67.324 Y58.221 E.03511
G1 X67.344 Y58.887
G1 X66.671 Y58.214 E.03619
G1 X66.665 Y58.854
G1 X83.334 Y75.524 E.89598
G1 X83.334 Y76.17
G1 X66.513 Y59.348 E.90416
G1 X66.236 Y59.718
G1 X83.334 Y76.817 E.91901
G1 X83.334 Y77.463
G1 X65.847 Y59.975 E.93996
M73 P2 R210
G1 X65.325 Y60.1
G1 X83.334 Y78.109 E.968
G1 X83.334 Y78.756
G1 X64.683 Y60.105 E1.00248
G1 X64.037 Y60.105
G1 X83.334 Y79.402 E1.03723
G1 X83.334 Y80.049
G1 X63.39 Y60.105 E1.07197
G1 X62.744 Y60.105
G1 X83.334 Y80.695 E1.10671
G1 X83.334 Y81.341
G1 X62.098 Y60.105 E1.14146
G1 X61.451 Y60.105
G1 X83.334 Y81.988 E1.1762
G1 X83.334 Y82.634
G1 X60.805 Y60.105 E1.21094
G1 X60.158 Y60.105
G1 X83.334 Y83.281 E1.24569
G1 X83.334 Y83.927
G1 X59.512 Y60.105 E1.28043
G1 X58.866 Y60.105
G1 X83.334 Y84.573 E1.31518
G1 X83.334 Y85.22
G1 X58.219 Y60.105 E1.34992
G1 X57.573 Y60.105
G1 X83.334 Y85.866 E1.38466
G1 X83.334 Y86.513
G1 X56.926 Y60.105 E1.41941
G1 X56.28 Y60.105
G1 X83.334 Y87.159 E1.45415
G1 X83.334 Y87.805
G1 X55.634 Y60.105 E1.48889
G1 X54.987 Y60.105
G1 X83.334 Y88.452 E1.52364
G1 X83.334 Y89.098
G1 X54.341 Y60.105 E1.55838
G1 X53.694 Y60.105
G1 X83.334 Y89.745 E1.59313
G1 X83.334 Y90.391
G1 X53.048 Y60.105 E1.62787
G1 X52.402 Y60.105
G1 X83.334 Y91.037 E1.66261
M73 P2 R209
G1 X83.334 Y91.684
G1 X51.755 Y60.105 E1.69736
G1 X51.109 Y60.105
G1 X83.334 Y92.33 E1.7321
G1 X83.334 Y92.977
G1 X50.666 Y60.308 E1.75592
G1 X50.666 Y60.954
G1 X83.334 Y93.623 E1.75592
G1 X83.334 Y94.27
G1 X50.666 Y61.601 E1.75592
G1 X50.666 Y62.247
G1 X83.334 Y94.916 E1.75592
G1 X83.334 Y95.562
G1 X50.666 Y62.893 E1.75592
G1 X50.666 Y63.54
G1 X83.334 Y96.209 E1.75592
G1 X83.334 Y96.855
G1 X50.666 Y64.186 E1.75592
G1 X50.666 Y64.833
G1 X83.334 Y97.502 E1.75592
G1 X83.334 Y98.148
G1 X50.666 Y65.479 E1.75592
G1 X50.666 Y66.125
G1 X83.334 Y98.794 E1.75592
G1 X83.334 Y99.441
G1 X50.666 Y66.772 E1.75592
G1 X50.666 Y67.418
G1 X83.334 Y100.087 E1.75592
G1 X83.334 Y100.734
G1 X50.666 Y68.065 E1.75592
G1 X50.666 Y68.711
G1 X83.334 Y101.38 E1.75592
G1 X83.334 Y102.026
G1 X50.666 Y69.358 E1.75592
G1 X50.666 Y70.004
G1 X83.334 Y102.673 E1.75592
G1 X83.334 Y103.319
G1 X50.666 Y70.65 E1.75592
G1 X50.666 Y71.297
G1 X83.334 Y103.966 E1.75592
G1 X83.334 Y104.612
G1 X50.666 Y71.943 E1.75592
G1 X50.666 Y72.59
G1 X83.334 Y105.258 E1.75592
G1 X83.334 Y105.905
G1 X50.666 Y73.236 E1.75592
G1 X50.666 Y73.882
G1 X83.334 Y106.551 E1.75592
G1 X83.334 Y107.198
G1 X50.666 Y74.529 E1.75592
M73 P2 R208
G1 X50.666 Y75.175
G1 X83.334 Y107.844 E1.75592
G1 X83.334 Y108.49
G1 X50.666 Y75.822 E1.75592
G1 X50.666 Y76.468
G1 X83.334 Y109.137 E1.75592
G1 X83.334 Y109.783
G1 X50.666 Y77.114 E1.75592
G1 X50.666 Y77.761
G1 X83.334 Y110.43 E1.75592
G1 X83.334 Y111.076
G1 X50.666 Y78.407 E1.75592
G1 X50.666 Y79.054
G1 X83.334 Y111.723 E1.75592
G1 X83.334 Y112.369
G1 X50.666 Y79.7 E1.75592
G1 X50.666 Y80.346
G1 X83.334 Y113.015 E1.75592
G1 X83.334 Y113.662
G1 X50.666 Y80.993 E1.75592
G1 X50.666 Y81.639
G1 X83.334 Y114.308 E1.75592
G1 X83.334 Y114.955
G1 X50.666 Y82.286 E1.75592
G1 X50.666 Y82.932
G1 X83.334 Y115.601 E1.75592
G1 X83.334 Y116.247
G1 X50.666 Y83.578 E1.75592
M73 P3 R208
G1 X50.666 Y84.225
G1 X83.334 Y116.894 E1.75592
G1 X83.334 Y117.54
G1 X50.666 Y84.871 E1.75592
G1 X50.666 Y85.518
G1 X83.334 Y118.187 E1.75592
G1 X83.334 Y118.833
G1 X50.666 Y86.164 E1.75592
G1 X50.666 Y86.811
G1 X83.334 Y119.479 E1.75592
G1 X83.334 Y120.126
G1 X50.666 Y87.457 E1.75592
G1 X50.666 Y88.103
G1 X83.334 Y120.772 E1.75592
G1 X83.334 Y121.419
G1 X50.666 Y88.75 E1.75592
G1 X50.666 Y89.396
G1 X83.334 Y122.065 E1.75592
G1 X83.334 Y122.711
G1 X50.666 Y90.043 E1.75592
G1 X50.666 Y90.689
G1 X83.334 Y123.358 E1.75592
G1 X83.334 Y124.004
G1 X50.666 Y91.335 E1.75592
M73 P3 R207
G1 X50.666 Y91.982
G1 X83.334 Y124.651 E1.75592
G1 X83.334 Y125.297
G1 X50.666 Y92.628 E1.75592
G1 X50.666 Y93.275
G1 X83.334 Y125.943 E1.75592
G1 X83.334 Y126.59
G1 X50.666 Y93.921 E1.75592
G1 X50.666 Y94.567
G1 X83.334 Y127.236 E1.75592
G1 X83.334 Y127.883
G1 X50.666 Y95.214 E1.75592
G1 X50.666 Y95.86
G1 X83.334 Y128.529 E1.75592
G1 X83.334 Y129.176
G1 X50.666 Y96.507 E1.75592
G1 X50.666 Y97.153
G1 X83.334 Y129.822 E1.75592
G1 X83.334 Y130.468
G1 X50.666 Y97.799 E1.75592
G1 X50.666 Y98.446
G1 X83.334 Y131.115 E1.75592
G1 X83.334 Y131.761
G1 X50.666 Y99.092 E1.75592
G1 X50.666 Y99.739
G1 X83.334 Y132.408 E1.75592
G1 X83.334 Y133.054
G1 X50.666 Y100.385 E1.75592
G1 X50.666 Y101.031
G1 X83.334 Y133.7 E1.75592
G1 X83.334 Y134.347
G1 X50.666 Y101.678 E1.75592
G1 X50.666 Y102.324
G1 X83.334 Y134.993 E1.75592
G1 X83.334 Y135.64
G1 X50.666 Y102.971 E1.75592
G1 X50.666 Y103.617
G1 X83.334 Y136.286 E1.75592
G1 X83.334 Y136.932
G1 X50.666 Y104.264 E1.75592
G1 X50.666 Y104.91
G1 X83.334 Y137.579 E1.75592
G1 X83.334 Y138.225
G1 X50.666 Y105.556 E1.75592
G1 X50.666 Y106.203
G1 X83.334 Y138.872 E1.75592
G1 X83.334 Y139.518
G1 X50.666 Y106.849 E1.75592
G1 X50.666 Y107.496
G1 X83.334 Y140.164 E1.75592
M73 P3 R206
G1 X83.334 Y140.811
G1 X50.666 Y108.142 E1.75592
G1 X50.666 Y108.788
G1 X83.334 Y141.457 E1.75592
G1 X83.334 Y142.104
G1 X50.666 Y109.435 E1.75592
G1 X50.666 Y110.081
G1 X83.334 Y142.75 E1.75592
G1 X83.334 Y143.396
G1 X50.666 Y110.728 E1.75592
G1 X50.666 Y111.374
G1 X83.334 Y144.043 E1.75592
G1 X83.334 Y144.689
G1 X50.666 Y112.02 E1.75592
G1 X50.666 Y112.667
G1 X83.334 Y145.336 E1.75592
G1 X83.334 Y145.982
G1 X50.666 Y113.313 E1.75592
G1 X50.666 Y113.96
G1 X83.334 Y146.629 E1.75592
G1 X83.334 Y147.275
G1 X50.666 Y114.606 E1.75592
G1 X50.666 Y115.252
G1 X83.334 Y147.921 E1.75592
G1 X83.334 Y148.568
G1 X50.666 Y115.899 E1.75592
G1 X50.666 Y116.545
G1 X83.334 Y149.214 E1.75592
G1 X83.334 Y149.861
G1 X50.666 Y117.192 E1.75592
G1 X50.666 Y117.838
G1 X83.334 Y150.507 E1.75592
G1 X83.334 Y151.153
G1 X50.666 Y118.484 E1.75592
G1 X50.666 Y119.131
G1 X83.334 Y151.8 E1.75592
M73 P4 R206
G1 X83.334 Y152.446
G1 X50.666 Y119.777 E1.75592
G1 X50.666 Y120.424
G1 X83.334 Y153.093 E1.75592
G1 X83.334 Y153.739
G1 X50.666 Y121.07 E1.75592
G1 X50.666 Y121.717
G1 X83.334 Y154.385 E1.75592
G1 X83.334 Y155.032
G1 X50.666 Y122.363 E1.75592
G1 X50.666 Y123.009
G1 X83.334 Y155.678 E1.75592
G1 X83.334 Y156.325
G1 X50.666 Y123.656 E1.75592
M73 P4 R205
G1 X50.666 Y124.302
G1 X83.334 Y156.971 E1.75592
G1 X83.334 Y157.617
