; HEADER_BLOCK_START
; generated by OrcaSlicer 1.7.0 on 2023-12-09 at 11:03:22
; total layer number: 242
; HEADER_BLOCK_END

; THUMBNAIL_BLOCK_START
; THUMBNAIL_BLOCK_END

; external perimeters extrusion width = 0.40mm
; perimeters extrusion width = 0.45mm
; infill extrusion width = 0.45mm
; solid infill extrusion width = 0.40mm
; top infill extrusion width = 0.40mm
; first layer extrusion width = 0.50mm

; EXECUTABLE_BLOCK_START
EXCLUDE_OBJECT_DEFINE NAME=SchubUnten_id_0_copy_0 CENTER=110,110 POLYGON=[[92.25,36],[127.75,36],[127.75,169],[111.3,184],[108.7,184],[92.25,169],[92.25,36]]
M73 P0 R201
;TYPE:Custom
START_PRINT EXTRUDER_TEMP=255  BED_TEMP=80
G90
G21
M83 ; use relative distances for extrusion
; filament start gcode
M106 S0
;LAYER_CHANGE
;Z:0.2
;HEIGHT:0.2
;BEFORE_LAYER_CHANGE
;0.2
G92 E0

G1 E-5 F1800
;_SET_FAN_SPEED_CHANGING_LAYER
; printing object SchubUnten id:0 copy 0
EXCLUDE_OBJECT_START NAME=SchubUnten_id_0_copy_0
G1 X111.478 Y167.875 F9000
G1 Z.4
G1 Z.2
G1 E5 F1800
;TYPE:Inner wall
;WIDTH:0.499999
G1 F900
G1 X111.18 Y167.971 E.01131
G1 X110.884 Y168.199 E.01348
G1 X110.684 Y168.496 E.01291
G1 X110.577 Y168.979 E.01786
G1 X110.577 Y176.277 E.26353
G1 X109.423 Y176.277 E.04168
G1 X109.423 Y168.979 E.26353
G1 X109.316 Y168.496 E.01786
G1 X109.116 Y168.199 E.01291
G1 X108.945 Y168.049 E.00822
G1 X108.665 Y167.903 E.01141
G1 X108.28 Y167.836 E.01409
G1 X93.414 Y167.836 E.53675
G1 X93.414 Y37.873 E4.69244
G1 X126.586 Y37.873 E1.1977
G1 X126.586 Y54.459 E.59885
G1 X126.586 Y167.836 E4.09359
M73 P0 R200
G1 X111.72 Y167.836 E.53675
G1 X111.568 Y167.846 E.00549
G1 X111.516 Y167.863 E.00197
G1 X111.662 Y168.297 F9000
G1 F900
G1 X111.616 Y168.301 E.00166
G1 X111.321 Y168.421 E.01149
G1 X111.099 Y168.689 E.01258
G1 X111.034 Y168.979 E.01072
G1 X111.034 Y176.688 E.27835
G1 X111.007 Y176.734 E.00194
G1 X109.012 Y176.734 E.07203
G1 X108.966 Y176.707 E.00194
G1 X108.966 Y168.979 E.27905
G1 X108.901 Y168.689 E.01072
G1 X108.781 Y168.511 E.00775
G1 X108.55 Y168.348 E.0102
G1 X108.28 Y168.293 E.00996
G1 X92.957 Y168.293 E.55325
G1 X92.957 Y37.416 E4.72545
G1 X127.043 Y37.416 E1.2307
G1 X127.043 Y54.459 E.61535
G1 X127.043 Y168.293 E4.1101
G1 X111.72 Y168.293 E.55325
G1 X111.702 Y168.294 E.00066
G1 X111.72 Y168.75 F9000
;TYPE:Outer wall
G1 F900
G1 X111.553 Y168.823 E.00658
G1 X111.491 Y168.979 E.00605
G1 X111.491 Y176.896 E.28588
G1 X111.196 Y177.191 E.01506
G1 X108.804 Y177.191 E.0864
G1 X108.509 Y176.896 E.01506
G1 X108.509 Y168.979 E.28588
G1 X108.447 Y168.823 E.00605
G1 X108.28 Y168.75 E.00658
G1 X92.5 Y168.75 E.56976
G1 X92.5 Y36.959 E4.75845
G1 X127.5 Y36.959 E1.26371
G1 X127.5 Y54.459 E.63185
G1 X127.5 Y168.75 E4.1266
G1 X111.76 Y168.75 E.56831
G1 E-3.5 F1800
;WIPE_START
G1 F900
G1 X111.553 Y168.823 E-.21951
G1 X111.491 Y168.979 E-.16754
G1 X111.491 Y170.091 E-1.11296
;WIPE_END
G17
G3 Z.6 I1.214 J-.082 P1  F9000
G1 X110.232 Y151.555 Z.6
G1 Z.2
G1 E5 F1800
;TYPE:Bottom surface
;WIDTH:0.507598
G1 F1200
G1 X110.232 Y54.226 E3.57258
G1 X109.768 Y54.226 E.01706
G1 X109.768 Y151.555 E3.57258
M73 P0 R199
G1 X110.192 Y151.555 E.01559
G1 X110.693 Y151.981 F9000
;WIDTH:0.499999
G1 F1200
G1 X110.693 Y53.765 E3.54616
G1 X109.307 Y53.765 E.05006
G1 X109.307 Y151.981 E3.54616
G1 X109.927 Y152.03 E.02248
G1 X110.653 Y151.983 E.02627
G1 X111.15 Y152.416 F9000
G1 F1200
G1 X111.15 Y53.308 E3.57837
G1 X108.85 Y53.308 E.08307
G1 X108.85 Y152.416 E3.57837
G1 X109.879 Y152.485 E.03726
G1 X111.11 Y152.417 E.04451
G1 X111.607 Y152.861 F9000
G1 F1200
G1 X111.607 Y52.851 E3.61093
G1 X108.393 Y52.851 E.11607
G1 X108.393 Y152.861 E3.61093
G1 X109.075 Y152.879 E.02466
G1 X109.831 Y152.939 E.02739
G1 X111.567 Y152.862 E.06274
G1 X111.726 Y153.314 F9000
G1 F1200
G1 X112.064 Y153.314 E.01222
G1 X112.064 Y52.394 E3.64382
G1 X107.936 Y52.394 E.14908
G1 X107.936 Y153.314 E3.64382
M73 P1 R199
G1 X109.051 Y153.335 E.04027
G1 X109.784 Y153.394 E.02654
G1 X110.216 Y153.394 E.01563
G1 X110.949 Y153.335 E.02654
G1 X111.686 Y153.316 E.02661
G1 X111.726 Y153.772 F9000
G1 F1200
G1 X112.522 Y153.772 E.02872
G1 X112.522 Y51.937 E3.67683
G1 X107.478 Y51.937 E.18208
G1 X107.478 Y153.772 E3.67683
G1 X109.026 Y153.792 E.05588
G1 X109.736 Y153.848 E.0257
G1 X110.186 Y153.857 E.01627
G1 X110.974 Y153.792 E.02854
G1 X111.686 Y153.773 E.02572
G1 X111.726 Y154.229 F9000
G1 F1200
G1 X112.979 Y154.229 E.04523
G1 X112.979 Y51.48 E3.70984
M73 P1 R198
G1 X107.021 Y51.48 E.21509
G1 X107.021 Y154.229 E3.70984
G1 X108.274 Y154.229 E.04523
G1 X109.001 Y154.248 E.02627
G1 X110.153 Y154.321 E.04165
G1 X110.999 Y154.248 E.03066
G1 X111.686 Y154.23 E.02483
G1 X111.726 Y154.686 F9000
G1 F1200
G1 X113.436 Y154.686 E.06173
G1 X113.436 Y51.023 E3.74284
G1 X106.564 Y51.023 E.2481
G1 X106.564 Y154.686 E3.74284
G1 X108.274 Y154.686 E.06173
G1 X108.977 Y154.705 E.02538
G1 X110 Y154.799 E.0371
G1 X111.023 Y154.705 E.0371
G1 X111.686 Y154.687 E.02394
G1 X111.726 Y155.143 F9000
G1 F1200
G1 X113.893 Y155.143 E.07823
G1 X113.893 Y50.566 E3.77585
G1 X106.107 Y50.566 E.2811
G1 X106.107 Y155.143 E3.77585
G1 X108.274 Y155.143 E.07823
G1 X108.952 Y155.161 E.02449
G1 X110 Y155.259 E.038
G1 X111.048 Y155.161 E.038
G1 X111.686 Y155.144 E.02305
G1 X111.726 Y155.6 F9000
G1 F1200
G1 X114.35 Y155.6 E.09473
G1 X114.35 Y50.109 E3.80886
G1 X105.65 Y50.109 E.31411
G1 X105.65 Y155.6 E3.80886
G1 X108.274 Y155.6 E.09473
G1 X108.927 Y155.617 E.0236
G1 X110.014 Y155.718 E.0394
G1 X111.073 Y155.617 E.0384
G1 X111.686 Y155.601 E.02216
G1 X111.726 Y156.057 F9000
G1 F1200
G1 X114.807 Y156.057 E.11124
G1 X114.807 Y49.652 E3.84186
G1 X105.193 Y49.652 E.34712
G1 X105.193 Y156.057 E3.84186
G1 X108.274 Y156.057 E.11124
G1 X108.903 Y156.074 E.02271
G1 X110 Y156.18 E.0398
G1 X111.097 Y156.074 E.0398
G1 X111.686 Y156.058 E.02127
G1 X111.726 Y156.514 F9000
G1 F1200
G1 X115.264 Y156.514 E.12774
G1 X115.264 Y49.195 E3.87487
G1 X104.736 Y49.195 E.38012
G1 X104.736 Y156.514 E3.87487
M73 P1 R197
G1 X108.274 Y156.514 E.12774
G1 X108.878 Y156.53 E.02182
G1 X109.975 Y156.637 E.03979
G1 X111.122 Y156.53 E.04159
G1 X111.686 Y156.515 E.02038
G1 X111.726 Y156.971 F9000
G1 F1200
G1 X115.721 Y156.971 E.14424
G1 X115.721 Y48.738 E3.90788
G1 X104.279 Y48.738 E.41313
G1 X104.279 Y156.971 E3.90788
G1 X108.274 Y156.971 E.14424
G1 X108.853 Y156.987 E.02093
G1 X109.918 Y157.091 E.03861
G1 X111.147 Y156.987 E.04453
G1 X111.686 Y156.972 E.01949
G1 X111.726 Y157.428 F9000
G1 F1200
G1 X116.178 Y157.428 E.16075
G1 X116.178 Y48.28 E3.94088
G1 X103.822 Y48.28 E.44614
G1 X103.822 Y157.428 E3.94088
G1 X108.274 Y157.428 E.16075
G1 X108.829 Y157.443 E.02004
G1 X109.86 Y157.544 E.03743
G1 X110.227 Y157.534 E.01325
G1 X111.171 Y157.443 E.03424
G1 X111.686 Y157.429 E.0186
G1 X111.726 Y157.885 F9000
G1 F1200
G1 X116.635 Y157.885 E.17725
G1 X116.635 Y47.823 E3.97389
G1 X103.365 Y47.823 E.47914
G1 X103.365 Y157.885 E3.97389
G1 X108.274 Y157.885 E.17725
G1 X108.804 Y157.9 E.01915
G1 X109.803 Y157.998 E.03625
G1 X110.1 Y158.01 E.01072
G1 X111.196 Y157.9 E.03977
G1 X111.686 Y157.886 E.0177
G1 X111.726 Y158.342 F9000
G1 F1200
G1 X117.092 Y158.342 E.19375
G1 X117.092 Y47.366 E4.0069
M73 P2 R197
G1 X102.908 Y47.366 E.51215
G1 X102.908 Y158.342 E4.0069
G1 X108.274 Y158.342 E.19375
G1 X108.779 Y158.356 E.01826
G1 X109.838 Y158.463 E.03843
G1 X110.162 Y158.463 E.01167
G1 X111.221 Y158.356 E.03843
G1 X111.686 Y158.343 E.01681
G1 X111.726 Y158.799 F9000
G1 F1200
G1 X117.549 Y158.799 E.21026
G1 X117.549 Y46.909 E4.0399
G1 X102.451 Y46.909 E.54516
M73 P2 R196
G1 X102.451 Y158.799 E4.0399
G1 X108.274 Y158.799 E.21026
G1 X109.208 Y158.849 E.03379
G1 X109.777 Y158.916 E.02066
G1 X110.121 Y158.931 E.01243
G1 X111.245 Y158.812 E.04083
G1 X111.686 Y158.8 E.01592
G1 X111.726 Y159.256 F9000
G1 F1200
G1 X118.006 Y159.256 E.22676
G1 X118.006 Y46.452 E4.07291
G1 X101.994 Y46.452 E.57816
G1 X101.994 Y159.256 E4.07291
G1 X108.274 Y159.256 E.22676
G1 X109.161 Y159.303 E.03206
G1 X110.072 Y159.401 E.03311
G1 X110.739 Y159.314 E.02429
G1 X111.27 Y159.269 E.01923
G1 X111.686 Y159.258 E.01503
G1 X111.726 Y159.714 F9000
G1 F1200
G1 X118.464 Y159.714 E.24326
G1 X118.464 Y45.995 E4.10591
G1 X101.536 Y45.995 E.61117
G1 X101.536 Y159.714 E4.10591
G1 X108.274 Y159.714 E.24326
G1 X109.113 Y159.758 E.03032
G1 X110.014 Y159.874 E.03283
G1 X110.793 Y159.768 E.02836
G1 X111.295 Y159.725 E.01819
G1 X111.686 Y159.715 E.01414
G1 X111.726 Y160.171 F9000
G1 F1200
G1 X118.921 Y160.171 E.25977
G1 X118.921 Y45.538 E4.13892
G1 X101.079 Y45.538 E.64418
G1 X101.079 Y160.171 E4.13892
G1 X108.274 Y160.171 E.25977
G1 X109.065 Y160.212 E.02859
G1 X110.095 Y160.324 E.03742
G1 X110.846 Y160.222 E.02736
G1 X111.686 Y160.173 E.03039
G1 X111.726 Y160.628 F9000
G1 F1200
G1 X119.378 Y160.628 E.27627
G1 X119.378 Y45.081 E4.17193
G1 X100.622 Y45.081 E.67718
G1 X100.622 Y160.628 E4.17193
G1 X108.274 Y160.628 E.27627
G1 X109.017 Y160.667 E.02686
G1 X110.034 Y160.801 E.03703
G1 X110.54 Y160.719 E.01853
G1 X111.344 Y160.638 E.02916
G1 X111.686 Y160.629 E.01236
G1 X111.726 Y161.085 F9000
G1 F1200
G1 X119.835 Y161.085 E.29277
M73 P2 R195
G1 X119.835 Y44.624 E4.20493
G1 X100.165 Y44.624 E.71019
G1 X100.165 Y161.085 E4.20493
G1 X108.274 Y161.085 E.29277
G1 X108.969 Y161.121 E.02512
G1 X109.468 Y161.181 E.01815
G1 X110 Y161.276 E.01952
G1 X110.532 Y161.181 E.01952
G1 X111.031 Y161.121 E.01815
G1 X111.686 Y161.087 E.02368
G1 X111.726 Y161.542 F9000
G1 F1200
G1 X120.292 Y161.542 E.30928
G1 X120.292 Y44.167 E4.23794
G1 X99.708 Y44.167 E.7432
G1 X99.708 Y161.542 E4.23794
G1 X108.274 Y161.542 E.30928
G1 X108.921 Y161.576 E.02339
G1 X109.477 Y161.644 E.02024
G1 X110 Y161.745 E.01922
G1 X110.523 Y161.644 E.01922
G1 X111.044 Y161.58 E.01898
G1 X111.686 Y161.544 E.0232
G1 X111.726 Y161.999 F9000
G1 F1200
G1 X120.749 Y161.999 E.32578
G1 X120.749 Y43.71 E4.27095
G1 X99.251 Y43.71 E.7762
G1 X99.251 Y161.999 E4.27095
G1 X108.274 Y161.999 E.32578
G1 X108.873 Y162.03 E.02166
G1 X109.41 Y162.096 E.01954
G1 X110 Y162.216 E.02173
G1 X110.512 Y162.108 E.01888
G1 X111.059 Y162.038 E.01993
G1 X111.686 Y162.001 E.02267
G1 X111.726 Y162.456 F9000
G1 F1200
G1 X121.206 Y162.456 E.34228
G1 X121.206 Y43.253 E4.30395
M73 P3 R195
G1 X98.794 Y43.253 E.80921
G1 X98.794 Y162.456 E4.30395
G1 X108.274 Y162.456 E.34228
G1 X108.825 Y162.485 E.01993
G1 X109.343 Y162.548 E.01885
G1 X110 Y162.69 E.02426
G1 X110.499 Y162.574 E.01849
G1 X111.113 Y162.492 E.02236
G1 X111.686 Y162.458 E.02074
G1 X111.726 Y162.913 F9000
G1 F1200
G1 X121.663 Y162.913 E.35879
G1 X121.663 Y42.796 E4.33696
M73 P3 R194
G1 X98.337 Y42.796 E.84222
G1 X98.337 Y162.913 E4.33696
G1 X108.274 Y162.913 E.35879
G1 X108.777 Y162.94 E.01819
G1 X109.276 Y163 E.01815
G1 X110.004 Y163.164 E.02694
G1 X110.579 Y163.024 E.02139
G1 X111.166 Y162.946 E.02136
G1 X111.686 Y162.915 E.01881
G1 X111.726 Y163.37 F9000
G1 F1200
G1 X122.12 Y163.37 E.37529
G1 X122.12 Y42.338 E4.36997
G1 X97.88 Y42.338 E.87522
G1 X97.88 Y163.37 E4.36997
G1 X108.274 Y163.37 E.37529
G1 X108.781 Y163.4 E.01833
G1 X109.34 Y163.474 E.02036
G1 X110 Y163.649 E.02466
G1 X110.573 Y163.49 E.02147
G1 X111.219 Y163.4 E.02356
G1 X111.686 Y163.373 E.01688
G1 X111.726 Y163.827 F9000
G1 F1200
G1 X122.577 Y163.827 E.39179
G1 X122.577 Y41.881 E4.40297
G1 X97.423 Y41.881 E.90823
G1 X97.423 Y163.827 E4.40297
G1 X108.274 Y163.827 E.39179
G1 X109.026 Y163.889 E.02725
G1 X109.559 Y163.99 E.0196
G1 X110.048 Y164.116 E.0182
G1 X110.566 Y163.959 E.01953
G1 X111.273 Y163.854 E.02581
G1 X111.686 Y163.83 E.01495
G1 X111.726 Y164.284 F9000
G1 F1200
G1 X123.034 Y164.284 E.4083
G1 X123.034 Y41.424 E4.43598
G1 X96.966 Y41.424 E.94124
G1 X96.966 Y164.284 E4.43598
G1 X108.274 Y164.284 E.4083
G1 X108.973 Y164.343 E.02532
G1 X109.589 Y164.474 E.02276
G1 X110.013 Y164.625 E.01624
G1 X110.557 Y164.432 E.02084
G1 X111.326 Y164.308 E.02814
G1 X111.686 Y164.287 E.01302
G1 X111.726 Y164.741 F9000
G1 F1200
G1 X123.491 Y164.741 E.4248
G1 X123.491 Y40.967 E4.46899
M73 P3 R193
G1 X96.509 Y40.967 E.97424
G1 X96.509 Y164.741 E4.46899
G1 X108.274 Y164.741 E.4248
G1 X108.919 Y164.797 E.02339
G1 X109.454 Y164.91 E.01972
G1 X110.017 Y165.125 E.02176
G1 X110.546 Y164.91 E.02062
G1 X111.055 Y164.8 E.0188
G1 X111.686 Y164.743 E.02287
G1 X111.726 Y165.199 F9000
G1 F1200
G1 X123.949 Y165.199 E.4413
G1 X123.949 Y40.51 E4.50199
G1 X96.051 Y40.51 E1.00725
G1 X96.051 Y165.199 E4.50199
G1 X108.274 Y165.199 E.4413
G1 X108.866 Y165.251 E.02146
G1 X109.465 Y165.397 E.02228
G1 X110.016 Y165.627 E.02155
G1 X110.535 Y165.397 E.02046
G1 X111.024 Y165.266 E.01831
G1 X111.686 Y165.2 E.02401
G1 X111.726 Y165.656 F9000
G1 F1200
G1 X124.406 Y165.656 E.45781
G1 X124.406 Y40.053 E4.535
G1 X95.594 Y40.053 E1.04026
G1 X95.594 Y165.656 E4.535
G1 X108.274 Y165.656 E.45781
G1 X108.813 Y165.705 E.01953
G1 X109.303 Y165.825 E.01823
G1 X110.014 Y166.135 E.02799
G1 X110.489 Y165.915 E.01892
G1 X110.971 Y165.742 E.01849
G1 X111.686 Y165.658 E.026
G1 X111.726 Y166.113 F9000
G1 F1200
G1 X124.863 Y166.113 E.47431
G1 X124.863 Y39.596 E4.56801
M73 P4 R193
G1 X95.137 Y39.596 E1.07326
G1 X95.137 Y166.113 E4.56801
G1 X108.274 Y166.113 E.47431
G1 X108.773 Y166.16 E.0181
G1 X109.141 Y166.252 E.01368
G1 X109.654 Y166.464 E.02005
G1 X109.99 Y166.7 E.01483
G1 X110.325 Y166.49 E.01427
G1 X110.859 Y166.252 E.02111
G1 X111.241 Y166.159 E.01418
G1 X111.686 Y166.116 E.01616
G1 X111.726 Y166.57 F9000
G1 F1200
G1 X125.32 Y166.57 E.49081
G1 X125.32 Y39.139 E4.60101
M73 P4 R192
G1 X94.68 Y39.139 E1.10627
G1 X94.68 Y166.57 E4.60101
G1 X108.274 Y166.57 E.49081
G1 X108.775 Y166.623 E.01818
G1 X109.287 Y166.796 E.01953
G1 X109.579 Y166.96 E.0121
G1 X110 Y167.303 E.0196
G1 X110.361 Y166.991 E.01723
G1 X110.866 Y166.747 E.02026
G1 X111.284 Y166.614 E.01584
G1 X111.686 Y166.574 E.01459
G1 X111.726 Y167.027 F9000
G1 F1200
G1 X125.777 Y167.027 E.50732
G1 X125.777 Y38.682 E4.63402
G1 X94.223 Y38.682 E1.13927
G1 X94.223 Y167.027 E4.63402
G1 X108.274 Y167.027 E.50732
G1 X108.776 Y167.093 E.01828
G1 X109.252 Y167.288 E.01856
G1 X109.656 Y167.598 E.01839
G1 X109.993 Y168.058 E.02059
G1 X110.344 Y167.598 E.0209
G1 X110.702 Y167.323 E.0163
G1 X111.184 Y167.107 E.01906
G1 X111.686 Y167.028 E.01835
G1 X111.726 Y167.484 F9000
;WIDTH:0.499855
G1 F1200
G1 X126.234 Y167.484 E.52365
G1 X126.234 Y38.225 E4.66555
G1 X93.766 Y38.225 E1.17191
G1 X93.766 Y167.484 E4.66555
G1 X108.274 Y167.484 E.52365
G1 X108.654 Y167.534 E.01383
G1 X109.021 Y167.684 E.0143
G1 X109.393 Y167.986 E.01729
G1 X109.648 Y168.392 E.01731
G1 X109.773 Y168.99 E.02206
G1 X109.773 Y175.927 E.25038
G1 X110.227 Y175.927 E.01638
G1 X110.227 Y168.99 E.25038
G1 X110.352 Y168.392 E.02206
G1 X110.646 Y167.942 E.0194
G1 X110.891 Y167.74 E.01147
G1 X111.359 Y167.529 E.01853
G1 X111.686 Y167.489 E.01189
; stop printing object SchubUnten id:0 copy 0
;LAYER_CHANGE
;Z:0.4
;HEIGHT:0.2
;BEFORE_LAYER_CHANGE
;0.4
G92 E0

G1 E-3.5 F1800
;WIPE_START
G1 F1200
G1 X111.359 Y167.529 E-.32936
G1 X110.891 Y167.74 E-.51344
G1 X110.646 Y167.942 E-.31768
G1 X110.46 Y168.226 E-.33952
;WIPE_END
EXCLUDE_OBJECT_END NAME=SchubUnten_id_0_copy_0
;_SET_FAN_SPEED_CHANGING_LAYER
M104 S240 ; set nozzle temperature
M140 S80 ; set bed temperature
; printing object SchubUnten id:0 copy 0
EXCLUDE_OBJECT_START NAME=SchubUnten_id_0_copy_0
G17
G3 Z.6 I-.152 J1.207 P1  F9000
G1 X111.253 Y168.326 Z.6
G1 Z.4
G1 E5 F1800
;TYPE:Inner wall
;WIDTH:0.486512
G1 F4800
G1 X111.157 Y168.387 E.004
;WIDTH:0.449999
G1 X110.955 Y168.979 E.0201
G1 X110.955 Y176.545 E.2433
G1 X110.89 Y176.655 E.00411
G1 X109.155 Y176.655 E.05579
G1 X109.045 Y176.59 E.00411
G1 X109.045 Y168.961 E.24532
G1 X108.843 Y168.387 E.01957
;WIDTH:0.471682
G1 X108.077 Y168 E.02906
G1 X109.039 Y167.989 E.03256
;WIDTH:0.449999
G1 X110.961 Y167.989 E.06182
;WIDTH:0.486512
G1 X111.752 Y168.007 E.02772
G1 X111.287 Y168.304 E.01935
G1 E-3.5 F1800
;WIPE_START
G1 F4800
G1 X111.157 Y168.387 E-.15415
G1 X110.955 Y168.979 E-.62499
G1 X110.955 Y169.699 E-.72087
;WIPE_END
G17
G3 Z.8 I.361 J-1.162 P1  F9000
G1 X105.479 Y168 Z.8
G1 Z.4
G1 E5 F1800
;WIDTH:0.471684
G1 F4800
G1 X104.5 Y168.011 E.03314
;WIDTH:0.449999
G1 X93.239 Y168.011 E.36211
G1 X93.239 Y37.495 E4.19691
