; HEADER_BLOCK_START
; generated by OrcaSlicer 1.7.0 on 2023-12-16 at 17:10:32
; total layer number: 25
; HEADER_BLOCK_END

; THUMBNAIL_BLOCK_START
; THUMBNAIL_BLOCK_END

; external perimeters extrusion width = 0.40mm
; perimeters extrusion width = 0.45mm
; infill extrusion width = 0.45mm
; solid infill extrusion width = 0.40mm
; top infill extrusion width = 0.40mm
; first layer extrusion width = 0.50mm

; EXECUTABLE_BLOCK_START
EXCLUDE_OBJECT_DEFINE NAME=Side_Spool_Mount_-_Ender_3_Pro_-_Long_-_4_Tabs_v1_-_Part_2_2_.stl_id_0_copy_0 CENTER=110,110 POLYGON=[[81.629,107.105],[88.729,100.005],[138.371,100.005],[138.371,115.995],[99.064,119.995],[81.629,119.995],[81.629,107.105]]
M73 P0 R17
;TYPE:Custom
START_PRINT EXTRUDER_TEMP=255  BED_TEMP=80
G90
G21
M83 ; use relative distances for extrusion
; filament start gcode
M106 S0
;LAYER_CHANGE
;Z:0.2
;HEIGHT:0.2
;BEFORE_LAYER_CHANGE
;0.2
G92 E0

G1 E-5 F1800
;_SET_FAN_SPEED_CHANGING_LAYER
G1 X80.688 Y91.964 F9000
G1 Z.4
G1 Z.2
G1 E5 F1800
;TYPE:Skirt
;WIDTH:0.5
G1 F900
G1 X83.079 Y90.137 E.10866
G1 X85.866 Y89 E.10866
G1 X88.729 Y88.634 E.10422
G1 X138.371 Y88.634 E1.79237
G1 X141.354 Y89.032 E.10866
G1 X144.128 Y90.199 E.10866
G1 X146.499 Y92.053 E.10866
G1 X148.3 Y94.463 E.10866
G1 X149.406 Y97.262 E.10866
G1 X149.742 Y100.005 E.09977
G1 X149.742 Y115.995 E.57734
G1 X149.344 Y118.978 E.10866
G1 X148.177 Y121.752 E.10866
G1 X146.323 Y124.123 E.10866
G1 X143.913 Y125.924 E.10866
G1 X141.114 Y127.03 E.10866
G1 X139.522 Y127.308 E.05833
G1 X100.215 Y131.308 E1.42655
M73 P1 R17
G1 X99.064 Y131.366 E.04162
G1 X81.629 Y131.366 E.62951
G1 X78.646 Y130.968 E.10866
G1 X75.872 Y129.801 E.10866
G1 X73.501 Y127.947 E.10866
G1 X71.7 Y125.537 E.10866
G1 X70.594 Y122.738 E.10866
G1 X70.258 Y119.995 E.09977
G1 X70.258 Y107.105 E.46541
G1 X70.656 Y104.122 E.10866
G1 X71.823 Y101.348 E.10866
G1 X73.588 Y99.064 E.10422
G1 X80.66 Y91.993 E.36109
G1 X80.983 Y92.316 F9000
G1 F900
G1 X81.012 Y92.288 E.00144
G1 X83.359 Y90.504 E.10644
G1 X86.098 Y89.413 E.10644
G1 X88.729 Y89.091 E.09572
G1 X138.371 Y89.091 E1.79237
G1 X141.292 Y89.489 E.10644
G1 X144 Y90.654 E.10644
G1 X146.297 Y92.502 E.10644
G1 X148.016 Y94.897 E.10644
G1 X149.031 Y97.665 E.10644
G1 X149.285 Y100.005 E.08498
G1 X149.285 Y115.995 E.57734
M73 P2 R17
G1 X148.887 Y118.916 E.10644
G1 X147.722 Y121.624 E.10644
G1 X145.874 Y123.921 E.10644
G1 X143.479 Y125.64 E.10644
G1 X139.476 Y126.853 E.15101
G1 X100.169 Y130.853 E1.42655
G1 X99.064 Y130.909 E.03995
G1 X81.629 Y130.909 E.62951
G1 X78.708 Y130.511 E.10644
G1 X76 Y129.346 E.10644
G1 X73.703 Y127.498 E.10644
G1 X71.984 Y125.103 E.10644
G1 X70.969 Y122.335 E.10644
G1 X70.715 Y119.995 E.08498
G1 X70.715 Y107.105 E.46541
G1 X71.113 Y104.184 E.10644
G1 X72.278 Y101.476 E.10644
G1 X73.912 Y99.388 E.09572
G1 X80.955 Y92.344 E.35965
G1 X81.278 Y92.667 F9000
G1 F900
G1 X81.335 Y92.611 E.00289
G1 X83.637 Y90.871 E.10418
G1 X86.327 Y89.828 E.10418
G1 X88.729 Y89.548 E.08731
G1 X138.371 Y89.548 E1.79237
M73 P3 R17
G1 X141.229 Y89.946 E.10418
G1 X143.869 Y91.11 E.10418
G1 X146.091 Y92.951 E.10418
G1 X147.725 Y95.329 E.10418
G1 X148.646 Y98.064 E.10418
G1 X148.828 Y100.005 E.0704
G1 X148.828 Y115.995 E.57734
G1 X148.43 Y118.853 E.10418
G1 X147.266 Y121.493 E.10418
G1 X145.425 Y123.715 E.10418
G1 X143.047 Y125.349 E.10418
G1 X139.43 Y126.398 E.13598
G1 X100.123 Y130.398 E1.42655
G1 X99.064 Y130.452 E.03827
G1 X81.629 Y130.452 E.62951
M73 P3 R16
G1 X78.771 Y130.054 E.10418
G1 X76.131 Y128.89 E.10418
G1 X73.909 Y127.049 E.10418
G1 X72.275 Y124.671 E.10418
G1 X71.354 Y121.936 E.10418
G1 X71.172 Y119.995 E.0704
M73 P4 R16
G1 X71.172 Y107.105 E.46541
G1 X71.57 Y104.247 E.10418
G1 X72.734 Y101.607 E.10418
G1 X74.235 Y99.711 E.08731
G1 X81.25 Y92.696 E.3582
; printing object Side_Spool_Mount_-_Ender_3_Pro_-_Long_-_4_Tabs v1 - Part 2 (2).stl id:0 copy 0
G1 E-3.5 F1800
;WIPE_START
G1 F900
G1 X81.335 Y92.611 E-.36
G1 X81.638 Y92.382 E-1.14
;WIPE_END
EXCLUDE_OBJECT_START NAME=Side_Spool_Mount_-_Ender_3_Pro_-_Long_-_4_Tabs_v1_-_Part_2_2_.stl_id_0_copy_0
G17
G3 Z.6 I-.984 J.717 P1  F9000
G1 X98.247 Y115.173 Z.6
G1 Z.2
G1 E5 F1800
;TYPE:Inner wall
;WIDTH:0.499999
G1 F900
G1 X98.144 Y115.267 E.00505
G1 X97.967 Y115.588 E.01324
G1 X97.9 Y115.974 E.01412
G1 X97.9 Y118.831 E.10317
G1 X82.793 Y118.831 E.54544
G1 X82.793 Y107.587 E.40596
G1 X89.211 Y101.169 E.32772
G1 X137.207 Y101.169 E1.73293
G1 X137.207 Y105.075 E.14101
G1 X137.207 Y114.831 E.35225
G1 X99.305 Y114.831 E1.36848
M73 P5 R16
G1 X98.75 Y114.869 E.0201
G1 X98.417 Y115.017 E.01314
G1 X98.277 Y115.146 E.00689
G1 X98.555 Y115.51 F9000
G1 F900
G1 X98.425 Y115.676 E.00761
G1 X98.357 Y115.974 E.01103
G1 X98.357 Y119.288 E.11967
G1 X82.336 Y119.288 E.57845
G1 X82.336 Y107.398 E.4293
G1 X89.022 Y100.712 E.34139
G1 X137.664 Y100.712 E1.75627
G1 X137.664 Y105.075 E.15752
G1 X137.664 Y115.288 E.36876
G1 X99.721 Y115.288 E1.36998
M73 P6 R16
G1 X98.867 Y115.311 E.03084
G1 X98.609 Y115.443 E.01047
G1 X98.58 Y115.479 E.00166
G1 X98.879 Y115.814 F9000
;TYPE:Outer wall
G1 F900
G1 X98.814 Y115.974 E.00624
G1 X98.814 Y119.745 E.13617
G1 X81.879 Y119.745 E.61145
G1 X81.879 Y107.209 E.45264
G1 X88.833 Y100.255 E.35506
G1 X138.121 Y100.255 E1.77961
G1 X138.121 Y105.075 E.17402
G1 X138.121 Y115.745 E.38526
G1 X99.043 Y115.745 E1.41097
M73 P7 R16
G1 X98.916 Y115.798 E.00495
G1 E-3.5 F1800
;WIPE_START
G1 F900
G1 X98.814 Y115.974 E-.60907
G1 X98.814 Y116.271 E-.89093
;WIPE_END
G17
G3 Z.6 I.198 J1.201 P1  F9000
G1 X131.275 Y110.921 Z.6
G1 Z.2
G1 E5 F1800
;TYPE:Inner wall
G1 F900
G1 X131.079 Y111.413 E.01913
G1 X130.676 Y112.013 E.02609
G1 X130.189 Y112.461 E.02389
G1 X129.618 Y112.794 E.02387
G1 X129.329 Y112.901 E.01113
G1 X128.721 Y113.035 E.02247
G1 X128.413 Y113.06 E.01115
G1 X127.754 Y112.997 E.02389
G1 X127.124 Y112.795 E.02389
G1 X126.553 Y112.461 E.02389
G1 X126.066 Y112.013 E.02389
G1 X125.687 Y111.47 E.02389
G1 X125.423 Y110.799 E.02605
G1 X125.322 Y110.185 E.02247
G1 X125.313 Y109.876 E.01115
G1 X125.374 Y109.36 E.0188
G1 X125.544 Y108.829 E.02011
G1 X125.681 Y108.553 E.01113
G1 X126.03 Y108.038 E.02247
G1 X126.236 Y107.808 E.01115
G1 X126.757 Y107.4 E.02387
G1 X127.408 Y107.101 E.02587
G1 X128.019 Y106.966 E.02262
G1 X128.329 Y106.94 E.01121
G1 X128.988 Y107.003 E.02389
G1 X129.618 Y107.205 E.02389
G1 X130.189 Y107.539 E.02389
G1 X130.676 Y107.987 E.02389
G1 X131.054 Y108.529 E.02387
G1 X131.318 Y109.195 E.02587
G1 X131.435 Y110 E.02936
G1 X131.384 Y110.536 E.01944
G1 X131.309 Y110.835 E.01113
G1 X131.29 Y110.884 E.0019
G1 X130.939 Y110.379 F9000
G1 F900
G1 X130.923 Y110.531 E.00551
G1 X130.655 Y111.244 E.02752
G1 X130.312 Y111.736 E.02165
G1 X129.893 Y112.113 E.02033
G1 X129.404 Y112.391 E.02031
G1 X128.623 Y112.588 E.0291
G1 X128.023 Y112.581 E.02165
G1 X127.476 Y112.446 E.02033
G1 X126.971 Y112.196 E.02033
G1 X126.532 Y111.844 E.02033
G1 X126.179 Y111.406 E.02033
G1 X125.928 Y110.902 E.02031
G1 X125.773 Y110.111 E.0291
G1 X125.813 Y109.513 E.02165
G1 X125.977 Y108.975 E.02031
G1 X126.408 Y108.294 E.0291
G1 X126.849 Y107.887 E.02165
G1 X127.334 Y107.611 E.02015
G1 X128.118 Y107.412 E.02923
G1 X128.719 Y107.419 E.02168
G1 X129.266 Y107.554 E.02033
G1 X129.771 Y107.804 E.02033
G1 X130.21 Y108.156 E.02033
G1 X130.563 Y108.594 E.02033
G1 X130.812 Y109.094 E.02015
G1 X130.978 Y110 E.03326
G1 X130.943 Y110.339 E.01232
G1 X130.503 Y110.145 F9000
;TYPE:Outer wall
G1 F900
G1 X130.46 Y110.497 E.01279
G1 X130.23 Y111.075 E.02247
G1 X129.914 Y111.496 E.01899
G1 X129.556 Y111.792 E.01678
G1 X129.132 Y112.008 E.01719
G1 X128.524 Y112.142 E.02247
G1 X127.999 Y112.116 E.01899
G1 X127.553 Y111.987 E.01678
G1 X127.145 Y111.765 E.01678
G1 X126.794 Y111.46 E.01678
G1 X126.517 Y111.087 E.01678
G1 X126.325 Y110.651 E.01719
G1 X126.224 Y110.037 E.02247
G1 X126.278 Y109.514 E.01899
G1 X126.438 Y109.065 E.01719
G1 X126.787 Y108.55 E.02247
G1 X127.185 Y108.208 E.01898
G1 X127.606 Y107.994 E.01703
G1 X128.217 Y107.858 E.02262
G1 X128.743 Y107.884 E.019
G1 X129.189 Y108.013 E.01678
G1 X129.597 Y108.235 E.01678
G1 X129.948 Y108.54 E.01678
G1 X130.225 Y108.913 E.01677
G1 X130.416 Y109.345 E.01703
G1 X130.521 Y110 E.02396
G1 X130.508 Y110.106 E.00384
G1 E-3.5 F1800
;WIPE_START
G1 F900
G1 X130.46 Y110.497 E-1.18301
G1 X130.421 Y110.595 E-.31699
;WIPE_END
G17
G3 Z.6 I.078 J-1.214 P1  F9000
G1 X89.37 Y107.947 Z.6
G1 Z.2
G1 E5 F1800
;TYPE:Inner wall
G1 F900
G1 X89.494 Y107.808 E.00671
G1 X90.065 Y107.376 E.02587
G1 X90.633 Y107.112 E.02262
G1 X91.34 Y106.954 E.02615
G1 X92.002 Y106.963 E.02389
G1 X92.646 Y107.114 E.02389
G1 X93.238 Y107.397 E.0237
G1 X93.488 Y107.576 E.01109
G1 X93.943 Y108.006 E.02262
G1 X94.138 Y108.247 E.01119
G1 X94.423 Y108.743 E.02063
G1 X94.64 Y109.485 E.02792
G1 X94.682 Y109.792 E.01121
G1 X94.673 Y110.351 E.02018
G1 X94.566 Y110.859 E.01875
G1 X94.313 Y111.47 E.02389
G1 X93.934 Y112.013 E.02389
G1 X93.447 Y112.461 E.02389
G1 X92.876 Y112.794 E.02387
G1 X92.587 Y112.901 E.01113
G1 X91.979 Y113.035 E.02247
G1 X91.671 Y113.06 E.01115
G1 X91.012 Y112.997 E.02389
G1 X90.382 Y112.795 E.02389
G1 X89.811 Y112.461 E.02389
G1 X89.434 Y112.137 E.01794
G1 X88.939 Y111.448 E.03063
G1 X88.669 Y110.778 E.02609
G1 X88.571 Y110.124 E.02389
G1 X88.616 Y109.463 E.02389
G1 X88.8 Y108.833 E.0237
G1 X88.936 Y108.558 E.01109
G1 X89.287 Y108.039 E.02261
G1 X89.343 Y107.976 E.00303
G1 X89.736 Y108.23 F9000
G1 F900
G1 X90.103 Y107.89 E.01806
G1 X90.826 Y107.527 E.02923
G1 X91.414 Y107.405 E.02168
G1 X91.977 Y107.419 E.02033
G1 X92.524 Y107.554 E.02033
G1 X93.024 Y107.801 E.02015
G1 X93.629 Y108.339 E.02922
G1 X93.958 Y108.835 E.0215
G1 X94.2 Y109.608 E.02923
G1 X94.22 Y110.294 E.02478
G1 X94.101 Y110.829 E.01979
G1 X93.864 Y111.343 E.02044
G1 X93.528 Y111.786 E.02009
G1 X93.09 Y112.16 E.02079
G1 X92.488 Y112.454 E.02417
G1 X91.881 Y112.588 E.02247
G1 X91.281 Y112.581 E.02165
G1 X90.734 Y112.446 E.02033
G1 X90.229 Y112.196 E.02033
G1 X89.791 Y111.844 E.02031
G1 X89.318 Y111.192 E.0291
G1 X89.103 Y110.632 E.02165
G1 X89.026 Y110.074 E.02033
G1 X89.071 Y109.513 E.02033
G1 X89.233 Y108.979 E.02015
G1 X89.666 Y108.295 E.02922
G1 X89.706 Y108.257 E.00199
G1 X90.041 Y108.556 F9000
;TYPE:Outer wall
G1 F900
G1 X90.045 Y108.551 E.00025
G1 X90.451 Y108.205 E.01925
G1 X91.019 Y107.941 E.02262
G1 X91.525 Y107.853 E.01856
G1 X92.001 Y107.884 E.01722
G1 X92.447 Y108.013 E.01677
G1 X92.86 Y108.241 E.01703
G1 X93.316 Y108.671 E.02262
G1 X93.581 Y109.1 E.01821
G1 X93.759 Y109.731 E.02368
G1 X93.766 Y110.236 E.01826
G1 X93.657 Y110.71 E.01753
G1 X93.457 Y111.129 E.01678
G1 X93.172 Y111.496 E.01678
G1 X92.814 Y111.792 E.01678
G1 X92.39 Y112.008 E.01719
G1 X91.782 Y112.142 E.02247
G1 X91.257 Y112.116 E.01899
G1 X90.811 Y111.987 E.01678
G1 X90.403 Y111.765 E.01678
G1 X90.045 Y111.45 E.01719
G1 X89.696 Y110.935 E.02247
G1 X89.527 Y110.453 E.01846
G1 X89.48 Y109.975 E.01732
G1 X89.536 Y109.514 E.01677
G1 X89.694 Y109.07 E.01703
G1 X90.018 Y108.59 E.02092
G1 E-3.5 F1800
;WIPE_START
G1 F900
G1 X90.045 Y108.551 E-.14119
G1 X90.39 Y108.257 E-1.35881
;WIPE_END
G17
G3 Z.6 I-.097 J1.213 P1  F9000
G1 X134.199 Y111.768 Z.6
M73 P8 R16
G1 Z.2
G1 E5 F1800
;TYPE:Bottom surface
;WIDTH:0.366566
G1 F1200
G1 X134.139 Y111.803 E.00179
G1 X134.2 Y111.838 E.00179
G1 E-3.5 F1800
;WIPE_START
G1 F1200
G1 X134.139 Y111.803 E-.75
G1 X134.199 Y111.768 E-.75
;WIPE_END
G17
G3 Z.6 I1.217 J-.027 P1  F9000
G1 X134.112 Y107.815 Z.6
G1 Z.2
G1 E5 F1800
;WIDTH:0.499999
G1 F1200
G1 X134.112 Y104.264 E.12823
G1 X130.558 Y104.264 E.12834
G1 X131.31 Y104.604 E.0298
G1 X131.857 Y104.94 E.0232
G1 X132.401 Y105.362 E.02485
G1 X132.864 Y105.808 E.0232
G1 X133.304 Y106.336 E.02485
G1 X133.659 Y106.87 E.02311
G1 X133.973 Y107.474 E.0246
G1 X134.097 Y107.778 E.01185
G1 E-3.5 F1800
;WIPE_START
G1 F1200
G1 X133.973 Y107.474 E-.98449
G1 X133.894 Y107.322 E-.51551
;WIPE_END
G17
G3 Z.6 I1.068 J-.584 P1  F9000
G1 X132.507 Y104.784 Z.6
G1 Z.2
G1 E5 F1800
;WIDTH:0.62756
G1 F1200
G1 X133.089 Y105.28 E.03532
G1 X133.592 Y105.868 E.03569
G1 X133.592 Y104.784 E.05002
G1 X132.547 Y104.784 E.04824
G1 E-3.5 F1800
;WIPE_START
G1 F1200
G1 X133.047 Y104.784 E-1.5
;WIPE_END
G17
G3 Z.6 I.092 J-1.213 P1  F9000
G1 X126.166 Y104.264 Z.6
G1 Z.2
G1 E5 F1800
;WIDTH:0.499999
G1 F1200
G1 X93.827 Y104.264 E1.16761
G1 X94.383 Y104.503 E.02187
G1 X94.89 Y104.786 E.02095
G1 X95.485 Y105.222 E.02663
G1 X96.188 Y105.887 E.03494
G1 X96.66 Y106.462 E.02686
G1 X96.967 Y106.95 E.02081
G1 X97.318 Y107.673 E.02904
G1 X97.671 Y108.895 E.04593
G1 X97.766 Y109.644 E.02725
G1 X97.766 Y110.372 E.02627
G1 X97.695 Y111.014 E.02332
G1 X97.552 Y111.656 E.02376
G1 X97.425 Y112.063 E.0154
G1 X97.947 Y111.89 E.01986
G1 X98.704 Y111.75 E.02778
G1 X122.476 Y111.738 E.85832
G1 X122.36 Y111.243 E.01835
G1 X122.245 Y110.453 E.02884
G1 X122.228 Y109.723 E.02637
G1 X122.298 Y109.036 E.02494
G1 X122.422 Y108.438 E.02203
G1 X122.594 Y107.894 E.02059
G1 X122.919 Y107.161 E.02896
G1 X123.596 Y106.135 E.04438
G1 X124.058 Y105.616 E.02508
G1 X124.497 Y105.226 E.02121
G1 X124.96 Y104.889 E.02069
G1 X125.546 Y104.543 E.02456
G1 X126.128 Y104.277 E.0231
G1 X124.418 Y104.721 F9000
G1 F1200
G1 X95.568 Y104.721 E1.04166
G1 X95.799 Y104.89 E.01034
G1 X96.502 Y105.555 E.03494
G1 X97.047 Y106.218 E.03099
G1 X97.354 Y106.706 E.02081
G1 X97.601 Y107.175 E.01914
G1 X97.909 Y107.991 E.03148
G1 X98.114 Y108.781 E.02947
G1 X98.194 Y109.191 E.0151
G1 X98.223 Y110.372 E.04265
G1 X98.141 Y111.113 E.02691
G1 X98.079 Y111.392 E.01033
G1 X98.667 Y111.295 E.02154
G1 X99.861 Y111.284 E.04309
G1 X121.904 Y111.281 E.79589
M73 P9 R16
G1 X121.792 Y110.519 E.0278
G1 X121.774 Y109.677 E.03042
G1 X121.843 Y108.989 E.02494
G1 X121.986 Y108.3 E.02542
G1 X122.158 Y107.756 E.02059
G1 X122.355 Y107.269 E.019
G1 X122.771 Y106.516 E.03104
G1 X123.221 Y105.873 E.02835
G1 X123.754 Y105.274 E.02894
G1 X124.193 Y104.884 E.02121
G1 X124.386 Y104.744 E.00859
G1 E-3.5 F1800
;WIPE_START
G1 F1200
G1 X124.193 Y104.884 E-.71386
G1 X123.997 Y105.058 E-.78614
;WIPE_END
G17
G3 Z.6 I-1.211 J.122 P1  F9000
G1 X124.506 Y110.122 Z.6
G1 Z.2
G1 E5 F1800
G1 F1200
G1 X124.572 Y109.266 E.03099
G1 X124.773 Y108.585 E.02565
G1 X125.019 Y108.088 E.02001
G1 X125.469 Y107.445 E.02835
G1 X126.014 Y106.935 E.02696
G1 X126.707 Y106.511 E.02932
G1 X127.263 Y106.305 E.02139
G1 X128.143 Y106.141 E.03235
G1 X128.779 Y106.154 E.02296
G1 X129.569 Y106.325 E.02918
G1 X130.331 Y106.669 E.03018
G1 X131.001 Y107.168 E.03018
G1 X131.549 Y107.8 E.03018
G1 X131.945 Y108.527 E.02991
G1 X132.119 Y109.084 E.02107
G1 X132.244 Y109.999 E.03333
G1 X132.119 Y110.932 E.034
G1 X131.834 Y111.705 E.02974
G1 X131.567 Y112.177 E.01959
G1 X131.244 Y112.585 E.01878
G1 X130.74 Y113.054 E.02485
G1 X130.03 Y113.491 E.0301
G1 X129.495 Y113.693 E.02066
G1 X129.273 Y113.72 E.00807
;WIDTH:0.4581
G1 X129.051 Y113.747 E.00733
;WIDTH:0.416201
G1 X128.829 Y113.774 E.00659
;WIDTH:0.374302
G1 X127.993 Y113.776 E.02188
;WIDTH:0.359685
G1 X127.72 Y113.742 E.00689
;WIDTH:0.406457
G1 X127.446 Y113.709 E.00791
;WIDTH:0.4974
G1 X127.173 Y113.675 E.00989
G1 X126.411 Y113.331 E.03001
G1 X125.741 Y112.832 E.03
G1 X125.193 Y112.2 E.03001
G1 X124.795 Y111.468 E.02993
G1 X124.622 Y110.912 E.02089
G1 X124.512 Y110.162 E.02724
G1 X125.074 Y110.846 F9000
;WIDTH:0.499999
G1 F1200
G1 X124.958 Y110.056 E.02884
G1 X125.027 Y109.312 E.02696
G1 X125.208 Y108.723 E.02228
G1 X125.393 Y108.35 E.01502
G1 X125.843 Y107.707 E.02835
G1 X126.318 Y107.277 E.02312
G1 X126.939 Y106.905 E.02615
G1 X127.346 Y106.755 E.01566
G1 X128.229 Y106.59 E.03244
G1 X128.756 Y106.611 E.01904
G1 X129.467 Y106.771 E.02629
G1 X130.135 Y107.082 E.02662
G1 X130.721 Y107.529 E.02662
G1 X131.198 Y108.092 E.02662
G1 X131.539 Y108.738 E.02637
G1 X131.667 Y109.15 E.01556
G1 X131.787 Y109.999 E.03098
G1 X131.667 Y110.869 E.0317
G1 X131.409 Y111.537 E.02585
G1 X131.203 Y111.901 E.0151
G1 X130.933 Y112.251 E.01595
G1 X130.429 Y112.719 E.02485
G1 X129.798 Y113.097 E.02655
G1 X129.397 Y113.246 E.01545
G1 X128.745 Y113.389 E.02411
G1 X127.996 Y113.389 E.02705
G1 X127.275 Y113.229 E.02664
G1 X126.607 Y112.918 E.02663
G1 X126.021 Y112.471 E.02662
G1 X125.544 Y111.908 E.02662
