; HEADER_BLOCK_START
; generated by OrcaSlicer 1.7.0 on 2023-12-12 at 12:28:56
; total layer number: 100
; HEADER_BLOCK_END

; THUMBNAIL_BLOCK_START
; THUMBNAIL_BLOCK_END

; external perimeters extrusion width = 0.40mm
; perimeters extrusion width = 0.45mm
; infill extrusion width = 0.45mm
; solid infill extrusion width = 0.40mm
; top infill extrusion width = 0.40mm
; first layer extrusion width = 0.50mm

; EXECUTABLE_BLOCK_START
EXCLUDE_OBJECT_DEFINE NAME=Side_Spool_Mount_-_Ender_3_Pro_-_Long_-_4_Tabs_v1_-_10T85_holder.stl_id_0_copy_0 CENTER=120.031,120.031 POLYGON=[[83.0465,125.596],[83.0469,85.4733],[117.983,85.4737],[128.024,85.4739],[157.015,114.466],[157.015,114.466],[116.891,154.588],[83.0465,125.596],[83.0465,125.596]]
M73 P0 R130
;TYPE:Custom
START_PRINT EXTRUDER_TEMP=255  BED_TEMP=80
G90
G21
M83 ; use relative distances for extrusion
; filament start gcode
M106 S0
;LAYER_CHANGE
;Z:0.2
;HEIGHT:0.2
;BEFORE_LAYER_CHANGE
;0.2
G92 E0

G1 E-5 F1800
;_SET_FAN_SPEED_CHANGING_LAYER
G1 X74.194 Y76.956 F9000
G1 Z.4
G1 Z.2
G1 E5 F1800
;TYPE:Skirt
;WIDTH:0.5
G1 F900
G1 X76.632 Y74.996 E.11296
G1 X79.487 Y73.715 E.11296
G1 X83.243 Y73.188 E.13695
G1 X128.024 Y73.188 E1.61685
G1 X131.127 Y73.587 E.11296
G1 X134.029 Y74.756 E.11296
G1 X136.711 Y76.787 E.12146
G1 X165.702 Y105.779 E1.48035
G1 X167.614 Y108.255 E.11296
G1 X168.839 Y111.133 E.11296
G1 X169.298 Y114.228 E.11296
G1 X168.959 Y117.339 E.11296
G1 X167.846 Y120.263 E.11296
G1 X165.702 Y123.153 E.12995
G1 X125.578 Y163.275 E2.04873
G1 X123.102 Y165.188 E.11296
G1 X120.224 Y166.413 E.11296
G1 X117.129 Y166.871 E.11296
G1 X114.019 Y166.533 E.11296
G1 X111.095 Y165.42 E.11296
G1 X108.899 Y163.918 E.09603
G1 X75.054 Y134.926 E1.60905
G1 X72.957 Y132.605 E.11296
G1 X71.513 Y129.829 E.11296
G1 X70.761 Y125.596 E.15524
G1 X70.762 Y85.473 E1.44867
G1 X71.16 Y82.37 E.11296
G1 X72.329 Y79.468 E.11296
G1 X74.17 Y76.988 E.11152
G1 X74.548 Y77.275 F9000
G1 F900
G1 X74.644 Y77.148 E.00577
G1 X77.07 Y75.267 E.11083
G1 X79.897 Y74.072 E.11083
G1 X83.243 Y73.645 E.12178
G1 X128.024 Y73.646 E1.61685
G1 X131.067 Y74.044 E.11083
G1 X133.906 Y75.212 E.11083
G1 X136.388 Y77.11 E.1128
G1 X165.379 Y106.102 E1.48035
G1 X167.249 Y108.536 E.11083
G1 X168.43 Y111.369 E.11083
G1 X168.843 Y114.411 E.11083
G1 X168.459 Y117.456 E.11083
G1 X167.304 Y120.3 E.11083
G1 X165.378 Y122.83 E.11477
G1 X125.255 Y162.952 E2.04873
G1 X122.821 Y164.822 E.11083
G1 X119.988 Y166.004 E.11083
G1 X116.946 Y166.416 E.11083
G1 X113.901 Y166.032 E.11083
G1 X111.057 Y164.877 E.11083
G1 X109.196 Y163.571 E.08207
G1 X75.352 Y134.579 E1.60905
G1 X73.299 Y132.297 E.11083
G1 X71.903 Y129.563 E.11083
G1 X71.218 Y125.596 E.14535
G1 X71.219 Y85.473 E1.44867
G1 X71.617 Y82.43 E.11083
G1 X72.785 Y79.591 E.11083
G1 X74.523 Y77.307 E.10362
G1 X74.896 Y77.599 F9000
G1 F900
G1 X75.095 Y77.345 E.01162
G1 X77.505 Y75.544 E.10866
G1 X80.304 Y74.438 E.10866
G1 X83.243 Y74.102 E.1068
G1 X128.024 Y74.103 E1.61685
G1 X131.007 Y74.501 E.10866
G1 X133.781 Y75.668 E.10866
G1 X136.064 Y77.433 E.10422
G1 X165.055 Y106.425 E1.48035
G1 X166.883 Y108.816 E.10866
G1 X168.02 Y111.603 E.10866
G1 X168.385 Y114.59 E.10866
G1 X167.954 Y117.568 E.10866
G1 X166.757 Y120.329 E.10866
G1 X165.055 Y122.506 E.09977
G1 X124.932 Y162.629 E2.04873
M73 P0 R129
G1 X122.541 Y164.456 E.10866
G1 X119.754 Y165.593 E.10866
G1 X116.767 Y165.958 E.10866
G1 X113.789 Y165.528 E.10866
G1 X111.028 Y164.331 E.10866
G1 X109.494 Y163.224 E.06829
G1 X75.649 Y134.232 E1.60905
G1 X73.643 Y131.989 E.10866
G1 X72.295 Y129.298 E.10866
G1 X71.675 Y125.596 E.13553
G1 X71.676 Y85.473 E1.44867
G1 X72.074 Y82.49 E.10866
G1 X73.241 Y79.716 E.10866
G1 X74.872 Y77.63 E.0956
G1 X75.239 Y77.926 F9000
G1 F900
G1 X75.544 Y77.547 E.01756
G1 X77.939 Y75.828 E.10644
G1 X80.707 Y74.813 E.10644
G1 X83.243 Y74.559 E.09201
G1 X128.024 Y74.56 E1.61685
G1 X130.945 Y74.958 E.10644
G1 X133.653 Y76.123 E.10644
G1 X135.741 Y77.757 E.09572
G1 X164.732 Y106.748 E1.48035
G1 X166.516 Y109.095 E.10644
G1 X167.607 Y111.834 E.10644
G1 X167.925 Y114.765 E.10644
G1 X167.446 Y117.674 E.10644
G1 X166.207 Y120.349 E.10644
G1 X164.732 Y122.183 E.08498
G1 X124.609 Y162.305 E2.04873
G1 X122.262 Y164.089 E.10644
G1 X119.523 Y165.18 E.10644
G1 X116.592 Y165.498 E.10644
G1 X113.683 Y165.02 E.10644
G1 X111.008 Y163.78 E.10644
G1 X109.791 Y162.877 E.05472
G1 X75.946 Y133.885 E1.60905
G1 X73.987 Y131.682 E.10644
G1 X72.688 Y129.035 E.10644
G1 X72.132 Y125.596 E.1258
G1 X72.133 Y85.473 E1.44867
M73 P1 R129
G1 X72.531 Y82.552 E.10644
G1 X73.697 Y79.844 E.10644
G1 X75.214 Y77.957 E.08744
G1 X75.576 Y78.257 F9000
G1 F900
G1 X75.993 Y77.754 E.02361
G1 X78.372 Y76.12 E.10418
G1 X81.106 Y75.198 E.10418
G1 X83.243 Y75.016 E.07744
G1 X128.024 Y75.017 E1.61685
G1 X130.882 Y75.415 E.10418
G1 X133.522 Y76.579 E.10418
G1 X135.418 Y78.08 E.08731
G1 X164.409 Y107.071 E1.48035
G1 X166.148 Y109.374 E.10418
G1 X167.192 Y112.064 E.10418
G1 X167.461 Y114.937 E.10418
G1 X166.935 Y117.774 E.10418
G1 X165.653 Y120.359 E.10418
G1 X164.409 Y121.86 E.0704
G1 X124.286 Y161.982 E2.04873
G1 X121.983 Y163.721 E.10418
G1 X119.293 Y164.765 E.10418
G1 X116.421 Y165.034 E.10418
G1 X113.584 Y164.508 E.10418
G1 X110.089 Y162.53 E.145
G1 X76.244 Y133.538 E1.60905
G1 X74.332 Y131.376 E.10418
G1 X73.084 Y128.775 E.10418
G1 X72.589 Y125.596 E.11615
G1 X72.59 Y85.473 E1.44867
G1 X72.988 Y82.615 E.10418
G1 X74.152 Y79.975 E.10418
G1 X75.551 Y78.288 E.07913
; printing object Side_Spool_Mount_-_Ender_3_Pro_-_Long_-_4_Tabs v1 - 10T85 holder.stl id:0 copy 0
G1 E-3.5 F1800
;WIPE_START
G1 F900
G1 X75.87 Y77.903 E-1.5
;WIPE_END
EXCLUDE_OBJECT_START NAME=Side_Spool_Mount_-_Ender_3_Pro_-_Long_-_4_Tabs_v1_-_10T85_holder.stl_id_0_copy_0
G17
G3 Z.6 I-.675 J1.012 P1  F9000
G1 X123.743 Y109.843 Z.6
G1 Z.2
G1 E5 F1800
;TYPE:Inner wall
;WIDTH:0.499999
G1 F900
G1 X123.629 Y109.855 E.00413
G1 X123.245 Y110.018 E.01504
G1 X122.97 Y110.273 E.01357
G1 X122.795 Y110.597 E.01329
G1 X122.732 Y110.971 E.01369
G1 X122.732 Y128.364 E.62799
G1 X122.806 Y128.769 E.01485
G1 X122.982 Y129.077 E.01281
G1 X123.25 Y129.321 E.01308
G1 X123.545 Y129.458 E.01175
G1 X123.875 Y129.507 E.01204
G1 X130.409 Y129.507 E.23593
G1 X130.614 Y129.488 E.00745
G1 X131.281 Y129.355 E.02454
G1 X131.725 Y129.148 E.0177
G1 X131.989 Y128.966 E.01155
G1 X132.374 Y128.613 E.01889
G1 X132.614 Y128.302 E.01417
G1 X132.857 Y127.839 E.01887
G1 X132.969 Y127.513 E.01243
G1 X133.04 Y127.126 E.01421
G1 X133.059 Y126.558 E.02051
G1 X143.009 Y126.825 E.35939
G1 X116.892 Y152.941 E1.33358
G1 X88.717 Y124.767 E1.43863
G1 X88.363 Y124.526 E.01546
G1 X87.91 Y124.432 E.01673
G1 X84.211 Y124.432 E.13355
G1 X84.211 Y86.638 E1.3646
M73 P1 R128
G1 X127.541 Y86.638 E1.56448
G1 X155.368 Y114.466 E1.4209
G1 X154.424 Y115.41 E.04823
G1 X153.479 Y116.355 E.04823
G1 X152.175 Y115.051 E.06659
G1 X151.803 Y114.802 E.01613
G1 X151.397 Y114.716 E.01498
G1 X147.54 Y114.613 E.13931
G1 X147.679 Y114.444 E.00789
G1 X148.06 Y113.834 E.02596
G1 X148.276 Y113.253 E.02239
G1 X148.393 Y112.497 E.02765
G1 X148.367 Y111.904 E.0214
G1 X148.211 Y111.229 E.02505
G1 X147.968 Y110.686 E.02146
G1 X147.633 Y110.194 E.02149
G1 X147.177 Y109.737 E.0233
G1 X146.497 Y109.288 E.02942
G1 X146.011 Y109.098 E.01885
G1 X145.433 Y108.97 E.02136
G1 X144.791 Y108.944 E.0232
G1 X144.082 Y109.062 E.02595
G1 X143.503 Y109.278 E.02234
G1 X142.991 Y109.584 E.02154
G1 X142.458 Y110.064 E.02587
G1 X142.156 Y110.468 E.01822
G1 X141.9 Y110.91 E.01845
G1 X141.697 Y111.469 E.02147
G1 X141.583 Y112.152 E.02499
G1 X141.605 Y112.772 E.0224
G1 X141.767 Y113.47 E.02587
G1 X142.01 Y114.012 E.02145
G1 X142.323 Y114.473 E.02013
G1 X133.06 Y114.226 E.33456
G1 X133.055 Y112.372 E.06691
G1 X132.965 Y111.824 E.02009
G1 X132.784 Y111.333 E.01888
G1 X132.587 Y110.993 E.01417
G1 X132.183 Y110.52 E.02246
G1 X131.74 Y110.196 E.01983
G1 X131.452 Y110.057 E.01155
G1 X130.953 Y109.897 E.01889
G1 X130.409 Y109.829 E.01982
G1 X123.875 Y109.829 E.23592
G1 X123.783 Y109.839 E.00335
G1 X123.815 Y110.291 F9000
G1 F900
G1 X123.756 Y110.296 E.00211
G1 X123.465 Y110.422 E.01147
G1 X123.262 Y110.663 E.01138
G1 X123.189 Y110.971 E.01142
G1 X123.189 Y127.556 E.59881
G1 X123.21 Y128.532 E.03525
G1 X123.339 Y128.792 E.01048
G1 X123.568 Y128.978 E.01067
G1 X123.875 Y129.05 E.01135
G1 X130.409 Y129.05 E.23593
G1 X130.532 Y129.039 E.00447
G1 X131.228 Y128.884 E.02574
G1 X131.68 Y128.63 E.01872
G1 X132.065 Y128.276 E.01889
G1 X132.209 Y128.089 E.0085
G1 X132.519 Y127.431 E.02627
G1 X132.601 Y126.921 E.01863
G1 X132.602 Y126.089 E.03006
G1 X144.084 Y126.396 E.41471
G1 X116.891 Y153.588 E1.38847
G1 X88.394 Y125.09 E1.45514
G1 X88.182 Y124.945 E.00928
G1 X87.909 Y124.889 E.01004
G1 X83.754 Y124.889 E.15005
G1 X83.754 Y86.18 E1.39761
G1 X127.731 Y86.181 E1.58782
G1 X156.015 Y114.466 E1.44424
G1 X154.747 Y115.733 E.06474
G1 X153.479 Y117.001 E.06474
G1 X151.852 Y115.374 E.0831
G1 X151.629 Y115.225 E.00968
G1 X151.385 Y115.173 E.00899
G1 X146.182 Y115.034 E.18793
G1 X146.501 Y114.885 E.0127
G1 X146.934 Y114.574 E.01925
G1 X147.299 Y114.19 E.01912
G1 X147.637 Y113.66 E.02273
G1 X147.828 Y113.164 E.01916
G1 X147.937 Y112.517 E.02372
G1 X147.911 Y111.924 E.0214
G1 X147.789 Y111.403 E.01932
G1 X147.582 Y110.932 E.01859
G1 X147.296 Y110.503 E.01861
G1 X146.916 Y110.112 E.01969
G1 X146.431 Y109.772 E.02139
G1 X145.912 Y109.545 E.02045
G1 X145.186 Y109.401 E.02671
G1 X144.657 Y109.414 E.01911
G1 X144.043 Y109.549 E.02272
G1 X143.571 Y109.756 E.01859
G1 X143.131 Y110.053 E.01918
G1 X142.679 Y110.508 E.02317
G1 X142.33 Y111.066 E.02377
G1 X142.126 Y111.625 E.02147
G1 X142.04 Y112.152 E.01926
G1 X142.054 Y112.682 E.01917
G1 X142.189 Y113.295 E.02265
G1 X142.396 Y113.766 E.01858
G1 X142.691 Y114.206 E.01912
G1 X143.148 Y114.659 E.02324
G1 X143.618 Y114.965 E.02023
G1 X132.603 Y114.671 E.39783
G1 X132.603 Y112.48 E.0791
G1 X132.536 Y111.982 E.01815
G1 X132.355 Y111.491 E.01888
G1 X132.237 Y111.288 E.0085
G1 X131.757 Y110.759 E.02577
G1 X131.312 Y110.492 E.01873
G1 X130.814 Y110.333 E.01889
G1 X130.409 Y110.286 E.01472
G1 X123.875 Y110.286 E.23592
G1 X123.854 Y110.287 E.00074
G1 X123.875 Y110.743 F9000
;TYPE:Outer wall
G1 F900
G1 X123.71 Y110.813 E.00649
G1 X123.646 Y110.971 E.00614
G1 X123.646 Y127.556 E.59881
G1 X123.647 Y128.385 E.02995
G1 X123.727 Y128.539 E.00625
G1 X123.875 Y128.593 E.00566
G1 X130.409 Y128.593 E.23593
G1 X130.964 Y128.495 E.02035
G1 X131.371 Y128.293 E.01641
G1 X131.803 Y127.879 E.0216
G1 X132.047 Y127.414 E.01897
G1 X132.144 Y126.921 E.01814
G1 X132.146 Y125.619 E.04699
G1 X145.159 Y125.968 E.47002
G1 X116.891 Y154.234 E1.44336
G1 X88.071 Y125.413 E1.47164
G1 X87.909 Y125.346 E.00631
G1 X83.297 Y125.346 E.16655
G1 X83.297 Y85.723 E1.43061
G1 X127.92 Y85.724 E1.61116
G1 X156.661 Y114.466 E1.46758
M73 P2 R128
G1 X155.07 Y116.057 E.08124
G1 X153.479 Y117.648 E.08124
G1 X151.528 Y115.697 E.0996
G1 X151.373 Y115.63 E.00611
G1 X145.928 Y115.484 E.19668
;WIDTH:0.540766
G1 X145.608 Y115.455 E.01263
;WIDTH:0.581532
G1 X145.288 Y115.426 E.01367
G1 X144.77 Y115.414 E.02204
;WIDTH:0.623967
G1 X144.184 Y115.376 E.02693
G1 X144.014 Y115.392 E.00787
;WIDTH:0.582645
G1 X143.843 Y115.408 E.00731
;WIDTH:0.541322
G1 X143.672 Y115.424 E.00675
;WIDTH:0.499999
G1 X132.146 Y115.116 E.41631
G1 X132.146 Y112.48 E.09516
G1 X132.107 Y112.14 E.01235
G1 X131.887 Y111.582 E.02168
G1 X131.55 Y111.181 E.01889
G1 X131.173 Y110.928 E.01642
G1 X130.674 Y110.768 E.01889
G1 X130.409 Y110.743 E.00963
G1 X123.915 Y110.743 E.23447
G1 E-3.5 F1800
;WIPE_START
G1 F900
G1 X123.71 Y110.813 E-.65142
G1 X123.646 Y110.971 E-.51005
G1 X123.646 Y111.084 E-.33853
;WIPE_END
G17
G3 Z.6 I-.057 J1.216 P1  F9000
G1 X147.466 Y112.208 Z.6
G1 Z.2
G1 E5 F1800
G1 F900
G1 X147.48 Y112.549 E.01231
G1 X147.38 Y113.075 E.01934
G1 X147.194 Y113.525 E.01755
G1 X146.89 Y113.971 E.0195
G1 X146.584 Y114.273 E.01553
G1 X146.308 Y114.471 E.01228
G1 X145.769 Y114.722 E.02146
;WIDTH:0.540766
G1 X145.505 Y114.799 E.01082
;WIDTH:0.581532
G1 X145.241 Y114.876 E.0117
;WIDTH:0.581888
G1 X144.739 Y114.876 E.02137
;WIDTH:0.587855
G1 X144.201 Y114.767 E.02361
G1 X143.802 Y114.523 E.02015
;WIDTH:0.543927
G1 X143.402 Y114.279 E.01853
;WIDTH:0.499999
G1 X143.022 Y113.89 E.01966
G1 X142.763 Y113.485 E.01733
G1 X142.599 Y113.077 E.01589
G1 X142.498 Y112.548 E.01944
G1 X142.5 Y112.117 E.01559
G1 X142.556 Y111.781 E.01228
G1 X142.759 Y111.222 E.02147
G1 X143.059 Y110.762 E.01983
G1 X143.447 Y110.383 E.01959
G1 X143.853 Y110.123 E.01739
G1 X144.261 Y109.959 E.01589
G1 X144.791 Y109.858 E.01949
G1 X145.236 Y109.863 E.01605
G1 X145.813 Y109.991 E.02136
G1 X146.169 Y110.147 E.01401
G1 X146.654 Y110.486 E.02137
G1 X146.984 Y110.844 E.01757
G1 X147.215 Y111.213 E.01573
G1 X147.377 Y111.612 E.01554
G1 X147.454 Y111.944 E.01234
G1 X147.464 Y112.169 E.0081
G1 E-3.5 F1800
;WIPE_START
G1 F900
G1 X147.48 Y112.549 E-1.143
G1 X147.458 Y112.666 E-.357
;WIPE_END
G17
G3 Z.6 I-.88 J-.841 P1  F9000
G1 X115.784 Y145.802 Z.6
G1 Z.2
G1 E5 F1800
;TYPE:Inner wall
G1 F900
G1 X115.196 Y145.945 E.02186
G1 X114.578 Y145.967 E.02235
G1 X113.895 Y145.854 E.02497
G1 X113.337 Y145.651 E.02147
G1 X112.881 Y145.401 E.01875
G1 X112.264 Y144.865 E.02952
G1 X111.872 Y144.353 E.02326
G1 X111.563 Y143.705 E.02593
G1 X111.392 Y142.984 E.02674
G1 X111.37 Y142.365 E.02239
G1 X111.483 Y141.682 E.02499
G1 X111.686 Y141.123 E.02147
G1 X111.938 Y140.666 E.01882
G1 X112.473 Y140.05 E.02946
G1 X112.878 Y139.726 E.01873
G1 X113.608 Y139.36 E.02951
G1 X114.355 Y139.178 E.02773
G1 X114.973 Y139.156 E.02235
G1 X115.546 Y139.236 E.02089
G1 X116.215 Y139.473 E.02561
G1 X116.87 Y139.872 E.0277
G1 X117.403 Y140.389 E.02681
G1 X117.754 Y140.899 E.02234
G1 X118.035 Y141.56 E.02594
G1 X118.164 Y142.165 E.02236
G1 X118.181 Y142.76 E.02146
G1 X118.063 Y143.468 E.02593
G1 X117.788 Y144.158 E.02681
G1 X117.452 Y144.677 E.02235
G1 X117.044 Y145.11 E.02146
G1 X116.652 Y145.413 E.01787
G1 X115.942 Y145.764 E.0286
G1 X115.823 Y145.793 E.00441
G1 X115.668 Y145.368 F9000
G1 F900
G1 X115.107 Y145.497 E.02079
G1 X114.578 Y145.51 E.01912
G1 X114.051 Y145.424 E.01925
G1 X113.493 Y145.221 E.02147
G1 X113.011 Y144.929 E.02033
G1 X112.572 Y144.528 E.02148
G1 X112.247 Y144.091 E.01967
G1 X111.982 Y143.521 E.0227
G1 X111.84 Y142.895 E.02316
G1 X111.827 Y142.364 E.01917
G1 X111.913 Y141.838 E.01926
G1 X112.116 Y141.279 E.02147
G1 X112.409 Y140.796 E.0204
G1 X112.81 Y140.359 E.02141
G1 X113.208 Y140.055 E.01808
G1 X113.802 Y139.774 E.02373
G1 X114.444 Y139.626 E.02379
G1 X114.973 Y139.613 E.01912
G1 X115.501 Y139.7 E.01932
G1 X116.059 Y139.903 E.02141
G1 X116.616 Y140.252 E.02376
G1 X117.073 Y140.705 E.02323
G1 X117.368 Y141.144 E.01911
G1 X117.609 Y141.726 E.02271
G1 X117.714 Y142.245 E.01913
G1 X117.724 Y142.76 E.01859
G1 X117.614 Y143.379 E.0227
G1 X117.37 Y143.974 E.02323
G1 X117.077 Y144.415 E.01912
G1 X116.721 Y144.787 E.01859
G1 X116.286 Y145.099 E.01932
G1 X115.749 Y145.349 E.0214
G1 X115.707 Y145.359 E.00154
G1 X115.745 Y144.847 F9000
;TYPE:Outer wall
G1 F900
G1 X115.556 Y144.935 E.00754
G1 X115.018 Y145.049 E.01985
G1 X114.543 Y145.051 E.01714
G1 X114.208 Y144.995 E.01228
G1 X113.649 Y144.792 E.02147
G1 X113.32 Y144.592 E.01389
G1 X112.881 Y144.19 E.02148
G1 X112.599 Y143.79 E.01769
G1 X112.385 Y143.289 E.01965
G1 X112.284 Y142.761 E.01942
G1 X112.287 Y142.329 E.01559
G1 X112.343 Y141.994 E.01228
G1 X112.546 Y141.435 E.02147
G1 X112.746 Y141.105 E.01395
G1 X113.147 Y140.668 E.02141
G1 X113.457 Y140.44 E.01389
G1 X113.995 Y140.189 E.02146
G1 X114.533 Y140.075 E.01985
G1 X115.008 Y140.073 E.01714
G1 X115.345 Y140.129 E.01234
G1 X115.902 Y140.332 E.02141
G1 X116.362 Y140.632 E.01983
G1 X116.743 Y141.021 E.01965
G1 X117.003 Y141.43 E.01749
G1 X117.195 Y141.934 E.01949
G1 X117.267 Y142.364 E.01572
G1 X117.262 Y142.804 E.0159
G1 X117.151 Y143.337 E.01965
G1 X116.93 Y143.829 E.01948
G1 X116.677 Y144.184 E.01572
G1 X116.371 Y144.486 E.01554
G1 X116.093 Y144.685 E.01234
G1 X115.781 Y144.83 E.01242
G1 E-3.5 F1800
;WIPE_START
G1 F900
G1 X115.556 Y144.935 E-.7464
G1 X115.31 Y144.987 E-.7536
;WIPE_END
G17
G3 Z.6 I.94 J-.773 P1  F9000
G1 X86.048 Y109.387 Z.6
G1 Z.2
