; HEADER_BLOCK_START
; generated by OrcaSlicer 1.7.0 on 2023-12-16 at 14:51:39
; total layer number: 31
; HEADER_BLOCK_END

; THUMBNAIL_BLOCK_START
; THUMBNAIL_BLOCK_END

; external perimeters extrusion width = 0.40mm
; perimeters extrusion width = 0.45mm
; infill extrusion width = 0.45mm
; solid infill extrusion width = 0.40mm
; top infill extrusion width = 0.40mm
; first layer extrusion width = 0.50mm

; external perimeters extrusion width = 0.40mm
; perimeters extrusion width = 0.45mm
; infill extrusion width = 0.45mm
; solid infill extrusion width = 0.40mm
; top infill extrusion width = 0.40mm
; first layer extrusion width = 0.50mm

; EXECUTABLE_BLOCK_START
EXCLUDE_OBJECT_DEFINE NAME=Side_Spool_Mount_-_Ender_3_Pro_-_Long_-_4_Tabs_v1_-_Part_3.stl_id_0_copy_0 CENTER=118.671,122.495 POLYGON=[[98.971,112.895],[99.0071,112.205],[99.1152,111.523],[99.294,110.855],[99.5416,110.211],[99.8552,109.595],[100.231,109.016],[100.666,108.479],[101.155,107.99],[101.692,107.555],[102.271,107.179],[102.887,106.866],[103.531,106.618],[104.199,106.439],[104.881,106.331],[105.571,106.295],[131.771,106.295],[132.461,106.331],[133.143,106.439],[133.811,106.618],[134.455,106.866],[135.071,107.179],[135.65,107.555],[136.187,107.99],[136.676,108.479],[137.111,109.016],[137.487,109.595],[137.8,110.211],[138.048,110.855],[138.227,111.523],[138.335,112.205],[138.371,112.895],[138.371,132.095],[138.335,132.785],[138.227,133.467],[138.048,134.135],[137.8,134.779],[137.487,135.395],[137.111,135.974],[136.676,136.511],[136.187,137],[135.65,137.435],[135.071,137.811],[134.455,138.124],[133.811,138.372],[133.143,138.551],[132.461,138.659],[131.771,138.695],[105.571,138.695],[104.881,138.659],[104.199,138.551],[103.531,138.372],[102.887,138.124],[102.271,137.811],[101.692,137.435],[101.155,137],[100.666,136.511],[100.231,135.974],[99.8552,135.395],[99.5416,134.779],[99.294,134.135],[99.1152,133.467],[99.0071,132.785],[98.971,132.095],[98.971,112.895]]
EXCLUDE_OBJECT_DEFINE NAME=Side_Spool_Mount_-_Ender_3_Pro_-_Long_-_4_Tabs_v1_-_Part_2.stl_id_1_copy_0 CENTER=110,91.3 POLYGON=[[81.629,81.305],[138.371,81.305],[138.371,94.195],[131.271,101.295],[81.629,101.295],[81.629,81.305]]
M73 P0 R43
;TYPE:Custom
START_PRINT EXTRUDER_TEMP=255  BED_TEMP=80
G90
G21
M83 ; use relative distances for extrusion
; filament start gcode
M106 S0
;LAYER_CHANGE
;Z:0.2
;HEIGHT:0.2
;BEFORE_LAYER_CHANGE
;0.2
G92 E0

G1 E-5 F1800
;_SET_FAN_SPEED_CHANGING_LAYER
G1 X73.677 Y73.177 F9000
G1 Z.4
G1 Z.2
G1 E5 F1800
;TYPE:Skirt
;WIDTH:0.5
G1 F900
G1 X76.087 Y71.376 E.10866
G1 X78.886 Y70.27 E.10866
G1 X81.629 Y69.934 E.09977
G1 X138.371 Y69.934 E2.04873
G1 X141.354 Y70.332 E.10866
G1 X144.128 Y71.499 E.10866
G1 X146.499 Y73.353 E.10866
G1 X148.3 Y75.763 E.10866
G1 X149.406 Y78.562 E.10866
G1 X149.742 Y81.305 E.09977
G1 X149.727 Y132.69 E1.85531
G1 X149.566 Y134.564 E.0679
G1 X149.032 Y137.078 E.09279
G1 X148.416 Y138.855 E.0679
G1 X147.932 Y139.942 E.04298
G1 X147.023 Y141.588 E.0679
G1 X145.948 Y143.131 E.0679
G1 X144.716 Y144.552 E.0679
G1 X143.343 Y145.837 E.06789
G1 X141.844 Y146.971 E.0679
G1 X140.233 Y147.943 E.0679
G1 X138.531 Y148.74 E.0679
G1 X136.754 Y149.356 E.0679
G1 X134.258 Y149.887 E.09213
G1 X131.771 Y150.066 E.09003
G1 X104.286 Y150.014 E.99238
G1 X102.42 Y149.782 E.0679
G1 X100.588 Y149.356 E.0679
G1 X98.811 Y148.74 E.0679
G1 X97.109 Y147.943 E.0679
G1 X96.078 Y147.347 E.04298
G1 X94.535 Y146.272 E.0679
G1 X92.626 Y144.552 E.09279
G1 X91.394 Y143.131 E.0679
G1 X90.695 Y142.168 E.04298
G1 X89.833 Y140.765 E.05945
G1 X71.601 Y106.655 E1.39644
G1 X70.546 Y103.837 E.10866
G1 X70.258 Y101.295 E.09237
G1 X70.258 Y81.305 E.72176
G1 X70.656 Y78.322 E.10866
G1 X71.823 Y75.548 E.10866
G1 X73.652 Y73.209 E.10722
G1 X74.023 Y73.507 F9000
G1 F900
G1 X74.126 Y73.379 E.00595
G1 X76.521 Y71.66 E.10644
G1 X79.289 Y70.645 E.10644
G1 X81.629 Y70.391 E.08498
G1 X138.371 Y70.391 E2.04873
G1 X141.292 Y70.789 E.10644
G1 X144 Y71.954 E.10644
G1 X146.297 Y73.802 E.10644
G1 X148.016 Y76.197 E.10644
G1 X149.031 Y78.965 E.10644
G1 X149.285 Y81.305 E.08498
G1 X149.27 Y132.666 E1.85445
M73 P1 R43
G1 X149.115 Y134.492 E.06617
G1 X148.59 Y136.959 E.09107
G1 X147.99 Y138.691 E.06617
G1 X147.525 Y139.734 E.04125
G1 X146.64 Y141.339 E.06617
G1 X145.592 Y142.843 E.06617
G1 X144.393 Y144.229 E.06617
G1 X143.056 Y145.482 E.06617
G1 X141.595 Y146.588 E.06617
G1 X140.026 Y147.535 E.06617
G1 X138.367 Y148.314 E.06617
G1 X136.635 Y148.914 E.06617
G1 X134.186 Y149.436 E.09043
G1 X131.771 Y149.609 E.08741
G1 X104.31 Y149.558 E.99151
G1 X102.491 Y149.331 E.06617
G1 X100.707 Y148.914 E.06617
G1 X99.62 Y148.561 E.04125
G1 X97.932 Y147.849 E.06617
G1 X96.327 Y146.964 E.06617
G1 X94.823 Y145.916 E.06617
G1 X92.949 Y144.229 E.09106
G1 X91.75 Y142.843 E.06617
G1 X91.078 Y141.919 E.04125
G1 X90.236 Y140.549 E.05805
G1 X72.004 Y106.44 E1.39644
M73 P1 R42
G1 X70.978 Y103.676 E.10644
G1 X70.715 Y101.295 E.0865
G1 X70.715 Y81.305 E.72176
G1 X71.113 Y78.384 E.10644
G1 X72.278 Y75.676 E.10644
G1 X73.998 Y73.538 E.09905
G1 X74.363 Y73.841 F9000
G1 F900
G1 X74.575 Y73.585 E.01199
G1 X76.953 Y71.951 E.10418
G1 X79.688 Y71.03 E.10418
G1 X81.629 Y70.848 E.0704
G1 X138.371 Y70.848 E2.04873
G1 X141.229 Y71.246 E.10418
G1 X143.869 Y72.41 E.10418
G1 X146.091 Y74.251 E.10418
G1 X147.725 Y76.629 E.10418
G1 X148.646 Y79.364 E.10418
G1 X148.828 Y81.305 E.0704
G1 X148.814 Y132.642 E1.85359
G1 X148.663 Y134.421 E.06444
G1 X148.149 Y136.841 E.08934
G1 X147.563 Y138.527 E.06444
G1 X147.118 Y139.527 E.03952
G1 X146.257 Y141.09 E.06444
G1 X145.237 Y142.555 E.06444
G1 X144.07 Y143.906 E.06444
G1 X142.768 Y145.126 E.06444
G1 X141.346 Y146.205 E.06445
G1 X139.818 Y147.128 E.06444
G1 X138.203 Y147.887 E.06444
G1 X136.517 Y148.473 E.06444
G1 X134.114 Y148.984 E.08872
G1 X131.771 Y149.152 E.0848
G1 X104.334 Y149.102 E.99065
G1 X102.563 Y148.879 E.06444
G1 X100.825 Y148.473 E.06444
G1 X99.139 Y147.887 E.06444
G1 X97.524 Y147.128 E.06444
G1 X96.576 Y146.581 E.03952
G1 X95.111 Y145.561 E.06444
G1 X93.272 Y143.906 E.08934
G1 X92.105 Y142.555 E.06444
G1 X90.639 Y140.334 E.0961
M73 P2 R42
G1 X72.407 Y106.225 E1.39644
G1 X71.411 Y103.516 E.10418
G1 X71.172 Y101.295 E.08067
G1 X71.172 Y81.305 E.72176
G1 X71.57 Y78.447 E.10418
G1 X72.734 Y75.807 E.10418
G1 X74.338 Y73.872 E.09075
; printing object Side_Spool_Mount_-_Ender_3_Pro_-_Long_-_4_Tabs v1 - Part 3.stl id:0 copy 0
G1 E-3.5 F1800
;WIPE_START
G1 F900
G1 X74.575 Y73.585 E-1.11633
G1 X74.681 Y73.513 E-.38367
;WIPE_END
EXCLUDE_OBJECT_START NAME=Side_Spool_Mount_-_Ender_3_Pro_-_Long_-_4_Tabs_v1_-_Part_3.stl_id_0_copy_0
G17
G3 Z.6 I-.732 J.972 P1  F9000
G1 X135.203 Y119.098 Z.6
G1 Z.2
G1 E5 F1800
;TYPE:Inner wall
;WIDTH:0.499999
G1 F900
G1 X135.012 Y119.06 E.00704
G1 X134.399 Y119.085 E.02215
G1 X133.827 Y119.235 E.02135
G1 X133.397 Y119.462 E.01754
G1 X132.968 Y119.811 E.01999
G1 X132.623 Y120.245 E.01999
G1 X132.38 Y120.742 E.01999
G1 X132.25 Y121.281 E.01999
G1 X132.238 Y121.834 E.01999
G1 X132.288 Y122.139 E.01115
G1 X132.447 Y122.647 E.01922
G1 X132.718 Y123.117 E.0196
G1 X133.09 Y123.527 E.01999
G1 X133.58 Y123.871 E.0216
G1 X134.052 Y124.063 E.0184
G1 X134.353 Y124.13 E.01115
G1 X135.12 Y124.15 E.02769
G1 X135.714 Y123.994 E.02218
G1 X136.382 Y123.616 E.02769
G1 X136.775 Y123.227 E.01997
G1 X137.076 Y122.763 E.01999
G1 X137.158 Y122.491 E.01023
;WIDTH:0.466515
G1 X137.24 Y122.22 E.00948
G1 X137.224 Y122.505 E.00954
;WIDTH:0.499999
G1 X137.207 Y122.789 E.01029
G1 X137.207 Y132.064 E.33488
G1 X137.175 Y132.663 E.02164
G1 X137.086 Y133.225 E.02054
G1 X136.939 Y133.774 E.02054
G1 X136.735 Y134.305 E.02054
G1 X136.477 Y134.812 E.02054
G1 X136.167 Y135.289 E.02054
G1 X135.809 Y135.731 E.02054
G1 X135.407 Y136.133 E.02054
G1 X134.965 Y136.491 E.02054
G1 X134.488 Y136.801 E.02054
G1 X133.981 Y137.059 E.02054
G1 X133.45 Y137.263 E.02054
G1 X132.911 Y137.408 E.02018
G1 X132.338 Y137.5 E.02093
G1 X131.74 Y137.531 E.02161
G1 X113.008 Y137.531 E.67637
G1 X113.143 Y137.472 E.00534
G1 X113.513 Y136.997 E.02171
G1 X113.601 Y136.558 E.01618
G1 X113.601 Y132.14 E.15952
G1 X113.575 Y131.898 E.0088
G1 X113.446 Y131.566 E.01286
G1 X113.176 Y131.251 E.01494
G1 X112.866 Y131.073 E.01294
G1 X112.458 Y130.997 E.01498
G1 X107.734 Y130.997 E.17057
G1 X107.17 Y131.024 E.02039
G1 X106.793 Y131.181 E.01475
G1 X106.478 Y131.486 E.01582
G1 X106.303 Y131.876 E.01542
G1 X106.272 Y132.14 E.0096
G1 X106.272 Y135.926 E.1367
G1 X106.287 Y136.744 E.02952
G1 X106.593 Y137.352 E.02458
G1 X107.015 Y137.531 E.01655
G1 X105.601 Y137.531 E.05104
G1 X105.003 Y137.499 E.02164
G1 X104.441 Y137.41 E.02054
G1 X103.892 Y137.263 E.02054
G1 X103.361 Y137.059 E.02054
G1 X102.854 Y136.801 E.02054
G1 X102.377 Y136.491 E.02054
G1 X101.935 Y136.133 E.02054
G1 X101.533 Y135.731 E.02054
G1 X101.175 Y135.289 E.02054
G1 X100.87 Y134.821 E.02018
G1 X100.606 Y134.304 E.02093
G1 X100.403 Y133.774 E.0205
G1 X100.255 Y133.225 E.02054
G1 X100.167 Y132.663 E.02054
G1 X100.135 Y132.064 E.02164
G1 X100.135 Y112.926 E.69103
G1 X100.167 Y112.327 E.02164
G1 X100.255 Y111.765 E.02054
G1 X100.403 Y111.216 E.02054
G1 X100.607 Y110.685 E.02054
G1 X100.865 Y110.178 E.02054
G1 X101.175 Y109.701 E.02054
G1 X101.533 Y109.259 E.02054
G1 X101.935 Y108.857 E.02054
G1 X102.377 Y108.499 E.02054
G1 X102.854 Y108.189 E.02054
G1 X103.361 Y107.931 E.02054
G1 X103.892 Y107.727 E.02054
G1 X104.441 Y107.58 E.02054
G1 X105.003 Y107.491 E.02054
G1 X105.601 Y107.459 E.02164
G1 X131.74 Y107.459 E.94377
G1 X132.339 Y107.491 E.02164
G1 X132.901 Y107.58 E.02054
G1 X133.45 Y107.727 E.02054
G1 X133.981 Y107.931 E.02054
G1 X134.488 Y108.189 E.02054
G1 X134.965 Y108.499 E.02054
G1 X135.407 Y108.857 E.02054
G1 X135.809 Y109.259 E.02054
G1 X136.161 Y109.693 E.02018
G1 X136.478 Y110.179 E.02093
G1 X136.735 Y110.685 E.0205
G1 X136.939 Y111.216 E.02054
G1 X137.086 Y111.765 E.02054
G1 X137.175 Y112.327 E.02054
G1 X137.207 Y113.072 E.02694
G1 X137.207 Y120.792 E.27873
G1 X137.143 Y120.606 E.00712
G1 X136.877 Y120.13 E.01968
G1 X136.51 Y119.715 E.01999
G1 X136.062 Y119.39 E.01999
G1 X135.555 Y119.168 E.01999
G1 X135.242 Y119.106 E.01151
G1 E-3.5 F1800
;WIPE_START
G1 F900
G1 X135.012 Y119.06 E-.70458
G1 X134.747 Y119.071 E-.79542
;WIPE_END
G17
G3 Z.6 I-1.208 J-.151 P1  F9000
G1 X132.386 Y137.955 Z.6
G1 Z.2
G1 E5 F1800
G1 F900
G1 X131.752 Y137.988 E.02292
G1 X113.163 Y137.988 E.67119
;WIDTH:0.54789
G1 X112.928 Y137.964 E.00943
;WIDTH:0.595781
G1 X112.693 Y137.94 E.01032
;WIDTH:0.643671
G1 X112.458 Y137.916 E.01121
G1 X107.415 Y137.916 E.23931
G1 X107.116 Y137.94 E.01425
;WIDTH:0.595781
G1 X106.816 Y137.964 E.01311
;WIDTH:0.54789
G1 X106.517 Y137.988 E.01198
;WIDTH:0.499999
G1 X105.59 Y137.988 E.03349
G1 X104.955 Y137.955 E.02294
G1 X104.346 Y137.858 E.02227
G1 X103.75 Y137.699 E.02227
G1 X103.175 Y137.478 E.02227
G1 X102.625 Y137.198 E.02227
G1 X102.108 Y136.862 E.02227
G1 X101.628 Y136.474 E.02227
G1 X101.192 Y136.037 E.02227
G1 X100.804 Y135.558 E.02227
G1 X100.474 Y135.05 E.02189
G1 X100.188 Y134.491 E.02266
G1 X99.967 Y133.916 E.02225
G1 X99.808 Y133.32 E.02227
G1 X99.711 Y132.711 E.02227
G1 X99.678 Y132.076 E.02294
G1 X99.678 Y112.914 E.6919
G1 X99.711 Y112.279 E.02294
G1 X99.808 Y111.67 E.02227
G1 X99.967 Y111.074 E.02227
G1 X100.188 Y110.499 E.02227
G1 X100.468 Y109.949 E.02227
G1 X100.804 Y109.432 E.02227
G1 X101.192 Y108.953 E.02227
G1 X101.628 Y108.516 E.02227
G1 X102.108 Y108.128 E.02227
G1 X102.625 Y107.792 E.02227
G1 X103.175 Y107.512 E.02227
G1 X103.75 Y107.291 E.02227
G1 X104.346 Y107.132 E.02227
G1 X104.955 Y107.035 E.02227
G1 X105.59 Y107.002 E.02294
G1 X131.752 Y107.002 E.94464
G1 X132.387 Y107.035 E.02294
G1 X132.996 Y107.132 E.02227
G1 X133.592 Y107.291 E.02227
G1 X134.167 Y107.512 E.02227
G1 X134.717 Y107.792 E.02227
G1 X135.234 Y108.128 E.02227
G1 X135.713 Y108.516 E.02227
G1 X136.15 Y108.953 E.02227
G1 X136.531 Y109.424 E.02189
G1 X136.874 Y109.95 E.02266
G1 X137.154 Y110.499 E.02225
G1 X137.375 Y111.074 E.02227
G1 X137.534 Y111.67 E.02227
G1 X137.631 Y112.279 E.02227
G1 X137.664 Y113.072 E.02867
G1 X137.664 Y132.076 E.68616
G1 X137.631 Y132.711 E.02294
G1 X137.534 Y133.32 E.02227
G1 X137.375 Y133.916 E.02227
G1 X137.154 Y134.491 E.02227
G1 X136.874 Y135.041 E.02227
G1 X136.538 Y135.558 E.02227
M73 P3 R42
G1 X136.15 Y136.037 E.02227
G1 X135.713 Y136.474 E.02227
G1 X135.234 Y136.862 E.02227
G1 X134.717 Y137.198 E.02227
G1 X134.167 Y137.478 E.02227
G1 X133.592 Y137.699 E.02227
G1 X133.006 Y137.856 E.02189
G1 X132.426 Y137.948 E.02122
G1 X132.435 Y138.41 F9000
;TYPE:Outer wall
G1 F900
G1 X131.764 Y138.445 E.02423
G1 X105.578 Y138.445 E.9455
G1 X104.907 Y138.41 E.02423
G1 X104.251 Y138.306 E.024
G1 X103.609 Y138.134 E.024
G1 X102.988 Y137.896 E.024
G1 X102.396 Y137.594 E.024
G1 X101.839 Y137.232 E.024
G1 X101.322 Y136.814 E.024
G1 X100.852 Y136.344 E.024
G1 X100.434 Y135.827 E.024
G1 X100.078 Y135.279 E.02361
G1 X99.77 Y134.677 E.02439
G1 X99.532 Y134.057 E.02399
G1 X99.36 Y133.415 E.024
G1 X99.256 Y132.759 E.024
G1 X99.221 Y132.088 E.02423
G1 X99.221 Y112.902 E.69276
G1 X99.256 Y112.231 E.02423
G1 X99.36 Y111.575 E.024
G1 X99.532 Y110.933 E.024
G1 X99.77 Y110.312 E.024
G1 X100.072 Y109.72 E.024
G1 X100.434 Y109.163 E.024
G1 X100.852 Y108.646 E.024
G1 X101.322 Y108.176 E.024
G1 X101.839 Y107.758 E.024
G1 X102.396 Y107.396 E.024
G1 X102.988 Y107.094 E.024
G1 X103.609 Y106.856 E.024
G1 X104.251 Y106.684 E.024
G1 X104.907 Y106.58 E.024
G1 X105.578 Y106.545 E.02423
G1 X131.593 Y106.545 E.93933
G1 X132.103 Y106.563 E.01841
G1 X132.763 Y106.632 E.02396
G1 X133.412 Y106.77 E.02396
G1 X134.044 Y106.975 E.02397
G1 X134.65 Y107.245 E.02397
G1 X135.225 Y107.577 E.02397
G1 X135.762 Y107.968 E.02398
G1 X136.257 Y108.413 E.02403
G1 X136.697 Y108.902 E.02376
G1 X137.087 Y109.44 E.02398
G1 X137.422 Y110.019 E.02414
G1 X137.691 Y110.623 E.0239
G1 X137.896 Y111.254 E.02395
G1 X138.034 Y111.903 E.02396
G1 X138.103 Y112.565 E.02401
G1 X138.121 Y113.072 E.01834
G1 X138.121 Y132.088 E.68659
G1 X138.086 Y132.759 E.02423
G1 X137.982 Y133.415 E.024
G1 X137.81 Y134.057 E.024
G1 X137.572 Y134.678 E.024
G1 X137.27 Y135.27 E.024
G1 X136.908 Y135.827 E.024
G1 X136.49 Y136.344 E.024
G1 X136.02 Y136.814 E.024
G1 X135.503 Y137.232 E.024
G1 X134.946 Y137.594 E.024
G1 X134.354 Y137.896 E.024
G1 X133.733 Y138.134 E.024
G1 X133.102 Y138.303 E.02361
G1 X132.474 Y138.404 E.02295
G1 E-3.5 F1800
;WIPE_START
G1 F900
G1 X131.975 Y138.433 E-1.5
;WIPE_END
G17
G3 Z.6 I1.201 J.197 P1  F9000
G1 X135.073 Y119.533 Z.6
G1 Z.2
G1 E5 F1800
;TYPE:Inner wall
G1 F900
G1 X135.146 Y119.537 E.00267
G1 X135.584 Y119.663 E.01643
G1 X135.984 Y119.879 E.01643
G1 X136.328 Y120.177 E.01643
G1 X136.6 Y120.54 E.0164
G1 X136.793 Y120.983 E.01743
G1 X136.895 Y121.572 E.0216
G1 X136.827 Y122.121 E.01996
G1 X136.656 Y122.582 E.01775
G1 X136.305 Y123.071 E.02174
G1 X135.923 Y123.38 E.01772
G1 X135.335 Y123.644 E.02328
G1 X134.849 Y123.711 E.01772
G1 X134.291 Y123.659 E.02026
G1 X133.811 Y123.477 E.01854
G1 X133.413 Y123.204 E.01739
G1 X133.103 Y122.871 E.01643
G1 X132.86 Y122.445 E.01772
G1 X132.712 Y121.957 E.0184
G1 X132.688 Y121.448 E.01842
G1 X132.8 Y120.923 E.01936
G1 X132.994 Y120.512 E.01643
G1 X133.273 Y120.152 E.01643
G1 X133.622 Y119.86 E.01643
G1 X134.062 Y119.64 E.01775
G1 X134.693 Y119.509 E.02326
G1 X135.033 Y119.53 E.0123
G1 E-3.5 F1800
;WIPE_START
G1 F900
G1 X135.146 Y119.537 E-.3415
G1 X135.517 Y119.644 E-1.1585
;WIPE_END
G17
G3 Z.6 I-.853 J.868 P1  F9000
G1 X137.27 Y121.365 Z.6
G1 Z.2
G1 E5 F1800
;WIDTH:0.400407
G1 F900
G1 X137.257 Y121.771 E.01148
;WIDTH:0.42642
G1 X137.244 Y122.178 E.01231
;WIDTH:0.43303
G1 X137.24 Y122.22 E.00132
G1 E-3.5 F1800
;WIPE_START
G1 F900
G1 X137.244 Y122.178 E-.12858
G1 X137.257 Y121.771 E-1.21931
G1 X137.258 Y121.721 E-.15211
;WIPE_END
G17
G3 Z.6 I.731 J-.973 P1  F9000
G1 X134.937 Y119.977 Z.6
G1 Z.2
G1 E5 F1800
;TYPE:Outer wall
;WIDTH:0.499999
G1 F900
G1 X135.036 Y119.981 E.00358
G1 X135.381 Y120.072 E.01287
G1 X135.698 Y120.235 E.01287
G1 X135.972 Y120.463 E.01287
G1 X136.191 Y120.744 E.01286
G1 X136.345 Y121.071 E.01303
G1 X136.438 Y121.572 E.01843
G1 X136.373 Y122.068 E.01806
