; HEADER_BLOCK_START
; generated by OrcaSlicer 1.7.0 on 2023-12-16 at 19:40:28
; total layer number: 25
; HEADER_BLOCK_END

; THUMBNAIL_BLOCK_START
; THUMBNAIL_BLOCK_END

; external perimeters extrusion width = 0.40mm
; perimeters extrusion width = 0.45mm
; infill extrusion width = 0.45mm
; solid infill extrusion width = 0.40mm
; top infill extrusion width = 0.40mm
; first layer extrusion width = 0.50mm

; EXECUTABLE_BLOCK_START
EXCLUDE_OBJECT_DEFINE NAME=Side_Spool_Mount_-_Ender_3_Pro_-_Long_-_4_Tabs_v1_-_Part_2_3_.stl_id_0_copy_0 CENTER=110,110 POLYGON=[[81.629,94.605],[88.729,87.505],[138.371,87.505],[138.371,103.495],[94.564,132.495],[81.629,132.495],[81.629,94.605]]
M73 P0 R20
;TYPE:Custom
START_PRINT EXTRUDER_TEMP=255  BED_TEMP=80
G90
G21
M83 ; use relative distances for extrusion
; filament start gcode
M106 S0
;LAYER_CHANGE
;Z:0.2
;HEIGHT:0.2
;BEFORE_LAYER_CHANGE
;0.2
G92 E0

G1 E-5 F1800
;_SET_FAN_SPEED_CHANGING_LAYER
G1 X80.076 Y80.076 F9000
G1 Z.4
G1 Z.2
G1 E5 F1800
;TYPE:Skirt
;WIDTH:0.5
G1 F900
G1 X80.688 Y79.464 E.03125
G1 X83.079 Y77.637 E.10866
G1 X85.866 Y76.5 E.10866
G1 X88.729 Y76.134 E.10422
G1 X138.371 Y76.134 E1.79237
G1 X141.354 Y76.532 E.10866
G1 X144.128 Y77.699 E.10866
G1 X146.499 Y79.553 E.10866
G1 X148.3 Y81.963 E.10866
G1 X149.406 Y84.762 E.10866
G1 X149.742 Y87.505 E.09977
G1 X149.742 Y103.495 E.57734
G1 X149.344 Y106.478 E.10866
G1 X148.177 Y109.252 E.10866
G1 X146.323 Y111.623 E.10866
G1 X144.648 Y112.977 E.07778
G1 X100.841 Y141.977 E1.89687
G1 X98.134 Y143.291 E.10866
G1 X94.564 Y143.866 E.13055
M73 P1 R20
G1 X81.629 Y143.866 E.46703
G1 X78.646 Y143.468 E.10866
G1 X75.872 Y142.301 E.10866
G1 X73.501 Y140.447 E.10866
G1 X71.7 Y138.037 E.10866
G1 X70.594 Y135.238 E.10866
G1 X70.258 Y132.495 E.09977
G1 X70.258 Y94.605 E1.36806
G1 X70.656 Y91.622 E.10866
G1 X71.823 Y88.848 E.10866
G1 X73.588 Y86.564 E.10422
G1 X80.048 Y80.105 E.32984
G1 X80.371 Y80.428 F9000
G1 F900
G1 X81.012 Y79.788 E.03269
G1 X83.359 Y78.004 E.10644
G1 X86.098 Y76.913 E.10644
G1 X88.729 Y76.591 E.09572
G1 X138.371 Y76.591 E1.79237
G1 X141.292 Y76.989 E.10644
G1 X144 Y78.154 E.10644
G1 X146.297 Y80.002 E.10644
G1 X148.016 Y82.397 E.10644
G1 X149.031 Y85.165 E.10644
G1 X149.285 Y87.505 E.08498
G1 X149.285 Y103.495 E.57734
G1 X148.887 Y106.416 E.10644
M73 P2 R20
G1 X147.722 Y109.124 E.10644
G1 X145.874 Y111.421 E.10644
G1 X144.396 Y112.596 E.06817
G1 X100.589 Y141.596 E1.89687
M73 P2 R19
G1 X97.933 Y142.876 E.10644
G1 X94.564 Y143.409 E.12316
G1 X81.629 Y143.409 E.46703
G1 X78.708 Y143.011 E.10644
G1 X76 Y141.846 E.10644
G1 X73.703 Y139.998 E.10644
G1 X71.984 Y137.603 E.10644
G1 X70.969 Y134.835 E.10644
G1 X70.715 Y132.495 E.08498
G1 X70.715 Y94.605 E1.36806
G1 X71.113 Y91.684 E.10644
G1 X72.278 Y88.976 E.10644
G1 X73.912 Y86.888 E.09572
G1 X80.343 Y80.456 E.3284
G1 X80.666 Y80.779 F9000
G1 F900
G1 X81.335 Y80.111 E.03414
G1 X83.637 Y78.371 E.10418
G1 X86.327 Y77.328 E.10418
G1 X88.729 Y77.048 E.08731
G1 X138.371 Y77.048 E1.79237
M73 P3 R19
G1 X141.229 Y77.446 E.10418
G1 X143.869 Y78.61 E.10418
G1 X146.091 Y80.451 E.10418
G1 X147.725 Y82.829 E.10418
G1 X148.646 Y85.564 E.10418
G1 X148.828 Y87.505 E.0704
G1 X148.828 Y103.495 E.57734
G1 X148.43 Y106.353 E.10418
G1 X147.266 Y108.993 E.10418
G1 X145.425 Y111.215 E.10418
G1 X144.143 Y112.215 E.05869
G1 X100.336 Y141.215 E1.89687
G1 X97.734 Y142.46 E.10418
G1 X94.564 Y142.952 E.11581
G1 X81.629 Y142.952 E.46703
G1 X78.771 Y142.554 E.10418
G1 X76.131 Y141.39 E.10418
G1 X73.909 Y139.549 E.10418
G1 X72.275 Y137.171 E.10418
G1 X71.354 Y134.436 E.10418
G1 X71.172 Y132.495 E.0704
G1 X71.172 Y94.605 E1.36806
M73 P4 R19
G1 X71.57 Y91.747 E.10418
G1 X72.734 Y89.107 E.10418
G1 X74.235 Y87.211 E.08731
G1 X80.638 Y80.808 E.32695
; printing object Side_Spool_Mount_-_Ender_3_Pro_-_Long_-_4_Tabs v1 - Part 2 (3).stl id:0 copy 0
G1 E-3.5 F1800
;WIPE_START
G1 F900
G1 X80.991 Y80.454 E-1.5
;WIPE_END
EXCLUDE_OBJECT_START NAME=Side_Spool_Mount_-_Ender_3_Pro_-_Long_-_4_Tabs_v1_-_Part_2_3_.stl_id_0_copy_0
G17
G3 Z.6 I-1.069 J.581 P1  F9000
G1 X93.424 Y103.317 Z.6
G1 Z.2
G1 E5 F1800
;TYPE:Inner wall
;WIDTH:0.499999
G1 F900
G1 X93.4 Y103.474 E.00571
G1 X93.4 Y131.331 E1.00581
G1 X82.793 Y131.331 E.38296
G1 X82.793 Y95.087 E1.30861
G1 X89.211 Y88.669 E.32772
G1 X137.207 Y88.669 E1.73293
G1 X137.207 Y92.575 E.14101
M73 P5 R19
G1 X137.207 Y102.331 E.35225
G1 X94.543 Y102.331 E1.54044
G1 X94.199 Y102.384 E.01256
G1 X93.88 Y102.542 E.01285
G1 X93.584 Y102.851 E.01546
G1 X93.452 Y103.131 E.01115
G1 X93.43 Y103.278 E.00537
G1 X93.877 Y103.38 F9000
G1 F900
G1 X93.857 Y103.474 E.00345
G1 X93.857 Y131.788 E1.02232
G1 X82.336 Y131.788 E.41597
G1 X82.336 Y94.898 E1.33195
G1 X89.022 Y88.212 E.34139
G1 X137.664 Y88.212 E1.75627
M73 P6 R19
G1 X137.664 Y92.575 E.15752
G1 X137.664 Y102.788 E.36876
G1 X94.733 Y102.788 E1.55006
G1 X94.336 Y102.82 E.01438
G1 X94.075 Y102.972 E.01094
G1 X93.919 Y103.188 E.0096
G1 X93.886 Y103.341 E.00565
G1 X94.314 Y103.474 F9000
;TYPE:Outer wall
G1 F900
G1 X94.314 Y132.245 E1.03882
G1 X81.879 Y132.245 E.44898
G1 X81.879 Y94.709 E1.35529
G1 X88.833 Y87.755 E.35506
G1 X138.121 Y87.755 E1.77961
M73 P7 R19
G1 X138.121 Y92.575 E.17402
G1 X138.121 Y103.245 E.38526
M73 P7 R18
G1 X94.543 Y103.245 E1.57344
G1 X94.387 Y103.306 E.00605
G1 X94.33 Y103.437 E.00513
G1 E-3.5 F1800
;WIPE_START
G1 F900
G1 X94.33 Y103.937 E-1.5
;WIPE_END
G17
G3 Z.6 I.18 J1.204 P1  F9000
G1 X131.275 Y98.42 Z.6
G1 Z.2
G1 E5 F1800
;TYPE:Inner wall
G1 F900
G1 X131.08 Y98.912 E.01909
G1 X130.676 Y99.513 E.02615
G1 X130.189 Y99.961 E.02389
G1 X129.618 Y100.294 E.02387
G1 X129.329 Y100.401 E.01113
G1 X128.721 Y100.535 E.02247
G1 X128.413 Y100.56 E.01115
G1 X127.754 Y100.497 E.02389
G1 X127.124 Y100.295 E.02389
G1 X126.553 Y99.962 E.02387
G1 X126.035 Y99.468 E.02587
G1 X125.682 Y98.95 E.02262
G1 X125.411 Y98.278 E.02615
G1 X125.313 Y97.624 E.02389
G1 X125.358 Y96.963 E.02389
G1 X125.544 Y96.329 E.02387
G1 X125.681 Y96.053 E.01113
G1 X126.03 Y95.538 E.02247
G1 X126.236 Y95.308 E.01115
G1 X126.757 Y94.9 E.02389
G1 X127.414 Y94.599 E.02609
G1 X128.022 Y94.465 E.02247
G1 X128.329 Y94.44 E.01113
G1 X128.988 Y94.503 E.02387
G1 X129.618 Y94.705 E.02389
G1 X130.189 Y95.039 E.02389
G1 X130.676 Y95.487 E.02389
G1 X131.054 Y96.029 E.02387
G1 X131.318 Y96.695 E.02587
G1 X131.435 Y97.5 E.02936
G1 X131.384 Y98.031 E.01927
G1 X131.311 Y98.33 E.01109
G1 X131.289 Y98.383 E.00208
G1 X130.939 Y97.88 F9000
G1 F900
G1 X130.924 Y98.027 E.00535
G1 X130.655 Y98.743 E.02763
G1 X130.312 Y99.236 E.02168
G1 X129.893 Y99.613 E.02033
G1 X129.404 Y99.891 E.02031
G1 X128.623 Y100.088 E.0291
G1 X128.023 Y100.081 E.02165
G1 X127.476 Y99.946 E.02033
G1 X126.971 Y99.696 E.02033
G1 X126.536 Y99.347 E.02015
G1 X126.06 Y98.693 E.02923
G1 X125.845 Y98.132 E.02168
G1 X125.768 Y97.574 E.02033
G1 X125.813 Y97.013 E.02033
G1 X125.977 Y96.475 E.02031
G1 X126.408 Y95.794 E.0291
G1 X126.849 Y95.387 E.02165
G1 X127.339 Y95.109 E.02033
G1 X128.12 Y94.912 E.02911
G1 X128.719 Y94.919 E.02162
G1 X129.266 Y95.054 E.02033
G1 X129.771 Y95.304 E.02033
G1 X130.21 Y95.656 E.02033
G1 X130.563 Y96.094 E.02033
G1 X130.812 Y96.594 E.02015
G1 X130.978 Y97.5 E.03326
G1 X130.943 Y97.84 E.01233
G1 X130.505 Y97.634 F9000
;TYPE:Outer wall
G1 F900
G1 X130.461 Y97.993 E.01306
G1 X130.23 Y98.575 E.02262
G1 X129.914 Y98.996 E.019
G1 X129.556 Y99.292 E.01678
G1 X129.132 Y99.508 E.01719
G1 X128.524 Y99.642 E.02247
G1 X127.999 Y99.616 E.01899
G1 X127.553 Y99.487 E.01678
G1 X127.145 Y99.265 E.01677
G1 X126.79 Y98.953 E.01703
G1 X126.438 Y98.435 E.02262
G1 X126.267 Y97.938 E.019
G1 X126.222 Y97.475 E.01678
G1 X126.278 Y97.014 E.01678
G1 X126.438 Y96.566 E.01719
G1 X126.787 Y96.05 E.02247
G1 X127.186 Y95.708 E.01899
G1 X127.611 Y95.492 E.01721
G1 X128.218 Y95.358 E.02247
G1 X128.743 Y95.384 E.01896
G1 X129.189 Y95.513 E.01678
G1 X129.597 Y95.735 E.01678
G1 X129.948 Y96.04 E.01678
G1 X130.225 Y96.413 E.01677
G1 X130.416 Y96.845 E.01703
G1 X130.521 Y97.5 E.02396
G1 X130.51 Y97.594 E.00342
G1 E-3.5 F1800
;WIPE_START
G1 F900
G1 X130.461 Y97.993 E-1.2048
G1 X130.425 Y98.084 E-.2952
;WIPE_END
G17
G3 Z.6 I-.077 J-1.214 P1  F9000
G1 X91.857 Y100.545 Z.6
G1 Z.2
G1 E5 F1800
;TYPE:Inner wall
G1 F900
G1 X91.671 Y100.56 E.00672
G1 X91.145 Y100.526 E.01903
G1 X90.612 Y100.386 E.0199
G1 X90.015 Y100.1 E.02389
G1 X89.495 Y99.693 E.02387
G1 X89.289 Y99.463 E.01113
G1 X88.939 Y98.948 E.02247
G1 X88.669 Y98.278 E.02609
G1 X88.571 Y97.624 E.02389
G1 X88.616 Y96.963 E.02389
G1 X88.802 Y96.328 E.02389
G1 X89.12 Y95.748 E.02387
G1 X89.313 Y95.508 E.01113
G1 X89.765 Y95.08 E.02247
G1 X90.382 Y94.705 E.02609
G1 X91.07 Y94.511 E.0258
G1 X91.587 Y94.44 E.01885
G1 X92.246 Y94.503 E.02387
G1 X92.929 Y94.735 E.02605
G1 X93.462 Y95.056 E.02247
M73 P8 R18
G1 X93.703 Y95.25 E.01115
G1 X94.138 Y95.747 E.02387
G1 X94.423 Y96.243 E.02063
G1 X94.64 Y96.985 E.02792
G1 X94.682 Y97.292 E.01121
G1 X94.682 Y97.708 E.015
G1 X94.566 Y98.359 E.02389
G1 X94.313 Y98.97 E.02389
G1 X93.934 Y99.513 E.02389
G1 X93.447 Y99.961 E.02389
G1 X92.876 Y100.294 E.02387
G1 X92.587 Y100.401 E.01113
G1 X91.979 Y100.535 E.02247
G1 X91.897 Y100.541 E.00299
G1 X91.786 Y100.087 F9000
G1 F900
G1 X91.281 Y100.081 E.01822
G1 X90.734 Y99.946 E.02033
G1 X90.229 Y99.696 E.02033
G1 X89.791 Y99.344 E.02031
G1 X89.318 Y98.692 E.0291
G1 X89.103 Y98.132 E.02165
G1 X89.026 Y97.574 E.02033
G1 X89.071 Y97.013 E.02033
G1 X89.235 Y96.474 E.02033
G1 X89.511 Y95.984 E.02031
G1 X90.079 Y95.412 E.0291
G1 X90.597 Y95.109 E.02165
G1 X91.168 Y94.958 E.02135
G1 X91.563 Y94.897 E.01441
G1 X92.123 Y94.943 E.02031
G1 X92.693 Y95.127 E.02162
G1 X93.226 Y95.448 E.02247
G1 X93.657 Y95.866 E.02165
G1 X93.958 Y96.335 E.02015
G1 X94.2 Y97.108 E.02923
G1 X94.225 Y97.708 E.02168
G1 X94.12 Y98.261 E.02033
G1 X93.898 Y98.779 E.02033
G1 X93.57 Y99.236 E.02033
G1 X93.151 Y99.613 E.02033
G1 X92.662 Y99.891 E.02031
G1 X91.881 Y100.088 E.0291
G1 X91.826 Y100.088 E.00199
G1 X91.749 Y99.64 F9000
;TYPE:Outer wall
G1 F900
G1 X91.265 Y99.619 E.01747
G1 X90.811 Y99.487 E.01709
G1 X90.403 Y99.265 E.01678
G1 X90.045 Y98.95 E.01719
G1 X89.696 Y98.435 E.02247
G1 X89.527 Y97.953 E.01846
G1 X89.48 Y97.475 E.01732
G1 X89.536 Y97.014 E.01678
G1 X89.689 Y96.575 E.01678
G1 X89.942 Y96.172 E.01719
G1 X90.393 Y95.744 E.02247
G1 X90.869 Y95.492 E.01942
G1 X91.476 Y95.358 E.02247
G1 X92.001 Y95.384 E.01896
G1 X92.457 Y95.519 E.01719
G1 X92.991 Y95.84 E.02247
G1 X93.355 Y96.219 E.01898
G1 X93.591 Y96.627 E.01703
G1 X93.759 Y97.231 E.02262
G1 X93.768 Y97.708 E.01723
G1 X93.657 Y98.21 E.01855
G1 X93.457 Y98.629 E.01678
G1 X93.172 Y98.996 E.01678
G1 X92.814 Y99.292 E.01678
G1 X92.39 Y99.508 E.01719
G1 X91.789 Y99.641 E.02224
G1 E-3.5 F1800
;WIPE_START
G1 F900
G1 X91.289 Y99.62 E-1.5
;WIPE_END
G17
G3 Z.6 I.01 J1.217 P1  F9000
G1 X134.199 Y99.268 Z.6
G1 Z.2
G1 E5 F1800
;TYPE:Bottom surface
;WIDTH:0.36711
G1 F1200
G1 X134.138 Y99.303 E.0018
G1 X134.199 Y99.338 E.0018
G1 E-3.5 F1800
;WIPE_START
G1 F1200
G1 X134.138 Y99.303 E-.75001
G1 X134.199 Y99.268 E-.74999
;WIPE_END
G17
G3 Z.6 I1.217 J-.027 P1  F9000
G1 X134.112 Y95.315 Z.6
G1 Z.2
G1 E5 F1800
;WIDTH:0.499999
G1 F1200
G1 X134.112 Y91.764 E.12823
G1 X130.558 Y91.764 E.12834
G1 X131.31 Y92.104 E.0298
G1 X131.857 Y92.44 E.0232
G1 X132.401 Y92.862 E.02485
G1 X132.864 Y93.308 E.0232
G1 X133.304 Y93.836 E.02485
G1 X133.659 Y94.37 E.02311
G1 X133.973 Y94.974 E.0246
G1 X134.097 Y95.278 E.01185
G1 E-3.5 F1800
;WIPE_START
G1 F1200
G1 X133.973 Y94.974 E-.98451
G1 X133.894 Y94.822 E-.51549
;WIPE_END
G17
G3 Z.6 I1.068 J-.584 P1  F9000
G1 X132.507 Y92.284 Z.6
G1 Z.2
G1 E5 F1800
;WIDTH:0.627559
G1 F1200
G1 X133.089 Y92.78 E.03532
G1 X133.592 Y93.368 E.03569
G1 X133.592 Y92.284 E.05002
G1 X132.547 Y92.284 E.04824
G1 E-3.5 F1800
;WIPE_START
G1 F1200
G1 X133.047 Y92.284 E-1.5
;WIPE_END
G17
G3 Z.6 I.092 J-1.213 P1  F9000
G1 X126.165 Y91.764 Z.6
G1 Z.2
G1 E5 F1800
;WIDTH:0.499999
G1 F1200
G1 X93.845 Y91.764 E1.16692
G1 X94.57 Y92.112 E.02902
G1 X95.241 Y92.531 E.02859
G1 X95.785 Y92.966 E.02512
G1 X96.19 Y93.377 E.02085
G1 X96.549 Y93.818 E.02051
G1 X96.927 Y94.387 E.02469
G1 X97.181 Y94.855 E.0192
G1 X97.467 Y95.605 E.029
G1 X97.672 Y96.396 E.02951
G1 X97.745 Y96.781 E.01415
G1 X97.745 Y98.06 E.04615
G1 X97.645 Y98.753 E.02531
G1 X97.515 Y99.236 E.01805
G1 X122.486 Y99.236 E.9016
G1 X122.38 Y98.866 E.01393
G1 X122.27 Y98.233 E.02318
G1 X122.226 Y97.547 E.02483
G1 X122.241 Y97.005 E.01956
G1 X122.304 Y96.483 E.01897
G1 X122.421 Y95.939 E.02011
G1 X122.594 Y95.394 E.02062
G1 X122.919 Y94.661 E.02897
G1 X123.596 Y93.635 E.04438
G1 X124.058 Y93.116 E.02508
G1 X124.497 Y92.726 E.02121
G1 X124.962 Y92.388 E.02076
G1 X125.553 Y92.04 E.02475
G1 X126.127 Y91.777 E.0228
G1 X124.418 Y92.221 F9000
G1 F1200
G1 X95.58 Y92.221 E1.04123
M73 P9 R18
G1 X96.11 Y92.645 E.02452
G1 X96.516 Y93.056 E.02085
G1 X96.929 Y93.565 E.02367
G1 X97.308 Y94.134 E.02469
G1 X97.6 Y94.673 E.02215
G1 X97.909 Y95.491 E.03154
G1 X98.114 Y96.282 E.02951
G1 X98.199 Y96.726 E.01633
G1 X98.223 Y97.227 E.01812
G1 X98.202 Y98.071 E.03048
G1 X98.099 Y98.779 E.02583
G1 X121.904 Y98.779 E.85947
G1 X121.814 Y98.262 E.01895
G1 X121.77 Y97.576 E.02483
G1 X121.788 Y96.951 E.02257
G1 X121.85 Y96.429 E.01897
G1 X121.986 Y95.801 E.02321
G1 X122.158 Y95.256 E.02062
G1 X122.355 Y94.769 E.019
G1 X122.771 Y94.016 E.03103
G1 X123.221 Y93.373 E.02835
G1 X123.754 Y92.774 E.02894
G1 X124.193 Y92.384 E.02121
G1 X124.386 Y92.244 E.0086
G1 E-3.5 F1800
;WIPE_START
G1 F1200
G1 X124.193 Y92.384 E-.71417
G1 X123.997 Y92.558 E-.78583
;WIPE_END
G17
G3 Z.6 I-1.197 J.22 P1  F9000
G1 X125.015 Y98.107 Z.6
G1 Z.2
G1 E5 F1800
G1 F1200
G1 X124.963 Y97.373 E.0266
G1 X125.027 Y96.809 E.02047
G1 X125.208 Y96.223 E.02217
G1 X125.393 Y95.85 E.01502
G1 X125.843 Y95.207 E.02835
G1 X126.318 Y94.777 E.02312
G1 X126.944 Y94.403 E.02634
G1 X127.353 Y94.252 E.01573
G1 X128.23 Y94.09 E.03219
G1 X128.756 Y94.111 E.01902
G1 X129.467 Y94.271 E.02629
G1 X130.135 Y94.582 E.02662
G1 X130.721 Y95.029 E.02662
G1 X131.198 Y95.592 E.02663
G1 X131.539 Y96.238 E.02637
G1 X131.667 Y96.65 E.01556
G1 X131.784 Y97.466 E.0298
G1 X131.723 Y98.149 E.02476
G1 X131.653 Y98.418 E.01002
G1 X131.41 Y99.035 E.02394
G1 X131.203 Y99.401 E.01518
G1 X130.933 Y99.751 E.01595
G1 X130.429 Y100.219 E.02485
G1 X129.798 Y100.597 E.02655
G1 X129.397 Y100.746 E.01545
G1 X128.696 Y100.894 E.02587
G1 X127.996 Y100.889 E.02529
G1 X127.275 Y100.729 E.02664
G1 X126.607 Y100.418 E.02663
G1 X126.026 Y99.975 E.02637
G1 X125.74 Y99.66 E.01539
G1 X125.395 Y99.154 E.0221
G1 X125.205 Y98.767 E.01554
G1 X125.026 Y98.146 E.02335
G1 X124.576 Y98.234 F9000
G1 F1200
G1 X124.507 Y97.402 E.03015
G1 X124.573 Y96.755 E.02347
G1 X124.773 Y96.085 E.02525
G1 X125.019 Y95.588 E.02001
G1 X125.469 Y94.945 E.02835
G1 X126.014 Y94.435 E.02696
G1 X126.712 Y94.009 E.02953
G1 X127.27 Y93.803 E.02148
G1 X128.151 Y93.64 E.03234
G1 X128.779 Y93.654 E.02269
G1 X129.569 Y93.825 E.02918
G1 X130.331 Y94.169 E.03018
G1 X131.001 Y94.668 E.03018
G1 X131.549 Y95.3 E.03018
G1 X131.945 Y96.027 E.02991
G1 X132.119 Y96.584 E.02107
G1 X132.237 Y97.401 E.0298
G1 X132.177 Y98.195 E.02875
G1 X132.078 Y98.586 E.01456
G1 X131.835 Y99.203 E.02394
G1 X131.567 Y99.678 E.01969
G1 X131.244 Y100.085 E.01877
G1 X130.74 Y100.554 E.02485
G1 X130.03 Y100.991 E.0301
G1 X129.495 Y101.193 E.02066
G1 X129.273 Y101.22 E.00807
;WIDTH:0.457964
G1 X129.051 Y101.247 E.00733
;WIDTH:0.415928
G1 X128.829 Y101.273 E.00659
;WIDTH:0.359644
G1 X127.993 Y101.276 E.02091
;WIDTH:0.359175
G1 X127.72 Y101.242 E.00688
;WIDTH:0.406117
G1 X127.446 Y101.209 E.0079
;WIDTH:0.497022
G1 X127.173 Y101.175 E.00988
G1 X126.411 Y100.831 E.02998
G1 X125.746 Y100.337 E.02972
G1 X125.362 Y99.917 E.02042
G1 X125.017 Y99.411 E.02196
G1 X124.766 Y98.894 E.02062
G1 X124.587 Y98.272 E.0232
G1 E-3.5 F1800
;WIPE_START
G1 F1200
G1 X124.725 Y98.753 E-1.5
;WIPE_END
G17
G3 Z.6 I.167 J-1.205 P1  F9000
G1 X101.299 Y95.5 Z.6
G1 Z.2
G1 E5 F1800
;WIDTH:0.659588
G1 F1200
G1 X118.641 Y95.5 E.84475
G1 E-3.5 F1800
;WIPE_START
G1 F1200
G1 X118.141 Y95.5 E-1.5
;WIPE_END
G17
G3 Z.6 I-.038 J-1.216 P1  F9000
