; HEADER_BLOCK_START
; generated by OrcaSlicer 1.7.0 on 2023-12-12 at 00:21:50
; total layer number: 109
; HEADER_BLOCK_END

; THUMBNAIL_BLOCK_START
; THUMBNAIL_BLOCK_END

; external perimeters extrusion width = 0.40mm
; perimeters extrusion width = 0.45mm
; infill extrusion width = 0.45mm
; solid infill extrusion width = 0.40mm
; top infill extrusion width = 0.40mm
; first layer extrusion width = 0.50mm

; EXECUTABLE_BLOCK_START
EXCLUDE_OBJECT_DEFINE NAME=Side_Spool_Mount_-_Ender_3_Pro_-_Long_-_4_Tabs_v1_-_Part_1.stl_id_0_copy_0 CENTER=110,110 POLYGON=[[79.9127,73.5985],[85.7837,73.5985],[125.784,73.5983],[136.655,73.5983],[140.087,118.03],[140.087,118.031],[134.462,123.656],[117.432,140.686],[111.724,146.394],[111.716,146.402],[111.716,146.402],[79.9129,114.599],[79.9127,73.5985]]
M73 P0 R118
;TYPE:Custom
START_PRINT EXTRUDER_TEMP=255  BED_TEMP=80
G90
G21
M83 ; use relative distances for extrusion
; filament start gcode
M106 S0
;LAYER_CHANGE
;Z:0.2
;HEIGHT:0.2
;BEFORE_LAYER_CHANGE
;0.2
G92 E0

G1 E-5 F1800
;_SET_FAN_SPEED_CHANGING_LAYER
; printing object Side_Spool_Mount_-_Ender_3_Pro_-_Long_-_4_Tabs v1 - Part 1.stl id:0 copy 0
EXCLUDE_OBJECT_START NAME=Side_Spool_Mount_-_Ender_3_Pro_-_Long_-_4_Tabs_v1_-_Part_1.stl_id_0_copy_0
G1 X135.491 Y74.762 F9000
G1 Z.4
G1 Z.2
G1 E5 F1800
;TYPE:Inner wall
;WIDTH:0.499999
G1 F900
G1 X135.494 Y103.262 E1.029
;WIDTH:0.494231
G1 X135.494 Y103.954 E.02469
;WIDTH:0.499999
G1 X135.491 Y109.787 E.21059
G1 X135.578 Y110.19 E.01489
G1 X135.999 Y111.207 E.03977
G1 X138.714 Y117.757 E.256
G1 X111.716 Y144.755 E1.37854
G1 X81.077 Y114.116 E1.56448
G1 X81.077 Y74.763 E1.4209
G1 X135.451 Y74.762 E1.96321
G1 X135.948 Y74.305 F9000
G1 F900
G1 X135.948 Y109.753 E1.27985
G1 X136 Y110.015 E.00966
G1 X136.422 Y111.033 E.03977
G1 X139.253 Y117.865 E.26702
G1 X111.716 Y145.402 E1.40608
G1 X80.62 Y114.306 E1.58782
G1 X80.62 Y74.306 E1.44424
G1 X135.908 Y74.305 E1.99622
G1 X136.405 Y73.848 F9000
;TYPE:Outer wall
G1 F900
G1 X136.405 Y108.796 E1.26184
G1 X136.422 Y109.84 E.03768
G1 X136.844 Y110.858 E.03977
G1 X139.792 Y117.972 E.27805
G1 X111.716 Y146.048 E1.43361
G1 X80.163 Y114.495 E1.61116
G1 X80.163 Y73.848 E1.46758
G1 X136.365 Y73.848 E2.02923
G1 E-3.5 F1800
;WIPE_START
G1 F900
G1 X136.365 Y74.348 E-1.5
;WIPE_END
G17
G3 Z.6 I-1.168 J-.341 P1  F9000
G1 X122.052 Y123.343 Z.6
G1 Z.2
G1 E5 F1800
;TYPE:Inner wall
G1 F900
G1 X121.929 Y123.172 E.0076
G1 X121.815 Y122.761 E.01542
G1 X121.847 Y122.382 E.01374
G1 X121.995 Y122.046 E.01325
G1 X122.733 Y121.271 E.03862
G1 X129.602 Y114.402 E.35075
G1 X129.92 Y114.178 E.01405
G1 X130.321 Y114.071 E.01499
G1 X130.663 Y114.096 E.01236
G1 X130.982 Y114.221 E.01237
G1 X131.218 Y114.402 E.01077
G1 X134.785 Y117.97 E.18213
G1 X134.974 Y118.22 E.01132
G1 X135.085 Y118.498 E.01083
G1 X135.117 Y118.848 E.0127
G1 X135.024 Y119.235 E.01434
G1 X134.912 Y119.434 E.00825
G1 X134.785 Y119.586 E.00716
G1 X127.328 Y127.042 E.38073
G1 X126.955 Y127.291 E.01619
G1 X126.548 Y127.376 E.01503
G1 X126.187 Y127.327 E.01314
G1 X125.909 Y127.2 E.01105
G1 X125.035 Y126.365 E.04363
G1 X122.145 Y123.474 E.14758
G1 X122.075 Y123.376 E.00436
G1 X122.416 Y123.066 F9000
G1 F900
G1 X122.302 Y122.879 E.00791
G1 X122.276 Y122.564 E.0114
G1 X122.378 Y122.294 E.01044
G1 X123.056 Y121.595 E.03516
G1 X129.925 Y114.725 E.35075
G1 X130.174 Y114.567 E.01064
G1 X130.496 Y114.53 E.0117
G1 X130.753 Y114.616 E.00981
G1 X130.895 Y114.725 E.00646
G1 X134.461 Y118.293 E.18213
G1 X134.641 Y118.61 E.01317
G1 X134.661 Y118.82 E.00762
G1 X134.538 Y119.171 E.01344
G1 X127.005 Y126.719 E.38501
G1 X126.781 Y126.868 E.00971
G1 X126.537 Y126.919 E.00902
G1 X126.32 Y126.89 E.00788
G1 X126.035 Y126.719 E.01201
G1 X122.469 Y123.151 E.18214
G1 X122.437 Y123.1 E.00217
G1 X122.792 Y122.828 F9000
;TYPE:Outer wall
G1 F900
G1 X122.725 Y122.665 E.00637
G1 X122.792 Y122.505 E.00625
G1 X130.249 Y115.049 E.38073
G1 X130.416 Y114.982 E.00652
G1 X130.572 Y115.049 E.00611
G1 X134.138 Y118.616 E.18213
G1 X134.205 Y118.792 E.00678
G1 X134.164 Y118.909 E.00448
G1 X126.682 Y126.396 E.38216
G1 X126.526 Y126.462 E.00613
G1 X126.359 Y126.395 E.0065
G1 X122.82 Y122.856 E.18069
G1 E-3.5 F1800
;WIPE_START
G1 F900
G1 X122.725 Y122.665 E-.64194
G1 X122.792 Y122.505 E-.51954
G1 X122.872 Y122.425 E-.33851
;WIPE_END
G1 E0 F1800
G17
G3 Z.6 I1.078 J.564 P1  F9000
G1 X134.01 Y101.149 Z.6
G1 Z.2
G1 E5 F1800
;TYPE:Inner wall
G1 F900
G1 X134.202 Y101.33 E.00953
G1 X134.605 Y101.894 E.02505
G1 X134.856 Y102.432 E.0214
G1 X134.945 Y102.716 E.01077
G1 X135.046 Y103.301 E.02143
;WIDTH:0.494231
G1 X135.044 Y103.944 E.02294
;WIDTH:0.499999
G1 X134.936 Y104.529 E.02145
G1 X134.725 Y105.084 E.02145
G1 X134.344 Y105.693 E.02592
G1 X133.827 Y106.226 E.02682
G1 X133.317 Y106.577 E.02234
G1 X132.656 Y106.857 E.02594
G1 X132.05 Y106.987 E.02236
G1 X131.456 Y107.004 E.02145
G1 X130.748 Y106.885 E.02594
G1 X130.168 Y106.669 E.02236
G1 X129.657 Y106.364 E.02145
G1 X129.044 Y105.789 E.03037
G1 X128.675 Y105.261 E.02325
G1 X128.432 Y104.719 E.02145
G1 X128.27 Y104.019 E.02594
G1 X128.248 Y103.401 E.02235
G1 X128.316 Y102.882 E.01889
G1 X128.564 Y102.162 E.0275
G1 X128.689 Y101.915 E.00998
G1 X128.995 Y101.459 E.01984
G1 X129.386 Y101.05 E.02041
G1 X129.803 Y100.73 E.019
G1 X130.485 Y100.398 E.02739
G1 X130.747 Y100.311 E.00998
G1 X131.456 Y100.193 E.02595
G1 X132.097 Y100.219 E.02314
G1 X132.667 Y100.345 E.02109
G1 X133.26 Y100.589 E.02315
G1 X133.767 Y100.92 E.02187
G1 X133.981 Y101.122 E.01059
G1 X133.694 Y101.476 F9000
G1 F900
G1 X133.879 Y101.653 E.00924
G1 X134.191 Y102.088 E.01932
G1 X134.441 Y102.625 E.0214
G1 X134.598 Y103.38 E.02785
G1 X134.591 Y103.925 E.01967
G1 X134.49 Y104.43 E.0186
G1 X134.302 Y104.909 E.01858
G1 X133.964 Y105.439 E.0227
G1 X133.511 Y105.896 E.02324
G1 X133.072 Y106.191 E.01911
G1 X132.49 Y106.431 E.02271
G1 X131.971 Y106.536 E.01913
G1 X131.456 Y106.547 E.01858
G1 X130.837 Y106.437 E.02271
G1 X130.343 Y106.247 E.01913
G1 X129.903 Y105.979 E.01858
G1 X129.367 Y105.466 E.02679
G1 X129.061 Y105.016 E.01967
G1 X128.854 Y104.544 E.01858
G1 X128.719 Y103.93 E.02272
G1 X128.705 Y103.401 E.01912
G1 X128.763 Y102.976 E.01549
G1 X128.994 Y102.317 E.0252
G1 X129.344 Y101.757 E.02384
G1 X129.709 Y101.374 E.01912
G1 X130.134 Y101.067 E.01892
G1 X130.679 Y100.811 E.02174
G1 X131.322 Y100.663 E.02384
G1 X131.851 Y100.65 E.01911
G1 X132.569 Y100.791 E.02641
G1 X133.069 Y101.004 E.01961
G1 X133.506 Y101.296 E.01897
G1 X133.665 Y101.448 E.00797
G1 X133.36 Y101.782 F9000
;TYPE:Outer wall
G1 F900
G1 X133.578 Y102.003 E.01119
G1 X133.777 Y102.281 E.01234
G1 X134.027 Y102.818 E.0214
G1 X134.148 Y103.459 E.02357
G1 X134.129 Y103.944 E.01752
G1 X134.031 Y104.369 E.01573
G1 X133.859 Y104.774 E.01589
G1 X133.552 Y105.223 E.01965
G1 X133.159 Y105.593 E.01949
G1 X132.786 Y105.826 E.01588
G1 X132.281 Y106.018 E.01949
G1 X131.852 Y106.09 E.01572
G1 X131.412 Y106.085 E.01589
G1 X130.904 Y105.983 E.01871
G1 X130.482 Y105.806 E.01651
G1 X130.11 Y105.562 E.01607
G1 X129.69 Y105.143 E.02143
G1 X129.428 Y104.735 E.01752
G1 X129.263 Y104.326 E.01589
G1 X129.166 Y103.834 E.01813
G1 X129.165 Y103.366 E.01689
G1 X129.211 Y103.069 E.01085
G1 X129.424 Y102.472 E.02289
G1 X129.724 Y102.011 E.01986
G1 X130.137 Y101.616 E.02065
G1 X130.328 Y101.481 E.00844
M73 P0 R117
G1 X130.873 Y101.225 E.02174
G1 X131.412 Y101.111 E.01986
G1 X131.9 Y101.112 E.01765
G1 X132.471 Y101.238 E.02109
G1 X132.912 Y101.439 E.01751
G1 X133.276 Y101.697 E.01609
G1 X133.332 Y101.754 E.00291
G1 E-3.5 F1800
;WIPE_START
G1 F900
G1 X133.578 Y102.003 E-1.04957
G1 X133.665 Y102.125 E-.45043
;WIPE_END
G17
G3 Z.6 I-.984 J-.716 P1  F9000
G1 X107.914 Y137.498 Z.6
G1 Z.2
G1 E5 F1800
;TYPE:Inner wall
G1 F900
G1 X107.783 Y137.314 E.00818
G1 X107.678 Y136.973 E.01287
G1 X107.678 Y136.65 E.01167
G1 X107.752 Y136.377 E.01024
G1 X108.001 Y136.004 E.01618
G1 X115.456 Y128.549 E.38066
G1 X115.785 Y128.319 E.01451
G1 X116.167 Y128.218 E.01425
G1 X116.254 Y128.214 E.00316
G1 X116.618 Y128.27 E.01327
G1 X116.925 Y128.425 E.01242
G1 X117.073 Y128.55 E.00698
G1 X120.64 Y132.113 E.18206
G1 X120.798 Y132.31 E.00911
G1 X120.926 Y132.588 E.01105
G1 X120.975 Y132.949 E.01314
G1 X120.889 Y133.356 E.01503
G1 X120.641 Y133.73 E.01619
G1 X113.184 Y141.186 E.38073
G1 X112.825 Y141.429 E.01565
G1 X112.431 Y141.519 E.0146
G1 X112.077 Y141.481 E.01287
G1 X111.72 Y141.313 E.01423
G1 X111.568 Y141.186 E.00715
G1 X108.001 Y137.62 E.18213
G1 X107.938 Y137.531 E.00394
G1 X108.281 Y137.236 F9000
G1 F900
G1 X108.193 Y137.113 E.00545
G1 X108.13 Y136.909 E.00772
G1 X108.175 Y136.551 E.01303
G1 X108.324 Y136.327 E.00971
G1 X115.779 Y128.872 E.38066
G1 X116.043 Y128.708 E.01122
G1 X116.258 Y128.671 E.00789
G1 X116.567 Y128.742 E.01145
G1 X116.75 Y128.873 E.00812
G1 X120.317 Y132.437 E.18206
G1 X120.488 Y132.722 E.01201
G1 X120.518 Y132.938 E.00789
G1 X120.467 Y133.182 E.00902
G1 X120.317 Y133.406 E.00971
G1 X112.861 Y140.863 E.38073
G1 X112.646 Y141.008 E.00939
G1 X112.409 Y141.063 E.00876
G1 X112.197 Y141.04 E.00772
G1 X111.982 Y140.939 E.00854
G1 X111.892 Y140.863 E.00429
G1 X108.324 Y137.296 E.18213
G1 X108.304 Y137.268 E.00125
G1 X108.647 Y136.973 F9000
;TYPE:Outer wall
G1 F900
G1 X108.583 Y136.844 E.00522
G1 X108.621 Y136.682 E.00601
G1 X116.102 Y129.195 E.38215
G1 X116.262 Y129.128 E.00625
G1 X116.427 Y129.196 E.00644
G1 X119.994 Y132.76 E.18206
G1 X120.061 Y132.927 E.0065
G1 X119.994 Y133.083 E.00613
G1 X112.538 Y140.54 E.38073
G1 X112.387 Y140.606 E.00595
G1 X112.215 Y140.54 E.00668
G1 X108.676 Y137.002 E.18069
G1 E-3.5 F1800
;WIPE_START
G1 F900
G1 X108.583 Y136.844 E-.54872
G1 X108.621 Y136.682 E-.49973
G1 X108.727 Y136.575 E-.45155
;WIPE_END
G17
G3 Z.6 I.955 J-.755 P1  F9000
G1 X85.312 Y106.958 Z.6
G1 Z.2
G1 E5 F1800
;TYPE:Inner wall
G1 F900
G1 X84.878 Y106.886 E.01589
G1 X84.298 Y106.669 E.02235
G1 X83.709 Y106.302 E.02505
G1 X83.272 Y105.901 E.02141
G1 X82.819 Y105.282 E.0277
G1 X82.525 Y104.602 E.02674
G1 X82.396 Y103.995 E.0224
G1 X82.378 Y103.401 E.02148
G1 X82.492 Y102.718 E.02497
G1 X82.695 Y102.16 E.02146
G1 X83.092 Y101.505 E.02764
G1 X83.611 Y100.971 E.02688
G1 X84.121 Y100.62 E.02237
G1 X84.663 Y100.377 E.02145
G1 X85.363 Y100.215 E.02594
G1 X85.981 Y100.193 E.02234
G1 X86.808 Y100.348 E.03036
G1 X87.293 Y100.538 E.0188
G1 X87.879 Y100.908 E.02504
G1 X88.332 Y101.33 E.02235
G1 X88.687 Y101.807 E.02146
G1 X88.996 Y102.455 E.02593
G1 X89.167 Y103.175 E.02672
G1 X89.189 Y103.399 E.00811
G1 X89.179 Y103.918 E.01874
G1 X89.066 Y104.528 E.02242
G1 X88.855 Y105.084 E.02147
G1 X88.474 Y105.694 E.02594
G1 X88.052 Y106.146 E.02235
G1 X87.59 Y106.495 E.02089
M73 P1 R117
G1 X86.95 Y106.8 E.0256
G1 X86.207 Y106.982 E.02765
G1 X85.587 Y107.004 E.02239
G1 X85.351 Y106.965 E.00862
G1 X85.374 Y106.509 F9000
G1 F900
G1 X84.967 Y106.437 E.01493
G1 X84.473 Y106.247 E.01912
G1 X84.018 Y105.965 E.01932
G1 X83.581 Y105.564 E.02141
G1 X83.199 Y105.028 E.02376
G1 X82.951 Y104.436 E.02317
G1 X82.846 Y103.916 E.01918
G1 X82.835 Y103.401 E.0186
G1 X82.921 Y102.875 E.01925
G1 X83.124 Y102.316 E.02146
G1 X83.472 Y101.759 E.0237
G1 X83.927 Y101.301 E.0233
G1 X84.367 Y101.005 E.01914
G1 X84.838 Y100.799 E.01858
G1 X85.452 Y100.663 E.02271
G1 X85.981 Y100.65 E.01911
G1 X86.709 Y100.794 E.02678
G1 X87.178 Y100.992 E.01839
G1 X87.625 Y101.288 E.01937
G1 X88.009 Y101.654 E.01912
G1 X88.313 Y102.069 E.01859
G1 X88.578 Y102.639 E.0227
G1 X88.719 Y103.265 E.02315
G1 X88.732 Y103.399 E.00486
G1 X88.722 Y103.908 E.01839
G1 X88.62 Y104.43 E.01919
G1 X88.432 Y104.909 E.01859
G1 X88.094 Y105.44 E.02272
G1 X87.729 Y105.823 E.01912
G1 X87.294 Y106.135 E.01932
G1 X86.757 Y106.386 E.0214
G1 X86.117 Y106.534 E.02371
G1 X85.587 Y106.547 E.01916
G1 X85.414 Y106.516 E.00635
G1 X85.428 Y106.062 F9000
;TYPE:Outer wall
G1 F900
G1 X85.013 Y105.976 E.0153
G1 X84.617 Y105.809 E.01553
G1 X84.327 Y105.628 E.01234
G1 X83.89 Y105.227 E.02141
G1 X83.579 Y104.774 E.01983
G1 X83.377 Y104.271 E.01959
G1 X83.292 Y103.796 E.01739
G1 X83.295 Y103.366 E.01554
G1 X83.351 Y103.031 E.01228
G1 X83.554 Y102.472 E.02146
G1 X83.853 Y102.013 E.01977
G1 X84.243 Y101.631 E.01972
G1 X84.648 Y101.372 E.01734
G1 X85.056 Y101.208 E.01589
G1 X85.586 Y101.107 E.01949
G1 X86.031 Y101.112 E.01606
G1 X86.61 Y101.241 E.02142
G1 X86.959 Y101.393 E.01377
G1 X87.381 Y101.675 E.01829
G1 X87.711 Y102.007 E.01692
G1 X87.96 Y102.37 E.0159
G1 X88.163 Y102.832 E.01819
G1 X88.275 Y103.399 E.02087
G1 X88.264 Y103.906 E.01834
G1 X88.161 Y104.369 E.01711
G1 X87.989 Y104.774 E.01589
G1 X87.706 Y105.197 E.01839
G1 X87.379 Y105.523 E.01665
G1 X87.101 Y105.721 E.01234
G1 X86.564 Y105.972 E.0214
G1 X86.028 Y106.085 E.01979
G1 X85.542 Y106.086 E.01755
G1 X85.467 Y106.07 E.00275
G1 E-3.5 F1800
;WIPE_START
G1 F900
G1 X85.013 Y105.976 E-1.39142
G1 X84.98 Y105.962 E-.10858
;WIPE_END
G17
G3 Z.6 I.035 J1.216 P1  F9000
G1 X128.062 Y104.726 Z.6
G1 Z.2
G1 E5 F1800
;TYPE:Bottom surface
G1 F1200
G1 X127.907 Y103.962 E.02817
G1 X127.902 Y103.289 E.02429
G1 X128.005 Y102.686 E.0221
G1 X128.292 Y101.905 E.03005
G1 X128.785 Y101.161 E.0322
G1 X129.234 Y100.714 E.02286
G1 X129.761 Y100.352 E.02312
G1 X130.522 Y100.009 E.03013
G1 X131.422 Y99.844 E.03302
G1 X132.139 Y99.872 E.02591
G1 X133.014 Y100.092 E.03259
G1 X133.611 Y100.386 E.02402
G1 X134.148 Y100.782 E.02409
G1 X134.585 Y101.237 E.02277
G1 X134.909 Y101.721 E.02102
G1 X135.133 Y102.169 E.0181
G1 X135.139 Y75.114 E.97683
G1 X81.429 Y75.115 E1.93925
G1 X81.429 Y102.554 E.99072
G1 X81.45 Y102.824 E.0098
;WIDTH:0.5715
G1 X81.471 Y103.095 E.01133
G1 X81.464 Y103.779 E.02858
;WIDTH:0.570293
G1 X81.487 Y104.485 E.02939
;WIDTH:0.61685
G1 X81.468 Y104.769 E.01292
;WIDTH:0.5779
G1 X81.448 Y105.053 E.01204
;WIDTH:0.500099
G1 X81.429 Y105.337 E.01029
G1 X81.429 Y113.971 E.31178
G1 X111.716 Y144.258 E1.54684
G1 X138.299 Y117.675 E1.35764
G1 X135.238 Y110.269 E.28941
G1 X135.14 Y109.769 E.0184
G1 X135.136 Y105.067 E.16978
G1 X135.1 Y105.075 E.00133
G1 X134.904 Y105.489 E.01656
G1 X134.45 Y106.111 E.02781
G1 X133.865 Y106.642 E.02853
G1 X133.272 Y106.992 E.02486
G1 X132.532 Y107.256 E.02837
G1 X132.001 Y107.347 E.01948
G1 X131.34 Y107.334 E.02387
G1 X131.134 Y107.32 E.00746
G1 X130.43 Y107.155 E.02612
G1 X129.926 Y106.944 E.01972
G1 X129.324 Y106.536 E.02625
G1 X128.696 Y105.926 E.03164
G1 X128.34 Y105.385 E.02339
G1 X128.078 Y104.763 E.02436
G1 E-3.5 F1800
;WIPE_START
G1 F1200
G1 X128.272 Y105.224 E-1.5
;WIPE_END
G17
G3 Z.6 I-.957 J-.752 P1  F9000
G1 X105.516 Y134.178 Z.6
G1 Z.2
G1 E5 F1800
;WIDTH:0.499999
G1 F1200
G1 X105.816 Y133.812 E.01711
G1 X113.264 Y126.364 E.38031
G1 X113.657 Y126.022 E.01884
G1 X114.078 Y125.731 E.01846
G1 X114.725 Y125.424 E.02584
G1 X115.289 Y125.234 E.02148
G1 X116 Y125.145 E.02588
G1 X116.482 Y125.127 E.01743
G1 X117.146 Y125.229 E.02426
G1 X117.819 Y125.422 E.02526
G1 X118.304 Y125.645 E.01927
G1 X118.894 Y126.05 E.02584
G1 X119.262 Y126.363 E.01745
G1 X122.499 Y129.596 E.16518
G1 X123.195 Y128.901 E.03552
G1 X119.959 Y125.664 E.16523
G1 X119.62 Y125.278 E.01857
G1 X119.267 Y124.734 E.0234
G1 X119.001 Y124.184 E.02208
G1 X118.84 Y123.656 E.01991
G1 X118.724 Y122.887 E.0281
G1 X118.77 Y122.158 E.02637
G1 X118.841 Y121.66 E.01816
G1 X118.994 Y121.172 E.01848
G1 X119.211 Y120.686 E.01921
G1 X119.502 Y120.221 E.01981
G1 X119.86 Y119.772 E.02072
G1 X127.41 Y112.218 E.38564
G1 X127.796 Y111.893 E.01819
G1 X128.288 Y111.55 E.02164
G1 X128.812 Y111.289 E.02115
G1 X129.547 Y111.077 E.02762
G1 X130.382 Y110.978 E.03035
G1 X131.039 Y111.021 E.02377
G1 X131.69 Y111.197 E.02435
G1 X132.262 Y111.405 E.022
G1 X132.89 Y111.787 E.02653
G1 X132.619 Y111.093 E.02691
G1 X132.499 Y110.557 E.01981
G1 X132.413 Y110.058 E.0183
G1 X131.885 Y110.092 E.01911
G1 X131.127 Y110.072 E.02739
G1 X130.527 Y109.995 E.02185
G1 X129.804 Y109.825 E.02682
G1 X129.315 Y109.665 E.01857
G1 X128.849 Y109.466 E.01829
G1 X128.336 Y109.184 E.02115
G1 X127.692 Y108.743 E.02816
G1 X127.247 Y108.368 E.02102
G1 X126.733 Y107.842 E.02654
G1 X126.365 Y107.381 E.0213
G1 X126.038 Y106.875 E.02175
G1 X125.788 Y106.401 E.01934
G1 X125.53 Y105.779 E.02432
G1 X125.359 Y105.214 E.02133
G1 X125.216 Y104.493 E.02654
