; HEADER_BLOCK_START
; generated by OrcaSlicer 1.7.0 on 2023-12-12 at 10:04:16
; total layer number: 15
; HEADER_BLOCK_END

; THUMBNAIL_BLOCK_START
; THUMBNAIL_BLOCK_END

; external perimeters extrusion width = 0.40mm
; perimeters extrusion width = 0.45mm
; infill extrusion width = 0.45mm
; solid infill extrusion width = 0.40mm
; top infill extrusion width = 0.40mm
; first layer extrusion width = 0.50mm

; EXECUTABLE_BLOCK_START
EXCLUDE_OBJECT_DEFINE NAME=Side_Spool_Mount_-_Ender_3_Pro_-_Long_-_4_Tabs_v1_-_Part_2.stl_id_0_copy_0 CENTER=110,110 POLYGON=[[90,93.5],[125.701,93.5],[130,101.891],[130,126.5],[90,126.5],[90,93.5]]
M73 P0 R14
;TYPE:Custom
START_PRINT EXTRUDER_TEMP=255  BED_TEMP=80
G90
G21
M83 ; use relative distances for extrusion
; filament start gcode
M106 S0
;LAYER_CHANGE
;Z:0.2
;HEIGHT:0.2
;BEFORE_LAYER_CHANGE
;0.2
G92 E0

G1 E-5 F1800
;_SET_FAN_SPEED_CHANGING_LAYER
; printing object Side_Spool_Mount_-_Ender_3_Pro_-_Long_-_4_Tabs v1 - Part 2.stl id:0 copy 0
EXCLUDE_OBJECT_START NAME=Side_Spool_Mount_-_Ender_3_Pro_-_Long_-_4_Tabs_v1_-_Part_2.stl_id_0_copy_0
G1 X128.836 Y125.336 F9000
G1 Z.4
G1 Z.2
G1 E5 F1800
;TYPE:Inner wall
;WIDTH:0.499999
G1 F900
G1 X91.164 Y125.336 E1.36017
G1 X91.153 Y110.674 E.52938
;WIDTH:0.478655
G1 X91.132 Y110.482 E.00665
;WIDTH:0.43616
G1 X91.111 Y110.29 E.006
;WIDTH:0.393665
G1 X91.09 Y110.098 E.00535
;WIDTH:0.368867
G1 X91.099 Y109.549 E.01413
;WIDTH:0.412578
G1 X91.12 Y109.381 E.00495
;WIDTH:0.456289
G1 X91.142 Y109.214 E.00553
;WIDTH:0.499999
G1 X91.164 Y109.046 E.00612
G1 X91.164 Y94.664 E.51925
G1 X124.891 Y94.664 E1.21775
M73 P1 R14
G1 X125.202 Y95.502 E.03226
G1 X125.114 Y96.027 E.01922
G1 X125.121 Y97.059 E.03727
G1 X125.298 Y97.912 E.03145
G1 X125.696 Y98.864 E.03727
G1 X126.046 Y99.412 E.02347
G1 X126.263 Y99.674 E.0123
G1 X126.749 Y100.181 E.02536
G1 X127.451 Y100.695 E.03142
G1 X127.91 Y100.925 E.01852
G1 X128.836 Y102.256 E.05855
G1 X128.836 Y103.158 E.03257
G1 X128.836 Y125.296 E.79931
G1 X129.293 Y125.793 F9000
G1 F900
G1 X90.707 Y125.793 E1.39318
G1 X90.707 Y94.207 E1.14044
G1 X125.209 Y94.207 E1.24573
M73 P2 R14
G1 X125.677 Y95.466 E.04851
G1 X125.571 Y96.033 E.02081
G1 X125.571 Y96.977 E.03408
G1 X125.724 Y97.744 E.02826
G1 X126.081 Y98.618 E.03408
G1 X126.431 Y99.166 E.02347
G1 X127.028 Y99.819 E.03197
G1 X127.655 Y100.287 E.02824
G1 X128.218 Y100.568 E.02273
G1 X129.293 Y102.113 E.06794
G1 X129.293 Y103.158 E.03774
G1 X129.293 Y125.753 E.81581
G1 X129.75 Y126.25 F9000
;TYPE:Outer wall
G1 F900
G1 X90.25 Y126.25 E1.42619
G1 X90.25 Y93.75 E1.17344
G1 X125.527 Y93.75 E1.27371
M73 P3 R14
G1 X126.151 Y95.431 E.06476
G1 X126.028 Y96.039 E.0224
G1 X126.02 Y96.895 E.0309
G1 X126.149 Y97.577 E.02507
G1 X126.466 Y98.372 E.0309
G1 X126.937 Y99.057 E.03003
G1 X127.308 Y99.457 E.01968
G1 X127.86 Y99.878 E.02506
G1 X128.527 Y100.211 E.02694
G1 X129.75 Y101.969 E.07732
G1 X129.75 Y103.158 E.04292
G1 X129.75 Y126.21 E.83231
G1 E-3.5 F1800
;WIPE_START
G1 F900
G1 X129.25 Y126.211 E-1.5
;WIPE_END
G17
G3 Z.6 I1.142 J-.421 P1  F9000
G1 X124.207 Y112.542 Z.6
G1 Z.2
G1 E5 F1800
;TYPE:Inner wall
G1 F900
G1 X123.85 Y112.552 E.01292
G1 X123.274 Y112.442 E.02118
G1 X122.785 Y112.226 E.01929
G1 X122.318 Y111.879 E.02101
G1 X121.966 Y111.48 E.01922
G1 X121.731 Y111.07 E.01703
G1 X121.559 Y110.567 E.01922
G1 X121.499 Y110.099 E.01701
G1 X121.532 Y109.57 E.01914
G1 X121.656 Y109.112 E.01714
G1 X121.89 Y108.634 E.01922
G1 X122.178 Y108.261 E.01703
G1 X122.553 Y107.925 E.01818
G1 X123.102 Y107.631 E.02249
G1 X123.569 Y107.491 E.01758
G1 X123.933 Y107.441 E.01327
G1 X124.404 Y107.463 E.01701
G1 X124.919 Y107.587 E.01914
G1 X125.349 Y107.789 E.01714
G1 X125.779 Y108.103 E.01923
G1 X126.096 Y108.452 E.01703
G1 X126.383 Y108.929 E.02012
G1 X126.569 Y109.532 E.02277
G1 X126.616 Y110.124 E.02144
G1 X126.599 Y110.322 E.00716
G1 X126.469 Y110.865 E.02016
G1 X126.268 Y111.291 E.01703
G1 X125.881 Y111.789 E.02276
G1 X125.502 Y112.107 E.01784
G1 X124.945 Y112.402 E.02277
G1 X124.404 Y112.537 E.02013
G1 X124.247 Y112.541 E.00566
G1 X124.242 Y112.089 F9000
G1 F900
G1 X124.167 Y112.102 E.00277
G1 X123.726 Y112.079 E.01592
G1 X123.353 Y111.983 E.0139
G1 X122.953 Y111.793 E.016
G1 X122.648 Y111.563 E.0138
G1 X122.351 Y111.234 E.01599
G1 X122.157 Y110.905 E.0138
G1 X122.009 Y110.487 E.01599
G1 X121.956 Y110.109 E.01379
G1 X121.978 Y109.669 E.01591
G1 X122.074 Y109.296 E.0139
G1 X122.264 Y108.896 E.016
G1 X122.494 Y108.591 E.0138
G1 X122.875 Y108.264 E.01811
G1 X123.327 Y108.029 E.01838
G1 X123.859 Y107.902 E.01977
G1 X124.315 Y107.911 E.01644
G1 X124.744 Y108.01 E.01591
G1 X125.095 Y108.169 E.0139
G1 X125.456 Y108.426 E.016
G1 X125.716 Y108.705 E.0138
G1 X125.957 Y109.095 E.01654
G1 X126.113 Y109.572 E.01812
G1 X126.159 Y110.124 E.02
G1 X126.149 Y110.243 E.00429
G1 X126.046 Y110.69 E.01656
G1 X125.888 Y111.038 E.0138
G1 X125.587 Y111.439 E.01811
G1 X125.044 Y111.859 E.02479
G1 X124.618 Y112.028 E.01653
G1 X124.282 Y112.083 E.01232
G1 X124.33 Y111.616 F9000
;TYPE:Outer wall
G1 F900
G1 X124.176 Y111.645 E.00565
G1 X123.825 Y111.633 E.0127
G1 X123.537 Y111.565 E.01065
G1 X123.215 Y111.418 E.01277
G1 X122.978 Y111.247 E.01057
G1 X122.737 Y110.988 E.01277
G1 X122.583 Y110.739 E.01058
G1 X122.459 Y110.408 E.01277
G1 X122.413 Y110.119 E.01057
G1 X122.424 Y109.767 E.01269
G1 X122.492 Y109.48 E.01066
G1 X122.639 Y109.158 E.01277
G1 X122.81 Y108.921 E.01057
G1 X123.086 Y108.67 E.01347
G1 X123.534 Y108.437 E.01821
G1 X123.933 Y108.355 E.01472
G1 X124.226 Y108.36 E.01057
G1 X124.57 Y108.432 E.01269
G1 X124.841 Y108.549 E.01065
G1 X125.132 Y108.749 E.01277
G1 X125.336 Y108.959 E.01057
G1 X125.531 Y109.261 E.01295
G1 X125.658 Y109.612 E.01348
G1 X125.698 Y110.164 E.01997
G1 X125.624 Y110.515 E.01296
M73 P3 R13
G1 X125.508 Y110.784 E.01057
G1 X125.293 Y111.089 E.01347
G1 X124.86 Y111.44 E.02015
G1 X124.529 Y111.58 E.01295
G1 X124.37 Y111.609 E.00586
G1 E-3.5 F1800
;WIPE_START
G1 F900
G1 X124.176 Y111.645 E-.58977
G1 X123.873 Y111.634 E-.91023
;WIPE_END
G17
G3 Z.6 I.138 J-1.209 P1  F9000
G1 X92.287 Y108.025 Z.6
G1 Z.2
G1 E5 F1800
;TYPE:Inner wall
M73 P4 R13
G1 F900
G1 X92.591 Y107.789 E.01389
G1 X93.018 Y107.588 E.01703
G1 X93.535 Y107.463 E.01923
G1 X94.006 Y107.441 E.01703
G1 X94.53 Y107.523 E.01913
G1 X95.037 Y107.711 E.01953
G1 X95.522 Y108.029 E.02095
G1 X95.921 Y108.451 E.02097
G1 X96.197 Y108.903 E.01914
G1 X96.359 Y109.35 E.01714
G1 X96.441 Y109.847 E.01819
G1 X96.418 Y110.379 E.01922
G1 X96.284 Y110.888 E.01901
G1 X96.049 Y111.366 E.01922
G1 X95.761 Y111.739 E.01703
G1 X95.371 Y112.085 E.01881
G1 X94.867 Y112.354 E.02063
G1 X94.533 Y112.476 E.01285
G1 X93.985 Y112.558 E.02001
G1 X93.453 Y112.525 E.01925
G1 X92.994 Y112.402 E.01714
G1 X92.437 Y112.107 E.02276
G1 X92.059 Y111.789 E.01784
G1 X91.673 Y111.294 E.02267
G1 X91.471 Y110.866 E.01709
G1 X91.416 Y110.648 E.0081
;WIDTH:0.478655
G1 X91.41 Y110.473 E.00602
;WIDTH:0.436114
G1 X91.404 Y110.299 E.00543
;WIDTH:0.393573
G1 X91.398 Y110.124 E.00484
;WIDTH:0.368867
G1 X91.421 Y109.585 E.0139
;WIDTH:0.412578
G1 X91.441 Y109.427 E.00464
;WIDTH:0.456289
G1 X91.461 Y109.27 E.00518
;WIDTH:0.499999
G1 X91.481 Y109.112 E.00573
G1 X91.776 Y108.555 E.02276
G1 X92.093 Y108.176 E.01784
G1 X92.256 Y108.05 E.00743
G1 X92.521 Y108.414 F9000
G1 F900
G1 X92.588 Y108.341 E.00359
G1 X92.963 Y108.106 E.01599
G1 X93.321 Y107.972 E.0138
G1 X93.758 Y107.898 E.016
G1 X94.14 Y107.911 E.01379
G1 X94.569 Y108.01 E.01591
G1 X94.92 Y108.169 E.0139
G1 X95.281 Y108.426 E.016
G1 X95.541 Y108.705 E.01379
G1 X95.775 Y109.079 E.01591
G1 X95.91 Y109.439 E.0139
G1 X95.984 Y109.891 E.01654
G1 X95.961 Y110.334 E.016
G1 X95.865 Y110.704 E.0138
G1 X95.675 Y111.104 E.016
G1 X95.445 Y111.409 E.0138
G1 X95.064 Y111.736 E.01811
G1 X94.546 Y111.999 E.02099
G1 X93.994 Y112.101 E.02027
G1 X93.551 Y112.079 E.01602
G1 X93.178 Y111.983 E.0139
G1 X92.731 Y111.756 E.01811
G1 X92.223 Y111.295 E.02478
G1 X91.989 Y110.921 E.01591
G1 X91.854 Y110.561 E.0139
G1 X91.781 Y110.109 E.01652
G1 X91.803 Y109.669 E.01592
G1 X91.899 Y109.296 E.0139
G1 X92.126 Y108.849 E.01811
G1 X92.494 Y108.444 E.01975
G1 X92.775 Y108.797 F9000
;TYPE:Outer wall
G1 F900
G1 X92.842 Y108.721 E.00366
G1 X93.138 Y108.528 E.01277
G1 X93.41 Y108.42 E.01057
G1 X93.758 Y108.355 E.01277
G1 X94.051 Y108.36 E.01057
G1 X94.395 Y108.432 E.01269
G1 X94.666 Y108.549 E.01066
G1 X94.957 Y108.749 E.01277
G1 X95.161 Y108.959 E.01057
G1 X95.353 Y109.254 E.01269
G1 X95.462 Y109.528 E.01066
G1 X95.527 Y109.881 E.01296
G1 X95.515 Y110.235 E.01278
G1 X95.447 Y110.52 E.01058
G1 X95.301 Y110.842 E.01277
G1 X95.129 Y111.079 E.01058
G1 X94.853 Y111.33 E.01347
G1 X94.388 Y111.57 E.01889
G1 X94.003 Y111.644 E.01415
G1 X93.65 Y111.633 E.01278
G1 X93.362 Y111.565 E.01066
G1 X93.025 Y111.406 E.01347
G1 X92.603 Y111.041 E.02015
G1 X92.411 Y110.746 E.01269
G1 X92.302 Y110.472 E.01065
G1 X92.238 Y110.119 E.01295
G1 X92.249 Y109.767 E.0127
G1 X92.317 Y109.48 E.01066
G1 X92.476 Y109.143 E.01347
G1 X92.749 Y108.828 E.01505
G1 E-3.5 F1800
;WIPE_START
G1 F900
G1 X92.842 Y108.721 E-.42444
G1 X93.138 Y108.528 E-1.06089
G1 X93.143 Y108.526 E-.01467
;WIPE_END
G17
G3 Z.6 I-.548 J1.087 P1  F9000
G1 X96.774 Y110.356 Z.6
G1 Z.2
G1 E5 F1800
;TYPE:Bottom surface
G1 F1200
G1 X96.671 Y110.85 E.01822
G1 X96.449 Y111.38 E.02072
G1 X96.027 Y111.967 E.0261
G1 X95.589 Y112.36 E.02125
G1 X95.004 Y112.679 E.02407
G1 X94.586 Y112.824 E.01599
G1 X94.009 Y112.908 E.02103
G1 X93.406 Y112.873 E.02183
G1 X92.879 Y112.733 E.01968
G1 X92.244 Y112.398 E.02594
G1 X91.838 Y112.063 E.01898
G1 X91.537 Y111.721 E.01647
G1 X91.516 Y112.693 E.03511
G1 X91.516 Y124.984 E.44379
G1 X128.484 Y124.984 E1.33476
G1 X128.484 Y102.366 E.81663
G1 X127.67 Y101.197 E.05144
G1 X127.1 Y100.892 E.02336
G1 X126.416 Y100.356 E.03136
G1 X125.961 Y99.857 E.02439
G1 X125.729 Y99.563 E.01351
G1 X125.331 Y98.932 E.02696
G1 X124.901 Y97.796 E.04385
G1 X124.753 Y96.866 E.03398
G1 X124.762 Y96.027 E.0303
G1 X124.839 Y95.534 E.01801
G1 X124.647 Y95.016 E.01996
G1 X91.516 Y95.016 E1.19621
M73 P5 R13
G1 X91.518 Y108.315 E.48016
G1 X91.852 Y107.923 E.01859
G1 X92.376 Y107.51 E.0241
G1 X92.867 Y107.27 E.01974
G1 X93.451 Y107.121 E.02175
G1 X93.989 Y107.09 E.01947
G1 X94.583 Y107.175 E.02165
G1 X95.094 Y107.352 E.01952
G1 X95.722 Y107.74 E.02665
G1 X96.113 Y108.124 E.01981
G1 X96.428 Y108.581 E.02003
G1 X96.628 Y109.031 E.01777
G1 X96.774 Y109.645 E.02278
G1 X96.774 Y110.316 E.02425
G1 E-3.5 F1800
;WIPE_START
G1 F1200
G1 X96.774 Y109.816 E-1.5
;WIPE_END
G17
G3 Z.6 I.241 J1.193 P1  F9000
G1 X109.003 Y107.351 Z.6
G1 Z.2
G1 E5 F1800
;WIDTH:0.610174
G1 F1200
G1 X108.932 Y107.351 E.00318
G1 X108.897 Y107.412 E.00318
G1 X108.932 Y107.474 E.00318
G1 X109.003 Y107.474 E.00318
G1 X109.019 Y107.447 E.00138
G1 E-3.5 F1800
;WIPE_START
G1 F1200
G1 X109.003 Y107.474 E-.14739
G1 X108.932 Y107.474 E-.33815
G1 X108.897 Y107.412 E-.33815
G1 X108.932 Y107.351 E-.33815
G1 X109.003 Y107.351 E-.33815
;WIPE_END
G17
G3 Z.6 I-1.217 J.001 P1  F9000
G1 X109.01 Y112.524 Z.6
G1 Z.2
G1 E5 F1800
;WIDTH:0.61406
G1 F1200
G1 X108.938 Y112.524 E.00322
G1 X108.903 Y112.586 E.00322
G1 X108.938 Y112.648 E.00322
G1 X109.01 Y112.648 E.00322
G1 X109.025 Y112.62 E.00142
G1 X109.593 Y113.1 F9000
;WIDTH:0.499999
G1 F1200
G1 X109.402 Y111.981 E.04098
G1 X109.354 Y111.758 E.00823
;WIDTH:0.540517
G1 X109.306 Y111.535 E.00896
;WIDTH:0.592619
G1 X109.258 Y111.313 E.0099
G1 X109.229 Y110.455 E.03725
G1 X109.244 Y109.214 E.05392
;WIDTH:0.58872
G1 X109.259 Y108.777 E.01882
;WIDTH:0.621603
G1 X109.274 Y108.341 E.01996
;WIDTH:0.654486
G1 X109.323 Y108.131 E.0104
;WIDTH:0.615865
G1 X109.373 Y107.922 E.00974
;WIDTH:0.577243
G1 X109.422 Y107.712 E.00909
;WIDTH:0.503069
G1 X109.597 Y106.9 E.03019
G1 X108.337 Y106.9 E.04579
G1 X108.464 Y107.505 E.02247
;WIDTH:0.499999
G1 X108.515 Y107.714 E.00777
;WIDTH:0.538621
G1 X108.565 Y107.924 E.00843
;WIDTH:0.577243
G1 X108.615 Y108.133 E.00909
;WIDTH:0.646849
G1 X108.666 Y108.342 E.01027
G1 X108.699 Y109.215 E.04166
;WIDTH:0.578861
G1 X108.684 Y111.233 E.08546
;WIDTH:0.614333
G1 X108.639 Y111.485 E.01154
;WIDTH:0.576222
G1 X108.593 Y111.736 E.01077
;WIDTH:0.503754
G1 X108.468 Y112.495 E.02798
G1 X108.345 Y113.1 E.02247
G1 X109.553 Y113.1 E.04397
G1 X110.17 Y113.557 F9000
;WIDTH:0.499999
G1 F1200
G1 X109.934 Y112.438 E.04129
G1 X109.854 Y111.912 E.0192
G1 X109.773 Y111.263 E.0236
G1 X109.724 Y110.443 E.02968
G1 X109.746 Y109.231 E.04376
G1 X109.805 Y108.398 E.03017
G1 X109.922 Y107.584 E.0297
G1 X110.174 Y106.443 E.04218
G1 X107.758 Y106.443 E.08722
G1 X108.015 Y107.588 E.04235
G1 X108.135 Y108.402 E.0297
G1 X108.198 Y109.235 E.03017
G1 X108.207 Y109.798 E.02036
G1 X108.171 Y111.196 E.05049
G1 X108.095 Y111.926 E.0265
G1 X107.938 Y112.82 E.03277
G1 X107.768 Y113.557 E.02729
G1 X110.13 Y113.557 E.08525
G1 X110.774 Y114.014 F9000
G1 F1200
G1 X110.516 Y113.069 E.03536
G1 X110.386 Y112.368 E.02574
G1 X110.228 Y111.22 E.04185
G1 X110.181 Y110.432 E.02851
G1 X110.202 Y109.247 E.04276
G1 X110.259 Y108.447 E.02898
G1 X110.372 Y107.664 E.02854
G1 X110.49 Y107.092 E.0211
G1 X110.769 Y105.986 E.04119
G1 X107.164 Y105.986 E.13017
G1 X107.301 Y106.494 E.019
G1 X107.565 Y107.671 E.04353
G1 X107.681 Y108.452 E.02854
G1 X107.741 Y109.253 E.02898
G1 X107.75 Y109.794 E.01956
G1 X107.715 Y111.163 E.04944
G1 X107.642 Y111.865 E.02546
G1 X107.491 Y112.723 E.03148
G1 X107.242 Y113.784 E.03933
G1 X107.17 Y114.014 E.0087
G1 X110.734 Y114.014 E.12869
G1 X111.409 Y114.471 F9000
G1 F1200
G1 X111.141 Y113.669 E.03053
G1 X110.963 Y112.971 E.02602
G1 X110.757 Y111.774 E.04384
G1 X110.683 Y111.176 E.02175
G1 X110.638 Y110.42 E.02735
G1 X110.659 Y109.264 E.04177
G1 X110.714 Y108.496 E.0278
G1 X110.822 Y107.745 E.02737
G1 X111.053 Y106.694 E.03887
G1 X111.228 Y106.04 E.02444
G1 X111.4 Y105.529 E.01948
G1 X106.537 Y105.529 E.17558
G1 X106.856 Y106.6 E.04034
G1 X107.116 Y107.753 E.04268
G1 X107.226 Y108.503 E.02737
G1 X107.285 Y109.271 E.0278
G1 X107.293 Y109.79 E.01876
G1 X107.259 Y111.13 E.04839
G1 X107.189 Y111.803 E.02443
M73 P6 R13
G1 X107.044 Y112.627 E.0302
G1 X106.801 Y113.661 E.03836
G1 X106.536 Y114.471 E.03078
G1 X111.369 Y114.471 E.17452
G1 X112.076 Y114.928 F9000
G1 F1200
G1 X111.808 Y114.231 E.02697
G1 X111.58 Y113.541 E.02623
G1 X111.409 Y112.873 E.02491
G1 X111.209 Y111.705 E.04277
G1 X111.138 Y111.133 E.02083
G1 X111.095 Y110.409 E.02618
G1 X111.116 Y109.28 E.04077
G1 X111.168 Y108.545 E.02662
G1 X111.271 Y107.826 E.02621
G1 X111.498 Y106.798 E.038
G1 X111.665 Y106.172 E.0234
G1 X111.883 Y105.528 E.02455
G1 X112.072 Y105.072 E.01783
G1 X105.87 Y105.072 E.22393
G1 X106.252 Y106.115 E.04012
G1 X106.411 Y106.706 E.02207
G1 X106.666 Y107.836 E.04184
G1 X106.772 Y108.554 E.02621
G1 X106.828 Y109.289 E.02662
G1 X106.833 Y110.028 E.02668
G1 X106.803 Y111.097 E.03862
G1 X106.736 Y111.741 E.02339
G1 X106.597 Y112.53 E.02891
G1 X106.361 Y113.538 E.03739
G1 X106.172 Y114.143 E.02286
G1 X105.865 Y114.928 E.03045
G1 X112.036 Y114.928 E.22279
G1 X112.767 Y115.385 F9000
G1 F1200
G1 X112.43 Y114.595 E.03102
G1 X112.237 Y114.072 E.02012
G1 X112.019 Y113.413 E.02506
G1 X111.856 Y112.774 E.0238
G1 X111.661 Y111.636 E.04169
G1 X111.593 Y111.089 E.0199
G1 X111.551 Y110.398 E.02502
G1 X111.573 Y109.296 E.03978
G1 X111.623 Y108.593 E.02543
G1 X111.721 Y107.907 E.02504
G1 X111.825 Y107.405 E.01852
G1 X112.103 Y106.304 E.04099
G1 X112.311 Y105.689 E.02346
G1 X112.775 Y104.615 E.04224
G1 X105.168 Y104.615 E.27467
G1 X105.62 Y105.668 E.04138
G1 X105.815 Y106.247 E.02207
G1 X106.112 Y107.425 E.04387
G1 X106.216 Y107.919 E.01821
G1 X106.318 Y108.605 E.02504
G1 X106.371 Y109.307 E.02543
G1 X106.376 Y110.024 E.02588
G1 X106.347 Y111.064 E.03757
G1 X106.283 Y111.68 E.02235
G1 X106.151 Y112.433 E.02763
G1 X105.921 Y113.416 E.03642
G1 X105.74 Y113.993 E.02184
G1 X105.514 Y114.584 E.02284
G1 X105.165 Y115.385 E.03157
G1 X112.727 Y115.385 E.27305
G1 X113.529 Y115.842 F9000
G1 F1200
G1 X113.219 Y115.281 E.02315
G1 X112.858 Y114.436 E.03315
G1 X112.458 Y113.285 E.04401
G1 X112.302 Y112.676 E.0227
G1 X112.193 Y112.09 E.02154
G1 X112.048 Y111.046 E.03806
G1 X112.008 Y110.386 E.02386
