; HEADER_BLOCK_START
; generated by OrcaSlicer 1.7.0 on 2023-12-08 at 11:05:44
; total layer number: 228
; HEADER_BLOCK_END

; THUMBNAIL_BLOCK_START
; THUMBNAIL_BLOCK_END

; external perimeters extrusion width = 0.40mm
; perimeters extrusion width = 0.45mm
; infill extrusion width = 0.45mm
; solid infill extrusion width = 0.40mm
; top infill extrusion width = 0.40mm
; first layer extrusion width = 0.50mm

; EXECUTABLE_BLOCK_START
EXCLUDE_OBJECT_DEFINE NAME=Smaller_Glue_Sticc_Holder_parts_-_Blank_Storage.stl_id_0_copy_0 CENTER=110,110 POLYGON=[[89.25,93],[89.2506,92.9347],[89.2521,92.879],[89.2526,92.8596],[89.2529,92.8536],[89.2577,92.7672],[89.261,92.7128],[89.2625,92.694],[89.2752,92.5664],[89.2789,92.5349],[89.2951,92.4204],[89.3022,92.3767],[89.3208,92.2748],[89.3321,92.2196],[89.3524,92.1296],[89.3687,92.0639],[89.39,91.9848],[89.4119,91.9099],[89.4574,91.7701],[89.4617,91.758],[89.5083,91.6324],[89.5178,91.6082],[89.5645,91.4967],[89.5803,91.461],[89.6261,91.3631],[89.6491,91.3166],[89.6932,91.2315],[89.7239,91.1753],[89.7658,91.102],[89.8047,91.0373],[89.844,90.9746],[89.8912,90.9028],[89.928,90.8493],[89.9744,90.7845],[89.9835,90.7722],[90.0636,90.6676],[90.0812,90.6456],[90.1573,90.5543],[90.1843,90.5233],[90.2553,90.4448],[90.2924,90.4055],[90.3577,90.339],[90.4055,90.2924],[90.4646,90.237],[90.5233,90.1843],[90.576,90.1388],[90.6456,90.0812],[90.6767,90.0565],[90.6919,90.0444],[90.7106,90.0299],[90.7657,89.9882],[90.7721,89.9834],[90.8126,89.9541],[90.8292,89.9421],[90.8578,89.922],[90.879,89.9075],[90.9028,89.8912],[90.9048,89.8899],[90.9524,89.8584],[91.0014,89.827],[91.0373,89.8047],[91.0807,89.7788],[91.1268,89.7513],[91.1753,89.7239],[91.2553,89.6806],[91.3166,89.6491],[91.3867,89.6148],[91.461,89.5803],[91.5212,89.5539],[91.6082,89.5178],[91.6588,89.498],[91.758,89.4617],[91.7995,89.4473],[91.91,89.4119],[91.9434,89.4019],[91.9786,89.3918],[92.0639,89.3687],[92.1208,89.3545],[92.2196,89.3321],[92.2643,89.3229],[92.3767,89.3022],[92.409,89.2969],[92.5349,89.2789],[92.5549,89.2765],[92.6555,89.2663],[92.694,89.2625],[92.702,89.2619],[92.7691,89.2573],[92.8255,89.2542],[92.8503,89.253],[92.8635,89.2526],[92.9409,89.2505],[93,89.25],[127,89.25],[127.057,89.2505],[127.115,89.2519],[127.145,89.2528],[127.224,89.2571],[127.292,89.2614],[127.306,89.2625],[127.438,89.2757],[127.465,89.2789],[127.584,89.2958],[127.623,89.3022],[127.73,89.3217],[127.78,89.3321],[127.875,89.3535],[127.936,89.3687],[128.02,89.3913],[128.09,89.4119],[128.095,89.4133],[128.234,89.4589],[128.242,89.4617],[128.372,89.5099],[128.392,89.5178],[128.507,89.5663],[128.539,89.5803],[128.641,89.6281],[128.683,89.6491],[128.773,89.6954],[128.825,89.7239],[128.902,89.7681],[128.963,89.8047],[129.029,89.8465],[129.097,89.8912],[129.155,89.9307],[129.219,89.9773],[129.228,89.9835],[129.336,90.0666],[129.354,90.0812],[129.449,90.1604],[129.477,90.1843],[129.559,90.2585],[129.595,90.2924],[129.664,90.3611],[129.708,90.4055],[129.766,90.4681],[129.816,90.5233],[129.864,90.5796],[129.919,90.6456],[129.958,90.6957],[129.97,90.7106],[130,90.7505],[130.017,90.7722],[130.033,90.795],[130.049,90.8164],[130.058,90.8293],[130.095,90.8827],[130.109,90.9028],[130.142,90.9526],[130.159,90.9803],[130.175,91.0053],[130.195,91.0373],[130.251,91.1308],[130.276,91.1753],[130.322,91.2593],[130.351,91.3166],[130.387,91.3909],[130.42,91.461],[130.448,91.5255],[130.482,91.6082],[130.504,91.6632],[130.538,91.758],[130.554,91.8039],[130.588,91.91],[130.599,91.9479],[130.608,91.9787],[130.631,92.0639],[130.646,92.121],[130.668,92.2196],[130.677,92.2644],[130.698,92.3767],[130.703,92.4091],[130.721,92.5349],[130.723,92.5549],[130.731,92.6289],[130.737,92.694],[130.738,92.702],[130.741,92.7445],[130.745,92.8019],[130.747,92.8504],[130.747,92.8635],[130.749,92.9297],[130.75,93],[130.75,127],[130.75,127.057],[130.748,127.115],[130.747,127.149],[130.743,127.224],[130.738,127.296],[130.737,127.306],[130.724,127.442],[130.721,127.465],[130.704,127.588],[130.698,127.623],[130.678,127.734],[130.668,127.78],[130.646,127.879],[130.631,127.936],[130.608,128.023],[130.588,128.09],[130.586,128.097],[130.54,128.237],[130.538,128.242],[130.489,128.375],[130.482,128.392],[130.432,128.51],[130.42,128.539],[130.37,128.644],[130.351,128.683],[130.303,128.776],[130.276,128.825],[130.23,128.905],[130.195,128.963],[130.151,129.032],[130.109,129.097],[130.067,129.158],[130.019,129.224],[130.017,129.228],[129.93,129.341],[129.919,129.354],[129.836,129.453],[129.816,129.477],[129.738,129.562],[129.708,129.595],[129.636,129.667],[129.595,129.708],[129.529,129.769],[129.477,129.816],[129.418,129.866],[129.354,129.919],[129.302,129.96],[129.289,129.97],[129.249,130],[129.228,130.017],[129.205,130.033],[129.181,130.051],[129.171,130.058],[129.115,130.096],[129.097,130.109],[129.047,130.142],[129.02,130.159],[128.993,130.177],[128.963,130.195],[128.867,130.252],[128.825,130.276],[128.738,130.323],[128.683,130.351],[128.606,130.389],[128.539,130.42],[128.471,130.449],[128.392,130.482],[128.334,130.505],[128.242,130.538],[128.193,130.555],[128.09,130.588],[128.049,130.6],[128.021,130.608],[127.936,130.631],[127.879,130.646],[127.78,130.668],[127.735,130.677],[127.623,130.698],[127.591,130.703],[127.465,130.721],[127.445,130.724],[127.371,130.731],[127.306,130.737],[127.298,130.738],[127.255,130.741],[127.198,130.745],[127.15,130.747],[127.136,130.747],[127.07,130.749],[127,130.75],[93,130.75],[92.9347,130.749],[92.879,130.748],[92.855,130.747],[92.7672,130.742],[92.7081,130.739],[92.694,130.737],[92.5617,130.724],[92.5349,130.721],[92.4157,130.704],[92.3767,130.698],[92.2702,130.678],[92.2196,130.668],[92.125,130.646],[92.0639,130.631],[91.9803,130.609],[91.91,130.588],[91.9053,130.587],[91.7657,130.541],[91.758,130.538],[91.6282,130.49],[91.6082,130.482],[91.4926,130.434],[91.461,130.42],[91.359,130.372],[91.3166,130.351],[91.2275,130.305],[91.1753,130.276],[91.098,130.232],[91.0373,130.195],[90.9707,130.153],[90.9028,130.109],[90.8455,130.069],[90.7806,130.023],[90.7722,130.017],[90.6638,129.933],[90.6456,129.919],[90.5507,129.84],[90.5233,129.816],[90.4413,129.741],[90.4055,129.708],[90.3357,129.639],[90.2924,129.595],[90.2338,129.532],[90.1843,129.477],[90.1357,129.42],[90.0812,129.354],[90.0415,129.304],[90.03,129.289],[89.9882,129.234],[89.9835,129.228],[89.9513,129.184],[89.9422,129.171],[89.922,129.142],[89.9049,129.117],[89.8912,129.097],[89.8584,129.047],[89.8245,128.995],[89.8047,128.963],[89.7491,128.869],[89.7239,128.825],[89.6785,128.741],[89.6491,128.683],[89.6128,128.609],[89.5803,128.539],[89.5521,128.475],[89.5178,128.392],[89.4964,128.337],[89.4617,128.242],[89.4459,128.196],[89.4119,128.09],[89.4006,128.052],[89.3917,128.021],[89.3687,127.936],[89.3545,127.879],[89.3321,127.78],[89.3228,127.736],[89.3022,127.623],[89.2968,127.591],[89.2789,127.465],[89.2765,127.445],[89.2663,127.344],[89.2625,127.306],[89.2619,127.298],[89.2573,127.231],[89.2542,127.174],[89.253,127.15],[89.2526,127.137],[89.2505,127.059],[89.25,127],[89.25,93]]
M73 P0 R147
;TYPE:Custom
START_PRINT EXTRUDER_TEMP=255  BED_TEMP=80
G90
G21
M83 ; use relative distances for extrusion
; filament start gcode
M106 S0
;LAYER_CHANGE
;Z:0.2
;HEIGHT:0.2
;BEFORE_LAYER_CHANGE
;0.2
G92 E0

G1 E-5 F1800
;_SET_FAN_SPEED_CHANGING_LAYER
G1 X84.537 Y84.115 F9000
G1 Z.4
G1 Z.2
G1 E5 F1800
;TYPE:Skirt
;WIDTH:0.5
G1 F900
G1 X85.542 Y83.257 E.04769
G1 X86.599 Y82.531 E.0463
G1 X87.719 Y81.925 E.04599
G1 X88.8 Y81.471 E.04235
G1 X89.945 Y81.116 E.04327
G1 X91.24 Y80.857 E.04769
G1 X93 Y80.729 E.06372
G1 X127.031 Y80.729 E1.22871
G1 X129.17 Y80.923 E.07755
G1 X131.233 Y81.483 E.0772
G1 X132.221 Y81.896 E.03866
G1 X133.374 Y82.516 E.04725
G1 X134.373 Y83.192 E.04354
G1 X135.26 Y83.927 E.04162
G1 X136.02 Y84.682 E.03868
G1 X136.759 Y85.561 E.04147
G1 X137.37 Y86.44 E.03866
G1 X137.978 Y87.52 E.04475
G1 X138.544 Y88.841 E.05187
G1 X138.862 Y89.862 E.03862
G1 X139.118 Y91.075 E.04476
G1 X139.271 Y93 E.06972
G1 X139.257 Y127.575 E1.24835
M73 P0 R146
G1 X138.988 Y129.618 E.07441
G1 X138.599 Y130.999 E.05181
G1 X138 Y132.436 E.05622
G1 X137.414 Y133.489 E.04351
G1 X136.758 Y134.439 E.04167
G1 X136.021 Y135.318 E.04144
G1 X134.501 Y136.71 E.0744
G1 X133.56 Y137.37 E.04152
G1 X132.479 Y137.978 E.04475
G1 X131.037 Y138.587 E.05653
G1 X129.775 Y138.952 E.04743
G1 X128.641 Y139.16 E.04165
G1 X127.575 Y139.257 E.03865
G1 X92.425 Y139.257 E1.26909
G1 X91.075 Y139.118 E.04901
G1 X89.862 Y138.862 E.04476
G1 X88.841 Y138.544 E.03862
G1 X87.778 Y138.104 E.04152
G1 X86.72 Y137.54 E.0433
G1 X85.628 Y136.808 E.04747
G1 X84.74 Y136.073 E.04162
G1 X83.926 Y135.26 E.04152
G1 X83.099 Y134.247 E.04723
G1 X82.391 Y133.165 E.04667
G1 X81.863 Y132.15 E.04133
G1 X81.378 Y130.934 E.04726
G1 X81.028 Y129.69 E.04667
G1 X80.743 Y127.574 E.07707
G1 X80.742 Y92.441 E1.26852
G1 X80.867 Y91.173 E.04601
G1 X81.096 Y90.023 E.04234
G1 X81.443 Y88.876 E.04327
G1 X81.934 Y87.701 E.04599
G1 X82.49 Y86.668 E.04234
G1 X83.112 Y85.734 E.04053
G1 X84.511 Y84.145 E.07644
G1 X84.852 Y84.447 F9000
G1 F900
G1 X84.853 Y84.445 E.0001
G1 X85.821 Y83.619 E.04594
G1 X86.839 Y82.921 E.04455
G1 X87.917 Y82.337 E.0443
G1 X88.955 Y81.901 E.04064
G1 X90.06 Y81.558 E.04176
G1 X91.308 Y81.309 E.04593
G1 X93 Y81.186 E.06127
G1 X127.031 Y81.187 E1.22871
G1 X129.09 Y81.373 E.07467
G1 X131.077 Y81.912 E.07433
G1 X132.028 Y82.31 E.03722
G1 X133.138 Y82.907 E.04551
G1 X134.097 Y83.556 E.04179
G1 X134.952 Y84.264 E.04007
G1 X136.396 Y85.84 E.07719
G1 X136.984 Y86.686 E.03722
G1 X137.568 Y87.723 E.04295
G1 X138.115 Y88.997 E.05007
G1 X138.421 Y89.98 E.03718
G1 X138.666 Y91.145 E.04296
G1 X138.814 Y93 E.06721
G1 X138.8 Y127.555 E1.24763
G1 X138.542 Y129.519 E.07153
G1 X138.167 Y130.852 E.05002
G1 X137.589 Y132.235 E.05412
G1 X137.027 Y133.246 E.04176
G1 X136.396 Y134.161 E.04012
G1 X135.684 Y135.009 E.04
G1 X134.223 Y136.348 E.07152
G1 X133.314 Y136.984 E.04008
G1 X132.277 Y137.568 E.04295
G1 X130.888 Y138.154 E.05443
G1 X129.673 Y138.507 E.04568
G1 X127.555 Y138.8 E.07723
G1 X92.445 Y138.8 E1.26765
G1 X91.145 Y138.666 E.04721
G1 X89.98 Y138.421 E.04296
G1 X88.997 Y138.115 E.03718
G1 X87.972 Y137.69 E.04008
G1 X86.955 Y137.149 E.04156
G1 X85.903 Y136.444 E.04572
G1 X85.048 Y135.736 E.04007
G1 X84.263 Y134.951 E.04008
G1 X83.467 Y133.975 E.04549
G1 X82.786 Y132.934 E.04492
G1 X82.277 Y131.957 E.03979
G1 X81.81 Y130.786 E.04552
G1 X81.474 Y129.588 E.04492
G1 X81.2 Y127.555 E.07409
G1 X81.199 Y92.461 E1.2671
G1 X81.319 Y91.239 E.04431
G1 X81.539 Y90.136 E.04063
G1 X81.874 Y89.029 E.04176
G1 X82.347 Y87.896 E.04429
G1 X82.88 Y86.905 E.04064
G1 X83.525 Y85.945 E.04178
G1 X84.825 Y84.477 E.07079
G1 X85.166 Y84.779 F9000
G1 F900
G1 X85.17 Y84.775 E.0002
G1 X86.101 Y83.981 E.04419
G1 X87.078 Y83.31 E.0428
G1 X88.116 Y82.748 E.0426
G1 X89.19 Y82.302 E.042
G1 X90.175 Y82.001 E.03719
G1 X91.375 Y81.761 E.04418
G1 X93 Y81.643 E.05882
G1 X127.031 Y81.644 E1.22871
G1 X129.011 Y81.823 E.0718
G1 X130.921 Y82.342 E.07145
G1 X131.835 Y82.724 E.03578
G1 X132.902 Y83.299 E.04377
G1 X133.821 Y83.921 E.04004
G1 X134.643 Y84.601 E.03852
G1 X136.033 Y86.118 E.07431
G1 X136.599 Y86.932 E.03578
G1 X137.158 Y87.925 E.04115
G1 X137.685 Y89.153 E.04827
G1 X137.979 Y90.098 E.03574
G1 X138.214 Y91.214 E.04116
G1 X138.357 Y93 E.06469
G1 X138.344 Y127.535 E1.24691
G1 X138.095 Y129.42 E.06865
G1 X137.734 Y130.705 E.04822
G1 X137.178 Y132.035 E.05201
G1 X136.64 Y133.003 E.04002
G1 X136.033 Y133.883 E.03857
G1 X135.347 Y134.701 E.03856
G1 X133.945 Y135.985 E.06864
G1 X133.068 Y136.599 E.03864
G1 X132.075 Y137.158 E.04115
G1 X130.74 Y137.722 E.05233
G1 X129.572 Y138.061 E.04393
G1 X127.535 Y138.344 E.07425
G1 X92.465 Y138.344 E1.26621
G1 X91.214 Y138.214 E.04541
G1 X90.099 Y137.979 E.04117
G1 X89.153 Y137.685 E.03574
G1 X88.165 Y137.275 E.03864
G1 X87.191 Y136.757 E.03982
G1 X86.179 Y136.08 E.04397
G1 X85.357 Y135.399 E.03853
G1 X84.6 Y134.643 E.03864
G1 X83.835 Y133.704 E.04375
G1 X83.18 Y132.703 E.04317
G1 X82.691 Y131.764 E.03824
G1 X82.243 Y130.637 E.04377
G1 X81.919 Y129.486 E.04317
G1 X81.656 Y127.535 E.0711
G1 X81.656 Y92.48 E1.26568
G1 X81.772 Y91.306 E.04261
G1 X81.982 Y90.248 E.03893
G1 X82.305 Y89.181 E.04026
G1 X82.76 Y88.092 E.0426
G1 X83.271 Y87.143 E.03894
G1 X83.892 Y86.216 E.04027
G1 X85.139 Y84.809 E.06789
; printing object Smaller+Glue+Sticc+Holder parts - Blank Storage.stl id:0 copy 0
G1 E-3.5 F1800
;WIPE_START
G1 F900
G1 X85.17 Y84.775 E-.04549
G1 X86.101 Y83.981 E-1.22388
G1 X86.291 Y83.85 E-.23063
;WIPE_END
EXCLUDE_OBJECT_START NAME=Smaller_Glue_Sticc_Holder_parts_-_Blank_Storage.stl_id_0_copy_0
G17
G3 Z.6 I-.309 J1.177 P1  F9000
G1 X126.668 Y94.456 Z.6
G1 Z.2
G1 E5 F1800
;TYPE:Inner wall
;WIDTH:0.635074
G1 F900
G1 X126.177 Y93.851 E.03645
G1 X125.566 Y93.332 E.0375
G1 X126.668 Y93.332 E.05158
G1 X126.668 Y94.416 E.05068
G1 E-3.5 F1800
;WIPE_START
G1 F900
G1 X126.177 Y93.851 E-.74864
G1 X125.604 Y93.365 E-.75136
;WIPE_END
G17
G3 Z.6 I-1.196 J.227 P1  F9000
G1 X126.736 Y99.328 Z.6
G1 Z.2
G1 E5 F1800
;WIDTH:0.499999
G1 F900
G1 X126.736 Y120.685 E.77111
G1 X126.437 Y120.236 E.01948
G1 X125.881 Y119.662 E.02887
G1 X125.119 Y119.131 E.03352
G1 X124.415 Y118.822 E.02776
G1 X123.643 Y118.638 E.02865
G1 X122.708 Y118.599 E.03377
G1 X121.924 Y118.724 E.02867
G1 X121.025 Y119.058 E.03465
G1 X120.416 Y119.427 E.02571
G1 X120.059 Y119.725 E.01676
G1 X119.663 Y120.118 E.02018
G1 X119.251 Y120.681 E.02516
G1 X119.106 Y120.934 E.01055
G1 X118.822 Y121.585 E.02565
G1 X118.638 Y122.357 E.02865
G1 X118.602 Y123.316 E.03465
G1 X118.766 Y124.237 E.03378
G1 X119.058 Y124.975 E.02866
G1 X119.563 Y125.764 E.03382
G1 X120.119 Y126.338 E.02887
G1 X120.663 Y126.736 E.02431
G1 X99.338 Y126.736 E.76995
G1 X100.069 Y126.165 E.03348
G1 X100.669 Y125.448 E.03377
G1 X101.039 Y124.773 E.02777
G1 X101.289 Y124.02 E.02866
G1 X101.41 Y123.093 E.03377
G1 X101.353 Y122.301 E.02865
G1 X101.11 Y121.398 E.03377
G1 X100.755 Y120.689 E.02863
G1 X100.333 Y120.114 E.02575
G1 X99.974 Y119.762 E.01817
G1 X99.448 Y119.331 E.02456
G1 X98.75 Y118.953 E.02866
G1 X97.857 Y118.673 E.03377
G1 X97.093 Y118.59 E.02777
G1 X96.301 Y118.647 E.02866
G1 X95.398 Y118.89 E.03377
G1 X94.688 Y119.245 E.02866
G1 X93.947 Y119.816 E.03377
G1 X93.562 Y120.237 E.0206
G1 X93.264 Y120.685 E.01943
G1 X93.264 Y99.333 E.77094
G1 X93.461 Y99.63 E.01287
G1 X94.114 Y100.333 E.03465
G1 X94.881 Y100.869 E.03378
G1 X95.609 Y101.184 E.02866
G1 X96.523 Y101.385 E.03377
G1 X97.292 Y101.401 E.02777
G1 X98.076 Y101.276 E.02866
G1 X98.975 Y100.942 E.03465
G1 X99.584 Y100.573 E.02571
G1 X99.952 Y100.266 E.01728
G1 X100.333 Y99.886 E.01945
G1 X100.755 Y99.312 E.02571
G1 X100.893 Y99.066 E.01019
G1 X101.184 Y98.391 E.02655
G1 X101.385 Y97.477 E.03377
G1 X101.401 Y96.707 E.02782
G1 X101.274 Y95.918 E.02886
G1 X100.942 Y95.025 E.03441
G1 X100.438 Y94.237 E.03377
G1 X99.886 Y93.666 E.02867
G1 X99.337 Y93.264 E.02455
G1 X120.662 Y93.265 E.76995
G1 X119.947 Y93.816 E.03259
G1 X119.427 Y94.416 E.02866
G1 X118.953 Y95.25 E.03465
G1 X118.673 Y96.143 E.03377
G1 X118.59 Y96.907 E.02777
G1 X118.647 Y97.699 E.02866
G1 X118.89 Y98.602 E.03377
G1 X119.245 Y99.312 E.02866
G1 X119.667 Y99.886 E.02571
G1 X120.014 Y100.227 E.01759
G1 X120.552 Y100.669 E.02513
G1 X121.227 Y101.039 E.02777
G1 X121.98 Y101.289 E.02866
G1 X122.907 Y101.41 E.03377
G1 X123.699 Y101.353 E.02865
G1 X124.602 Y101.11 E.03377
G1 X125.312 Y100.755 E.02867
G1 X126.053 Y100.184 E.03377
G1 X126.438 Y99.764 E.02059
G1 X126.713 Y99.361 E.0176
G1 E-3.5 F1800
;WIPE_START
G1 F900
G1 X126.715 Y100.861 E-1.5
;WIPE_END
G17
G3 Z.6 I1.216 J.059 P1  F9000
G1 X126.886 Y97.323 Z.6
G1 Z.2
G1 E5 F1800
;WIDTH:0.423301
G1 F900
G1 X126.852 Y97.613 E.00876
;WIDTH:0.450923
G1 X126.813 Y97.955 E.0111
;WIDTH:0.499999
G1 X126.541 Y98.758 E.0306
G1 X126.174 Y99.36 E.02546
G1 X125.716 Y99.875 E.02489
G1 X125.041 Y100.386 E.03054
G1 X124.408 Y100.696 E.02544
G1 X123.59 Y100.909 E.03054
G1 X122.887 Y100.953 E.02542
G1 X122.049 Y100.838 E.03054
G1 X121.383 Y100.609 E.02543
G1 X120.781 Y100.273 E.0249
G1 X120.316 Y99.883 E.0219
G1 X120.035 Y99.616 E.01401
