; HEADER_BLOCK_START
; generated by OrcaSlicer 1.7.0 on 2023-12-17 at 13:53:34
; total layer number: 60
; HEADER_BLOCK_END

; THUMBNAIL_BLOCK_START
; THUMBNAIL_BLOCK_END

; external perimeters extrusion width = 0.40mm
; perimeters extrusion width = 0.45mm
; infill extrusion width = 0.45mm
; solid infill extrusion width = 0.40mm
; top infill extrusion width = 0.40mm
; first layer extrusion width = 0.50mm

; EXECUTABLE_BLOCK_START
EXCLUDE_OBJECT_DEFINE NAME=Smaller_Glue_Sticc_Holder_parts_-_Blank_Storage_2_.stl_id_0_copy_0 CENTER=110,110 POLYGON=[[89.25,93],[89.2504,92.9477],[89.2548,92.8155],[89.261,92.7131],[89.2756,92.563],[89.3072,92.3477],[89.3246,92.2557],[89.3401,92.1829],[89.39,91.9848],[89.4337,91.8406],[89.4434,91.8114],[89.4816,91.7027],[89.5643,91.4973],[89.5842,91.4525],[89.7286,91.1668],[89.7612,91.1099],[89.928,90.8493],[89.9723,90.7873],[90.018,90.7261],[90.0334,90.7061],[90.2155,90.4882],[90.255,90.4451],[90.4304,90.2688],[90.4882,90.2155],[90.5195,90.1876],[90.5858,90.1309],[90.6946,90.0423],[90.7681,89.9864],[90.7873,89.9723],[90.8126,89.9541],[90.9049,89.8898],[90.9269,89.8751],[90.9388,89.8673],[91.0774,89.7808],[91.1099,89.7612],[91.2545,89.681],[91.3059,89.6556],[91.4525,89.5842],[91.5893,89.5255],[91.7141,89.4792],[91.8114,89.4434],[91.9434,89.4019],[91.9558,89.3983],[92.1828,89.3401],[92.2639,89.323],[92.4229,89.2957],[92.552,89.2769],[92.628,89.2685],[92.7106,89.2615],[92.8552,89.2529],[92.9016,89.2513],[93,89.25],[127,89.25],[127.292,89.2614],[127.362,89.2675],[127.657,89.308],[127.751,89.3259],[127.754,89.3266],[128.02,89.3913],[128.139,89.427],[128.164,89.4352],[128.304,89.4839],[128.507,89.5661],[128.51,89.5675],[128.837,89.7309],[128.865,89.7465],[129.155,89.9307],[129.198,89.962],[129.278,90.0209],[129.295,90.0345],[129.507,90.2116],[129.558,90.2582],[129.733,90.4319],[129.788,90.4925],[129.816,90.5231],[130.038,90.8015],[130.049,90.8164],[130.111,90.9055],[130.135,90.9426],[130.253,91.1352],[130.321,91.2586],[130.432,91.4898],[130.476,91.5936],[130.573,91.8614],[130.599,91.9479],[130.602,91.9573],[130.673,92.2457],[130.677,92.2641],[130.723,92.5541],[130.732,92.6281],[130.733,92.6385],[130.75,93],[130.75,127],[130.75,127.052],[130.747,127.141],[130.738,127.296],[130.724,127.437],[130.691,127.661],[130.66,127.817],[130.608,128.023],[130.564,128.166],[130.433,128.51],[130.416,128.548],[130.267,128.84],[130.239,128.89],[130.067,129.158],[130.028,129.213],[129.976,129.282],[129.784,129.512],[129.739,129.561],[129.632,129.671],[129.512,129.784],[129.474,129.818],[129.434,129.852],[129.315,129.95],[129.295,129.966],[129.232,130.014],[129.213,130.028],[129.181,130.051],[129.077,130.122],[129.055,130.137],[128.922,130.219],[128.89,130.239],[128.738,130.323],[128.569,130.406],[128.403,130.478],[128.189,130.557],[128.049,130.6],[127.817,130.66],[127.736,130.677],[127.598,130.701],[127.437,130.724],[127.372,130.732],[127.3,130.738],[127.15,130.747],[127.098,130.749],[127,130.75],[93,130.75],[92.7083,130.739],[92.6385,130.733],[92.343,130.692],[92.2493,130.674],[92.2457,130.673],[91.9803,130.609],[91.8614,130.573],[91.8362,130.565],[91.6963,130.516],[91.4932,130.434],[91.4898,130.432],[91.1628,130.269],[91.1352,130.253],[90.8455,130.069],[90.8015,130.038],[90.7223,129.979],[90.7048,129.966],[90.4925,129.788],[90.4417,129.742],[90.2674,129.568],[90.2116,129.507],[90.1844,129.477],[89.962,129.198],[89.9513,129.184],[89.8895,129.095],[89.8648,129.057],[89.7465,128.865],[89.6788,128.741],[89.5675,128.51],[89.5237,128.406],[89.427,128.139],[89.4006,128.052],[89.3979,128.043],[89.3266,127.754],[89.3229,127.736],[89.2766,127.446],[89.2685,127.372],[89.2675,127.362],[89.25,127],[89.25,93]]
M73 P0 R28
;TYPE:Custom
START_PRINT EXTRUDER_TEMP=255  BED_TEMP=80
G90
G21
M83 ; use relative distances for extrusion
; filament start gcode
M106 S0
;LAYER_CHANGE
;Z:0.2
;HEIGHT:0.2
;BEFORE_LAYER_CHANGE
;0.2
G92 E0

G1 E-5 F1800
;_SET_FAN_SPEED_CHANGING_LAYER
G1 X81.982 Y82.649 F9000
G1 Z.4
G1 Z.2
G1 E5 F1800
;TYPE:Skirt
;WIDTH:0.5
G1 F900
G1 X82.887 Y81.761 E.04576
G1 X84.362 Y80.59 E.068
G1 X85.838 Y79.685 E.06251
G1 X87.511 Y78.914 E.06654
G1 X89.048 Y78.408 E.05841
G1 X90.684 Y78.059 E.06038
G1 X93 Y77.879 E.08389
G1 X123.41 Y77.879 E1.09799
G1 X126.393 Y78.277 E.10866
G1 X129.167 Y79.444 E.10866
G1 X131.451 Y81.209 E.10422
G1 X138.791 Y88.549 E.37478
G1 X140.618 Y90.94 E.10866
G1 X141.755 Y93.727 E.10866
G1 X142.121 Y96.59 E.10422
G1 X142.111 Y127.511 E1.11644
G1 X141.967 Y129.138 E.05896
G1 X141.635 Y130.789 E.06081
G1 X141.022 Y132.639 E.07036
G1 X140.282 Y134.214 E.06284
G1 X139.36 Y135.7 E.06314
G1 X138.126 Y137.236 E.07115
G1 X137.083 Y138.267 E.05295
G1 X135.647 Y139.403 E.0661
G1 X134.206 Y140.292 E.06115
G1 X132.546 Y141.063 E.06609
G1 X130.987 Y141.583 E.05932
G1 X129.15 Y141.966 E.06774
G1 X127 Y142.121 E.07785
G1 X96.59 Y142.121 E1.09799
G1 X93.607 Y141.723 E.10866
G1 X90.833 Y140.556 E.10866
G1 X88.549 Y138.791 E.10422
G1 X81.209 Y131.451 E.37478
G1 X79.382 Y129.06 E.10866
G1 X78.245 Y126.273 E.10866
G1 X77.879 Y123.41 E.10422
G1 X77.891 Y92.437 E1.11831
G1 X78.03 Y90.884 E.0563
G1 X78.436 Y88.956 E.07116
G1 X78.984 Y87.344 E.06145
G1 X79.762 Y85.705 E.06551
G1 X80.859 Y83.994 E.07341
G1 X81.957 Y82.68 E.06182
G1 X82.307 Y82.972 F9000
G1 F900
G1 X82.313 Y82.965 E.00035
G1 X83.196 Y82.098 E.04465
G1 X84.624 Y80.964 E.06586
G1 X86.055 Y80.087 E.0606
G1 X87.673 Y79.341 E.06433
G1 X89.164 Y78.85 E.05669
G1 X90.752 Y78.511 E.0586
M73 P1 R28
G1 X93 Y78.336 E.08142
G1 X123.41 Y78.336 E1.09799
G1 X126.331 Y78.734 E.10644
G1 X129.039 Y79.899 E.10644
G1 X131.128 Y81.533 E.09572
G1 X138.467 Y88.872 E.37478
G1 X140.251 Y91.219 E.10644
G1 X141.342 Y93.958 E.10644
G1 X141.664 Y96.59 E.09572
G1 X141.654 Y127.498 E1.11597
G1 X141.514 Y129.075 E.05718
G1 X141.066 Y131.128 E.07587
G1 X140.511 Y132.682 E.05958
G1 X139.536 Y134.594 E.07749
G1 X138.369 Y136.254 E.07325
G1 X137.332 Y137.403 E.05589
G1 X136.263 Y138.365 E.05191
G1 X134.931 Y139.332 E.05945
G1 X133.625 Y140.079 E.05431
G1 X132.088 Y140.749 E.06053
G1 X130.611 Y141.209 E.05589
G1 X128.581 Y141.578 E.07448
G1 X127 Y141.664 E.05717
G1 X96.59 Y141.664 E1.09799
G1 X93.669 Y141.266 E.10644
G1 X90.961 Y140.101 E.10644
G1 X88.872 Y138.467 E.09572
G1 X81.533 Y131.128 E.37478
G1 X79.749 Y128.781 E.10644
G1 X78.658 Y126.042 E.10644
G1 X78.336 Y123.41 E.09572
G1 X78.348 Y92.451 E1.11781
G1 X78.483 Y90.946 E.05457
G1 X78.877 Y89.075 E.06905
G1 X79.406 Y87.519 E.05931
G1 X80.163 Y85.924 E.06376
G1 X81.225 Y84.268 E.07104
G1 X82.281 Y83.003 E.0595
G1 X82.637 Y83.309 F9000
G1 F900
G1 X82.829 Y83.086 E.01062
G1 X84.05 Y81.969 E.05976
G1 X85.313 Y81.055 E.05628
G1 X86.734 Y80.253 E.0589
G1 X88.106 Y79.666 E.05389
G1 X89.521 Y79.229 E.05347
G1 X90.986 Y78.938 E.05393
G1 X93 Y78.793 E.07291
G1 X123.41 Y78.793 E1.09799
G1 X126.268 Y79.191 E.10418
M73 P2 R28
G1 X128.908 Y80.355 E.10418
G1 X130.805 Y81.856 E.08731
G1 X138.144 Y89.195 E.37478
G1 X139.884 Y91.498 E.10418
G1 X140.927 Y94.188 E.10418
G1 X141.207 Y96.59 E.08731
G1 X141.197 Y127.485 E1.1155
G1 X141.061 Y129.013 E.0554
G1 X140.629 Y130.997 E.07331
G1 X140.088 Y132.509 E.05797
G1 X139.147 Y134.354 E.07477
G1 X138.466 Y135.379 E.04445
G1 X137.345 Y136.734 E.06349
G1 X135.978 Y138.008 E.06746
G1 X134.687 Y138.945 E.05761
G1 X133.422 Y139.67 E.05264
G1 X131.925 Y140.322 E.05894
G1 X130.494 Y140.767 E.05413
G1 X128.534 Y141.123 E.07192
G1 X127 Y141.207 E.05546
G1 X96.59 Y141.207 E1.09799
G1 X93.732 Y140.809 E.10418
G1 X91.092 Y139.645 E.10418
G1 X89.195 Y138.144 E.08731
G1 X81.856 Y130.805 E.37478
G1 X80.116 Y128.502 E.10418
G1 X79.073 Y125.812 E.10418
G1 X78.793 Y123.41 E.08731
G1 X78.804 Y92.465 E1.1173
G1 X78.936 Y91.008 E.05284
G1 X79.318 Y89.193 E.06695
M73 P2 R27
G1 X79.928 Y87.454 E.06654
G1 X80.826 Y85.69 E.07146
G1 X81.691 Y84.408 E.05585
G1 X82.611 Y83.339 E.05093
; printing object Smaller+Glue+Sticc+Holder parts - Blank Storage (2).stl id:0 copy 0
G1 E-3.5 F1800
;WIPE_START
G1 F900
G1 X82.829 Y83.086 E-1.00231
G1 X82.951 Y82.974 E-.49769
;WIPE_END
EXCLUDE_OBJECT_START NAME=Smaller_Glue_Sticc_Holder_parts_-_Blank_Storage_2_.stl_id_0_copy_0
G17
G3 Z.6 I-.457 J1.128 P1  F9000
G1 X129.075 Y101.685 Z.6
G1 Z.2
G1 E5 F1800
;TYPE:Inner wall
;WIDTH:0.499999
G1 F900
G1 X129.146 Y101.633 E.00318
G1 X129.586 Y101.241 E.02127
G1 X129.586 Y126.84 E.92428
G1 X129.563 Y127.235 E.01428
G1 X129.464 Y127.757 E.01917
G1 X129.236 Y128.276 E.02049
G1 X128.916 Y128.724 E.01986
G1 X128.536 Y129.071 E.01859
G1 X127.992 Y129.382 E.02263
G1 X127.639 Y129.497 E.0134
G1 X127.112 Y129.58 E.01923
G1 X101.242 Y129.585 E.93409
G1 X101.71 Y129.05 E.02566
G1 X102.186 Y128.372 E.02992
G1 X102.586 Y127.647 E.0299
G1 X102.906 Y126.883 E.0299
G1 X103.141 Y126.089 E.0299
G1 X103.289 Y125.274 E.0299
G1 X103.349 Y124.448 E.0299
M73 P3 R27
G1 X103.318 Y123.62 E.0299
G1 X103.199 Y122.8 E.0299
G1 X102.992 Y121.999 E.0299
G1 X102.699 Y121.224 E.0299
G1 X102.325 Y120.485 E.0299
G1 X101.873 Y119.791 E.0299
G1 X101.349 Y119.15 E.0299
G1 X100.759 Y118.569 E.0299
G1 X100.109 Y118.055 E.0299
G1 X99.408 Y117.614 E.0299
G1 X98.663 Y117.252 E.0299
G1 X97.883 Y116.972 E.0299
G1 X97.078 Y116.778 E.0299
G1 X96.257 Y116.671 E.0299
G1 X95.429 Y116.655 E.0299
G1 X94.604 Y116.727 E.0299
G1 X93.791 Y116.888 E.0299
G1 X93.001 Y117.136 E.0299
G1 X92.242 Y117.468 E.0299
G1 X91.524 Y117.88 E.0299
G1 X90.854 Y118.367 E.0299
G1 X90.414 Y118.759 E.02127
G1 X90.414 Y93.157 E.92437
G1 X90.435 Y92.784 E.0135
G1 X90.532 Y92.253 E.01948
G1 X90.725 Y91.804 E.01766
G1 X91.006 Y91.398 E.01782
G1 X91.375 Y90.999 E.01961
G1 X91.802 Y90.718 E.01847
G1 X92.341 Y90.527 E.02065
G1 X92.886 Y90.42 E.02007
G1 X118.755 Y90.415 E.93402
G1 X118.29 Y90.95 E.02561
G1 X117.814 Y91.628 E.0299
G1 X117.414 Y92.353 E.0299
G1 X117.094 Y93.117 E.0299
G1 X116.859 Y93.911 E.0299
G1 X116.711 Y94.726 E.0299
G1 X116.651 Y95.552 E.0299
G1 X116.682 Y96.38 E.0299
G1 X116.801 Y97.2 E.0299
G1 X117.008 Y98.001 E.0299
G1 X117.301 Y98.776 E.0299
G1 X117.675 Y99.515 E.0299
G1 X118.127 Y100.209 E.0299
G1 X118.651 Y100.85 E.0299
G1 X119.241 Y101.431 E.0299
G1 X119.891 Y101.945 E.0299
G1 X120.592 Y102.386 E.0299
G1 X121.337 Y102.748 E.0299
G1 X122.117 Y103.028 E.0299
G1 X122.922 Y103.222 E.0299
G1 X123.743 Y103.329 E.0299
G1 X124.571 Y103.345 E.0299
G1 X125.396 Y103.273 E.0299
G1 X126.209 Y103.112 E.0299
G1 X126.999 Y102.864 E.0299
G1 X127.758 Y102.532 E.0299
G1 X128.476 Y102.12 E.0299
G1 X129.043 Y101.708 E.02528
G1 X128.805 Y101.319 F9000
G1 F900
G1 X128.842 Y101.292 E.00163
G1 X129.421 Y100.77 E.02813
G1 X130.043 Y100.046 E.03447
G1 X130.043 Y126.84 E.96741
G1 X130.018 Y127.272 E.01563
G1 X129.899 Y127.903 E.02318
G1 X129.635 Y128.503 E.02367
G1 X129.26 Y129.028 E.02331
G1 X128.807 Y129.443 E.02216
G1 X128.184 Y129.799 E.02589
G1 X127.684 Y129.956 E.01895
G1 X127.137 Y130.037 E.01996
G1 X100.046 Y130.042 E.97815
G1 X100.247 Y129.893 E.00905
G1 X100.823 Y129.368 E.02812
G1 X101.338 Y128.785 E.02811
G1 X101.788 Y128.148 E.02814
G1 X102.166 Y127.467 E.02812
G1 X102.469 Y126.75 E.02812
G1 X102.692 Y126.003 E.02812
G1 X102.834 Y125.237 E.02812
G1 X102.892 Y124.461 E.02812
G1 X102.866 Y123.682 E.02812
G1 X102.756 Y122.911 E.02812
G1 X102.563 Y122.157 E.02812
G1 X102.29 Y121.427 E.02812
G1 X101.94 Y120.731 E.02812
G1 X101.517 Y120.077 E.02812
G1 X101.026 Y119.473 E.02812
G1 X100.472 Y118.925 E.02812
G1 X99.863 Y118.44 E.02812
G1 X99.204 Y118.023 E.02812
G1 X98.505 Y117.681 E.02812
G1 X97.773 Y117.415 E.02812
G1 X97.016 Y117.23 E.02812
G1 X96.244 Y117.128 E.02812
G1 X95.465 Y117.11 E.02812
G1 X94.689 Y117.176 E.02812
G1 X93.925 Y117.326 E.02812
G1 X93.181 Y117.557 E.02812
G1 X92.466 Y117.867 E.02812
G1 X91.789 Y118.252 E.02812
G1 X91.158 Y118.708 E.02812
G1 X90.579 Y119.23 E.02813
G1 X89.957 Y119.954 E.03447
G1 X89.957 Y93.157 E.9675
G1 X89.997 Y92.53 E.0227
G1 X90.166 Y91.928 E.02257
G1 X90.443 Y91.366 E.02262
G1 X90.901 Y90.803 E.02622
G1 X91.336 Y90.459 E.02002
G1 X91.8 Y90.208 E.01903
G1 X92.304 Y90.061 E.01894
G1 X92.862 Y89.963 E.02048
G1 X119.951 Y89.958 E.97807
G1 X119.751 Y90.109 E.00906
G1 X119.141 Y90.669 E.02987
G1 X118.662 Y91.216 E.02628
G1 X118.212 Y91.852 E.02812
G1 X117.834 Y92.533 E.02812
G1 X117.531 Y93.25 E.02812
G1 X117.308 Y93.997 E.02812
G1 X117.166 Y94.763 E.02812
G1 X117.108 Y95.539 E.02812
G1 X117.134 Y96.318 E.02812
G1 X117.244 Y97.089 E.02812
G1 X117.437 Y97.844 E.02812
G1 X117.71 Y98.573 E.02812
G1 X118.06 Y99.269 E.02812
G1 X118.483 Y99.923 E.02812
G1 X118.974 Y100.527 E.02812
G1 X119.528 Y101.075 E.02812
G1 X120.137 Y101.56 E.02812
G1 X120.796 Y101.977 E.02812
G1 X121.495 Y102.319 E.02812
G1 X122.227 Y102.585 E.02812
G1 X122.984 Y102.77 E.02812
G1 X123.756 Y102.872 E.02812
M73 P4 R27
G1 X124.535 Y102.89 E.02812
G1 X125.311 Y102.824 E.02812
G1 X126.075 Y102.674 E.02812
G1 X126.819 Y102.443 E.02812
G1 X127.534 Y102.133 E.02812
G1 X128.211 Y101.748 E.02812
G1 X128.773 Y101.342 E.02505
G1 X128.471 Y100.999 F9000
;TYPE:Outer wall
G1 F900
G1 X128.538 Y100.951 E.00295
G1 X129.081 Y100.464 E.02635
G1 X129.569 Y99.922 E.02634
G1 X129.995 Y99.331 E.02628
G1 X130.3 Y98.803 E.02201
G1 X130.5 Y98.356 E.01771
G1 X130.5 Y126.99 E1.03387
G1 X130.454 Y127.549 E.02024
G1 X130.333 Y128.05 E.01861
G1 X130.035 Y128.73 E.02685
G1 X129.604 Y129.333 E.02675
G1 X129.078 Y129.814 E.02573
G1 X128.377 Y130.215 E.02915
G1 X127.789 Y130.401 E.02226
G1 X127.162 Y130.494 E.02291
G1 X98.363 Y130.5 E1.03981
G1 X98.716 Y130.345 E.01394
G1 X99.303 Y130.012 E.02433
G1 X99.941 Y129.553 E.02838
G1 X100.482 Y129.064 E.02634
G1 X100.966 Y128.519 E.02633
G1 X101.39 Y127.924 E.02636
G1 X101.746 Y127.288 E.02634
G1 X102.032 Y126.616 E.02634
G1 X102.243 Y125.918 E.02634
G1 X102.378 Y125.201 E.02634
G1 X102.435 Y124.474 E.02634
G1 X102.413 Y123.745 E.02634
G1 X102.312 Y123.022 E.02634
G1 X102.134 Y122.314 E.02634
G1 X101.881 Y121.63 E.02634
G1 X101.555 Y120.977 E.02634
G1 X101.161 Y120.364 E.02634
G1 X100.702 Y119.796 E.02634
G1 X100.186 Y119.281 E.02634
G1 X99.616 Y118.825 E.02634
G1 X99.001 Y118.433 E.02634
G1 X98.347 Y118.11 E.02634
G1 X97.662 Y117.859 E.02634
G1 X96.954 Y117.683 E.02634
G1 X96.231 Y117.585 E.02634
G1 X95.502 Y117.566 E.02634
G1 X94.774 Y117.625 E.02634
G1 X94.058 Y117.763 E.02634
G1 X93.361 Y117.977 E.02634
G1 X92.69 Y118.265 E.02634
G1 X92.055 Y118.624 E.02634
G1 X91.462 Y119.049 E.02634
G1 X90.919 Y119.536 E.02635
G1 X90.431 Y120.078 E.02634
G1 X90.005 Y120.669 E.02628
G1 X89.7 Y121.197 E.02201
G1 X89.5 Y121.644 E.01771
G1 X89.5 Y93.157 E1.02855
G1 X89.524 Y92.71 E.01616
G1 X89.606 Y92.198 E.01874
G1 X89.817 Y91.56 E.02427
G1 X90.062 Y91.111 E.01847
G1 X90.573 Y90.482 E.02925
G1 X91.085 Y90.077 E.02359
G1 X91.633 Y89.781 E.02248
G1 X92.426 Y89.55 E.02983
G1 X92.838 Y89.506 E.01496
G1 X121.634 Y89.5 E1.03969
G1 X121.282 Y89.656 E.01391
G1 X120.592 Y90.056 E.02876
G1 X120.058 Y90.447 E.0239
G1 X119.484 Y90.972 E.02809
G1 X119.034 Y91.482 E.02455
G1 X118.611 Y92.076 E.02634
G1 X118.254 Y92.712 E.02634
G1 X117.968 Y93.384 E.02634
G1 X117.757 Y94.082 E.02634
G1 X117.622 Y94.799 E.02634
G1 X117.565 Y95.526 E.02634
G1 X117.587 Y96.255 E.02634
G1 X117.688 Y96.978 E.02634
G1 X117.866 Y97.686 E.02634
G1 X118.119 Y98.37 E.02634
G1 X118.445 Y99.023 E.02634
G1 X118.839 Y99.636 E.02634
G1 X119.298 Y100.204 E.02634
G1 X119.814 Y100.719 E.02634
G1 X120.384 Y101.175 E.02634
G1 X120.999 Y101.567 E.02634
G1 X121.653 Y101.89 E.02634
G1 X122.338 Y102.141 E.02634
G1 X123.046 Y102.317 E.02634
G1 X123.769 Y102.415 E.02634
G1 X124.498 Y102.434 E.02634
G1 X125.226 Y102.375 E.02634
G1 X125.942 Y102.237 E.02634
G1 X126.639 Y102.023 E.02634
G1 X127.31 Y101.735 E.02634
G1 X127.945 Y101.376 E.02634
G1 X128.439 Y101.022 E.02195
G1 E-3.5 F1800
;WIPE_START
G1 F900
G1 X128.538 Y100.951 E-.36485
G1 X128.82 Y100.699 E-1.13515
;WIPE_END
G17
G3 Z.6 I-.674 J-1.013 P1  F9000
G1 X101.548 Y118.853 Z.6
G1 Z.2
G1 E5 F1800
;TYPE:Bottom surface
G1 F1200
G1 X102.138 Y119.562 E.03331
G1 X102.598 Y120.263 E.03029
G1 X103.012 Y121.062 E.03247
G1 X103.364 Y122.013 E.03662
G1 X103.568 Y122.856 E.03133
G1 X103.679 Y123.715 E.03128
