; HEADER_BLOCK_START
; generated by OrcaSlicer 1.7.0 on 2023-12-26 at 09:45:18
; total layer number: 227
; HEADER_BLOCK_END

; THUMBNAIL_BLOCK_START
; THUMBNAIL_BLOCK_END

; external perimeters extrusion width = 0.40mm
; perimeters extrusion width = 0.45mm
; infill extrusion width = 0.45mm
; solid infill extrusion width = 0.40mm
; top infill extrusion width = 0.40mm
; first layer extrusion width = 0.50mm

; EXECUTABLE_BLOCK_START
EXCLUDE_OBJECT_DEFINE NAME=Smaller_Glue_Sticc_Holder_parts_-_Blank_Storage.stl_id_0_copy_0 CENTER=110,110 POLYGON=[[89.25,93],[89.2504,92.9477],[89.2548,92.8155],[89.261,92.7131],[89.2756,92.563],[89.3072,92.3477],[89.3246,92.2557],[89.3401,92.1829],[89.39,91.9848],[89.4337,91.8406],[89.4434,91.8114],[89.4816,91.7027],[89.5643,91.4973],[89.5842,91.4525],[89.7286,91.1668],[89.7612,91.1099],[89.928,90.8493],[89.9723,90.7873],[90.018,90.7261],[90.0334,90.7061],[90.2155,90.4882],[90.255,90.4451],[90.4304,90.2688],[90.4882,90.2155],[90.5195,90.1876],[90.5858,90.1309],[90.6946,90.0423],[90.7681,89.9864],[90.7873,89.9723],[90.8126,89.9541],[90.9049,89.8898],[90.9269,89.8751],[90.9388,89.8673],[91.0774,89.7808],[91.1099,89.7612],[91.2545,89.681],[91.3059,89.6556],[91.4525,89.5842],[91.5893,89.5255],[91.7141,89.4792],[91.8114,89.4434],[91.9434,89.4019],[91.9558,89.3983],[92.1828,89.3401],[92.2639,89.323],[92.4229,89.2957],[92.552,89.2769],[92.628,89.2685],[92.7106,89.2615],[92.8552,89.2529],[92.9016,89.2513],[93,89.25],[127,89.25],[127.052,89.2504],[127.141,89.2528],[127.292,89.2614],[127.437,89.2756],[127.657,89.308],[127.751,89.3259],[127.817,89.3401],[128.02,89.3913],[128.164,89.4352],[128.189,89.4434],[128.304,89.4839],[128.507,89.5661],[128.548,89.5842],[128.837,89.7309],[128.89,89.7612],[129.155,89.9307],[129.213,89.9723],[129.278,90.0209],[129.295,90.0345],[129.512,90.2155],[129.558,90.2582],[129.733,90.4319],[129.784,90.4882],[129.816,90.5231],[129.852,90.5659],[129.95,90.6844],[130.014,90.7682],[130.028,90.7873],[130.049,90.8164],[130.111,90.9055],[130.135,90.9426],[130.219,91.0775],[130.239,91.1099],[130.321,91.2586],[130.416,91.4525],[130.476,91.5936],[130.511,91.6877],[130.557,91.8114],[130.599,91.9479],[130.602,91.9573],[130.66,92.1829],[130.677,92.2641],[130.701,92.4016],[130.723,92.5541],[130.732,92.6281],[130.738,92.6999],[130.747,92.8499],[130.749,92.9016],[130.75,93],[130.75,127],[130.75,127.052],[130.747,127.141],[130.738,127.296],[130.724,127.437],[130.691,127.661],[130.66,127.817],[130.608,128.023],[130.564,128.166],[130.433,128.51],[130.416,128.548],[130.267,128.84],[130.239,128.89],[130.067,129.158],[130.028,129.213],[129.976,129.282],[129.784,129.512],[129.739,129.561],[129.632,129.671],[129.512,129.784],[129.474,129.818],[129.434,129.852],[129.315,129.95],[129.295,129.966],[129.232,130.014],[129.213,130.028],[129.181,130.051],[129.077,130.122],[129.055,130.137],[128.922,130.219],[128.89,130.239],[128.738,130.323],[128.569,130.406],[128.403,130.478],[128.189,130.557],[128.049,130.6],[127.817,130.66],[127.736,130.677],[127.598,130.701],[127.437,130.724],[127.372,130.732],[127.3,130.738],[127.15,130.747],[127.098,130.749],[127,130.75],[93,130.75],[92.9477,130.75],[92.8156,130.745],[92.7083,130.739],[92.563,130.724],[92.343,130.692],[92.2493,130.674],[92.1829,130.66],[91.9803,130.609],[91.8362,130.565],[91.8114,130.557],[91.6963,130.516],[91.4932,130.434],[91.4525,130.416],[91.1628,130.269],[91.1099,130.239],[90.8455,130.069],[90.7873,130.028],[90.7223,129.979],[90.7048,129.966],[90.4882,129.784],[90.4417,129.742],[90.2674,129.568],[90.2155,129.512],[90.1844,129.477],[90.1309,129.414],[90.0423,129.305],[89.9865,129.232],[89.9723,129.213],[89.9513,129.184],[89.8895,129.095],[89.8648,129.057],[89.7808,128.923],[89.7612,128.89],[89.6788,128.741],[89.6555,128.694],[89.5842,128.548],[89.5237,128.406],[89.4434,128.189],[89.4006,128.052],[89.3979,128.043],[89.3401,127.817],[89.3229,127.736],[89.2957,127.577],[89.2766,127.446],[89.2685,127.372],[89.2615,127.289],[89.2529,127.145],[89.2513,127.098],[89.25,127],[89.25,93]]
M73 P0 R113
;TYPE:Custom
START_PRINT EXTRUDER_TEMP=255  BED_TEMP=80
G90
G21
M83 ; use relative distances for extrusion
; filament start gcode
M106 S0
;LAYER_CHANGE
;Z:0.3
;HEIGHT:0.3
;BEFORE_LAYER_CHANGE
;0.3
G92 E0

G1 E-5 F1800
;_SET_FAN_SPEED_CHANGING_LAYER
; printing object Smaller+Glue+Sticc+Holder parts - Blank Storage.stl id:0 copy 0
EXCLUDE_OBJECT_START NAME=Smaller_Glue_Sticc_Holder_parts_-_Blank_Storage.stl_id_0_copy_0
G1 X126.829 Y94.922 F9000
G1 Z.4
G1 Z.3
G1 E5 F1800
;TYPE:Inner wall
;WIDTH:0.5
G1 F900
G1 X126.404 Y94.265 E.0404
G1 X125.736 Y93.597 E.04874
G1 X125.103 Y93.175 E.03928
G1 X126.829 Y93.175 E.08907
G1 X126.829 Y94.882 E.08812
G1 E-3.5 F1800
;WIPE_START
G1 F900
G1 X126.545 Y94.47 E-1.5
;WIPE_END
G17
G3 Z.7 I-1.183 J-.284 P1  F9000
G1 X125.009 Y100.861 Z.7
G1 Z.3
G1 E5 F1800
G1 F900
G1 X125.149 Y100.801 E.00787
G1 X125.916 Y100.251 E.04874
G1 X126.546 Y99.548 E.04874
G1 X126.829 Y99.078 E.0283
G1 X126.829 Y120.922 E1.1275
G1 X126.404 Y120.265 E.0404
G1 X125.736 Y119.597 E.04874
G1 X124.941 Y119.088 E.04874
G1 X124.054 Y118.763 E.04874
G1 X123.119 Y118.635 E.04874
G1 X122.178 Y118.712 E.04874
G1 X121.275 Y118.989 E.04874
G1 X120.453 Y119.453 E.04874
G1 X119.75 Y120.084 E.04874
G1 X119.321 Y120.649 E.03663
G1 X119.131 Y120.999 E.02055
G1 X118.826 Y121.718 E.04032
G1 X118.648 Y122.645 E.04873
G1 X118.673 Y123.589 E.04873
G1 X118.901 Y124.505 E.04874
G1 X119.321 Y125.351 E.04874
G1 X119.912 Y126.087 E.04874
G1 X120.453 Y126.547 E.03663
G1 X120.934 Y126.829 E.02878
G1 X99.097 Y126.829 E1.12716
G1 X99.919 Y126.247 E.05201
G1 X100.559 Y125.528 E.04969
G1 X101.011 Y124.726 E.0475
G1 X101.288 Y123.823 E.04874
G1 X101.365 Y122.882 E.04874
G1 X101.238 Y121.947 E.04874
G1 X100.912 Y121.06 E.04873
G1 X100.404 Y120.265 E.04874
G1 X99.736 Y119.597 E.04874
G1 X98.941 Y119.088 E.04874
G1 X98.054 Y118.763 E.04874
G1 X97.119 Y118.635 E.04874
G1 X96.178 Y118.712 E.04874
G1 X95.275 Y118.989 E.04874
G1 X94.453 Y119.453 E.04874
G1 X93.75 Y120.084 E.04874
G1 X93.321 Y120.649 E.03663
G1 X93.171 Y120.911 E.01557
G1 X93.171 Y99.089 E1.12637
G1 X93.321 Y99.351 E.01558
G1 X93.912 Y100.087 E.04874
G1 X94.653 Y100.681 E.04901
G1 X95.517 Y101.106 E.04969
G1 X96.41 Y101.326 E.0475
G1 X97.354 Y101.352 E.04874
G1 X98.281 Y101.174 E.04874
G1 X99.149 Y100.801 E.04874
G1 X99.919 Y100.247 E.04901
G1 X100.559 Y99.528 E.04969
G1 X101.011 Y98.726 E.0475
G1 X101.288 Y97.823 E.04874
G1 X101.365 Y96.882 E.04874
G1 X101.238 Y95.947 E.04874
G1 X100.912 Y95.06 E.04874
G1 X100.404 Y94.265 E.04874
G1 X99.736 Y93.597 E.04874
G1 X99.098 Y93.172 E.03958
G1 X120.925 Y93.174 E1.12664
G1 X120.453 Y93.453 E.02831
G1 X119.75 Y94.084 E.04874
G1 X119.199 Y94.851 E.04874
G1 X118.826 Y95.718 E.04874
G1 X118.648 Y96.645 E.04873
G1 X118.673 Y97.589 E.04873
G1 X118.901 Y98.505 E.04874
G1 X119.321 Y99.351 E.04874
G1 X119.912 Y100.087 E.04874
G1 X120.653 Y100.681 E.04901
G1 X121.517 Y101.106 E.04969
G1 X122.41 Y101.326 E.0475
G1 X123.354 Y101.352 E.04874
G1 X124.281 Y101.174 E.04874
G1 X124.972 Y100.877 E.03881
G1 X124.831 Y100.471 F9000
G1 F900
G1 X124.12 Y100.77 E.0398
G1 X123.283 Y100.922 E.04389
G1 X122.434 Y100.891 E.04389
G1 X121.632 Y100.686 E.0427
G1 X120.855 Y100.295 E.04491
G1 X120.194 Y99.755 E.04405
G1 X119.667 Y99.088 E.04389
G1 X119.297 Y98.322 E.04389
G1 X119.099 Y97.495 E.04389
G1 X119.084 Y96.645 E.04389
G1 X119.251 Y95.812 E.04389
G1 X119.595 Y95.033 E.0439
G1 X120.097 Y94.347 E.04389
G1 X120.735 Y93.785 E.04389
G1 X121.479 Y93.374 E.04389
G1 X122.297 Y93.142 E.04389
;WIDTH:0.478587
G1 X123.144 Y93.096 E.04161
;WIDTH:0.479266
G1 X123.564 Y93.142 E.02079
;WIDTH:0.510554
G1 X123.985 Y93.187 E.02236
G1 X124.779 Y93.493 E.04501
;WIDTH:0.5
G1 X125.492 Y93.958 E.04389
G1 X126.087 Y94.564 E.04389
G1 X126.539 Y95.285 E.04389
G1 X126.822 Y96.087 E.04388
;WIDTH:0.493375
G1 X126.906 Y96.932 E.04319
;WIDTH:0.448952
G1 X126.909 Y97 E.0031
;WIDTH:0.487433
G1 X126.849 Y97.776 E.03899
;WIDTH:0.5
G1 X126.598 Y98.587 E.04383
G1 X126.173 Y99.323 E.04389
G1 X125.599 Y99.951 E.04389
G1 X124.904 Y100.441 E.04389
G1 X124.868 Y100.456 E.00203
G1 X124.575 Y100.114 F9000
;TYPE:Outer wall
G1 F900
G1 X123.959 Y100.365 E.03435
G1 X123.213 Y100.492 E.03905
G1 X122.457 Y100.456 E.03905
G1 X121.748 Y100.266 E.03789
G1 X121.057 Y99.91 E.04014
G1 X120.476 Y99.423 E.03911
G1 X120.014 Y98.824 E.03905
G1 X119.692 Y98.139 E.03905
G1 X119.524 Y97.402 E.03905
G1 X119.519 Y96.645 E.03905
G1 X119.677 Y95.905 E.03905
G1 X119.99 Y95.216 E.03906
G1 X120.444 Y94.611 E.03905
G1 X121.017 Y94.117 E.03905
G1 X121.683 Y93.758 E.03905
G1 X122.411 Y93.551 E.03905
G1 X123.166 Y93.505 E.03905
G1 X123.913 Y93.622 E.03905
G1 X124.618 Y93.898 E.03905
G1 X125.247 Y94.318 E.03905
G1 X125.771 Y94.864 E.03905
G1 X126.166 Y95.51 E.03905
G1 X126.412 Y96.225 E.03905
G1 X126.5 Y97 E.04027
G1 X126.422 Y97.729 E.03785
G1 X126.185 Y98.448 E.03905
G1 X125.8 Y99.099 E.03905
G1 X125.283 Y99.651 E.03905
G1 X124.66 Y100.08 E.03905
G1 X124.612 Y100.099 E.00264
G1 E-3.5 F1800
;WIPE_START
G1 F900
G1 X124.149 Y100.288 E-1.5
;WIPE_END
G17
G3 Z.7 I-1.216 J.043 P1  F9000
G1 X125.097 Y126.829 Z.7
G1 Z.3
G1 E5 F1800
;TYPE:Inner wall
G1 F900
G1 X125.736 Y126.403 E.03965
G1 X126.07 Y126.087 E.02374
G1 X126.546 Y125.548 E.03712
G1 X126.829 Y125.078 E.0283
G1 X126.829 Y126.829 E.09037
G1 X125.137 Y126.829 E.08733
G1 E-3.5 F1800
;WIPE_START
G1 F900
G1 X125.544 Y126.539 E-1.5
;WIPE_END
G17
G3 Z.7 I.531 J-1.095 P1  F9000
G1 X119.097 Y123.416 Z.7
G1 Z.3
G1 E5 F1800
G1 F900
G1 X119.084 Y122.645 E.0398
G1 X119.251 Y121.812 E.04389
G1 X119.526 Y121.182 E.03547
G1 X119.667 Y120.912 E.0157
G1 X120.097 Y120.347 E.03663
G1 X120.735 Y119.785 E.04389
G1 X121.479 Y119.374 E.04389
G1 X122.294 Y119.131 E.04389
G1 X123.142 Y119.07 E.04389
G1 X123.984 Y119.193 E.04389
G1 X124.779 Y119.493 E.04389
G1 X125.492 Y119.958 E.04389
G1 X126.087 Y120.564 E.04389
G1 X126.539 Y121.285 E.04389
G1 X126.822 Y122.087 E.04388
;WIDTH:0.493375
G1 X126.906 Y122.932 E.04319
;WIDTH:0.487433
G1 X126.849 Y123.776 E.04238
;WIDTH:0.5
G1 X126.598 Y124.587 E.04383
G1 X126.173 Y125.323 E.04389
G1 X125.754 Y125.788 E.03228
G1 X125.492 Y126.042 E.01888
G1 X124.904 Y126.441 E.03663
;WIDTH:0.506971
G1 X124.121 Y126.773 E.0446
G1 X123.7 Y126.836 E.02232
;WIDTH:0.480682
G1 X123.28 Y126.9 E.02099
;WIDTH:0.468784
G1 X122.434 Y126.876 E.04052
;WIDTH:0.5
G1 X121.632 Y126.686 E.04255
G1 X120.855 Y126.295 E.04491
G1 X120.194 Y125.755 E.04405
G1 X119.667 Y125.088 E.04389
G1 X119.297 Y124.322 E.04389
G1 X119.099 Y123.495 E.04389
G1 X119.098 Y123.456 E.00202
G1 X119.524 Y123.34 F9000
;TYPE:Outer wall
G1 F900
G1 X119.519 Y122.645 E.03586
G1 X119.677 Y121.905 E.03905
G1 X119.921 Y121.365 E.03063
G1 X120.014 Y121.176 E.01085
G1 X120.444 Y120.611 E.03663
G1 X121.017 Y120.117 E.03905
G1 X121.683 Y119.758 E.03905
G1 X122.411 Y119.551 E.03905
G1 X123.166 Y119.505 E.03905
G1 X123.913 Y119.622 E.03905
G1 X124.618 Y119.898 E.03905
G1 X125.247 Y120.318 E.03905
G1 X125.771 Y120.864 E.03905
G1 X126.166 Y121.51 E.03905
G1 X126.412 Y122.225 E.03905
G1 X126.499 Y122.976 E.03906
G1 X126.422 Y123.729 E.03905
G1 X126.185 Y124.448 E.03905
G1 X125.8 Y125.099 E.03905
G1 X125.247 Y125.682 E.04147
G1 X124.66 Y126.08 E.03663
G1 X123.959 Y126.365 E.03905
G1 X123.213 Y126.492 E.03905
G1 X122.457 Y126.456 E.03905
G1 X121.748 Y126.266 E.03789
G1 X121.057 Y125.91 E.04014
G1 X120.476 Y125.423 E.03911
G1 X120.014 Y124.824 E.03905
G1 X119.692 Y124.139 E.03905
G1 X119.524 Y123.402 E.03905
G1 X119.524 Y123.38 E.00112
G1 E-3.5 F1800
;WIPE_START
G1 F900
G1 X119.521 Y122.88 E-1.5
;WIPE_END
G17
G3 Z.7 I-.102 J-1.213 P1  F9000
G1 X93.171 Y125.089 Z.7
G1 Z.3
G1 E5 F1800
;TYPE:Inner wall
G1 F900
G1 X93.321 Y125.351 E.01558
G1 X93.912 Y126.087 E.04874
G1 X94.453 Y126.547 E.03663
G1 X94.931 Y126.829 E.02863
G1 X93.171 Y126.829 E.09082
G1 X93.171 Y125.129 E.08773
G1 E-3.5 F1800
;WIPE_START
G1 F900
G1 X93.321 Y125.351 E-.80324
G1 X93.466 Y125.532 E-.69676
;WIPE_END
G17
G3 Z.7 I1.207 J.159 P1  F9000
G1 X94.156 Y120.295 Z.7
G1 Z.3
G1 E5 F1800
G1 F900
G1 X94.735 Y119.785 E.03982
G1 X95.479 Y119.374 E.04389
G1 X96.294 Y119.131 E.04389
G1 X97.142 Y119.07 E.04389
G1 X97.984 Y119.193 E.04389
G1 X98.779 Y119.493 E.04389
G1 X99.492 Y119.958 E.04389
G1 X100.087 Y120.564 E.04389
G1 X100.539 Y121.285 E.04389
G1 X100.825 Y122.086 E.04389
G1 X100.932 Y122.929 E.0439
G1 X100.855 Y123.776 E.04389
G1 X100.598 Y124.587 E.04389
G1 X100.186 Y125.304 E.0427
G1 X99.601 Y125.949 E.04491
G1 X98.904 Y126.441 E.04405
;WIDTH:0.506971
G1 X98.121 Y126.773 E.0446
;WIDTH:0.513019
G1 X97.992 Y126.813 E.00718
G1 X97.636 Y126.856 E.01908
;WIDTH:0.483706
G1 X97.28 Y126.9 E.01783
;WIDTH:0.468784
G1 X96.434 Y126.876 E.04052
;WIDTH:0.5
G1 X95.61 Y126.679 E.04374
G1 X94.852 Y126.294 E.04389
G1 X94.194 Y125.755 E.04389
G1 X93.667 Y125.088 E.04389
G1 X93.297 Y124.322 E.04389
G1 X93.116 Y123.492 E.04389
;WIDTH:0.465827
G1 X93.105 Y122.645 E.04027
;WIDTH:0.5
G1 X93.251 Y121.812 E.04368
G1 X93.595 Y121.033 E.04389
G1 X94.097 Y120.347 E.04389
G1 X94.126 Y120.322 E.00202
G1 X94.392 Y120.68 F9000
;TYPE:Outer wall
G1 F900
G1 X94.444 Y120.611 E.00442
G1 X95.017 Y120.117 E.03906
G1 X95.683 Y119.758 E.03905
G1 X96.411 Y119.551 E.03905
G1 X97.166 Y119.505 E.03905
G1 X97.913 Y119.622 E.03905
G1 X98.618 Y119.898 E.03905
G1 X99.247 Y120.318 E.03905
G1 X99.771 Y120.864 E.03905
G1 X100.166 Y121.51 E.03905
G1 X100.412 Y122.225 E.03905
G1 X100.499 Y122.976 E.03906
G1 X100.422 Y123.729 E.03905
G1 X100.185 Y124.448 E.03905
G1 X99.812 Y125.08 E.03789
G1 X99.284 Y125.651 E.04014
G1 X98.66 Y126.08 E.03911
G1 X97.916 Y126.377 E.04134
G1 X97.213 Y126.492 E.03676
G1 X96.457 Y126.456 E.03905
G1 X95.727 Y126.259 E.03905
G1 X95.056 Y125.909 E.03905
G1 X94.476 Y125.423 E.03905
G1 X94.014 Y124.824 E.03905
G1 X93.692 Y124.139 E.03905
G1 X93.524 Y123.402 E.03905
G1 X93.519 Y122.645 E.03905
G1 X93.677 Y121.905 E.03905
G1 X93.99 Y121.216 E.03905
G1 X94.368 Y120.712 E.03256
G1 E-3.5 F1800
;WIPE_START
G1 F900
G1 X94.444 Y120.611 E-.37699
G1 X94.727 Y120.367 E-1.12301
;WIPE_END
G17
G3 Z.7 I1.215 J-.071 P1  F9000
G1 X93.242 Y94.787 Z.7
G1 Z.3
G1 E5 F1800
;TYPE:Inner wall
G1 F900
G1 X93.171 Y94.911 E.00734
G1 X93.171 Y93.171 E.0898
G1 X94.934 Y93.171 E.091
G1 X94.434 Y93.468 E.03002
G1 X93.75 Y94.084 E.04751
G1 X93.321 Y94.649 E.03663
G1 X93.261 Y94.753 E.00617
G1 X93.641 Y94.97 F9000
G1 F900
G1 X94.097 Y94.347 E.03981
G1 X94.717 Y93.799 E.0427
G1 X95.476 Y93.375 E.04491
G1 X96.297 Y93.141 E.04405
;WIDTH:0.479681
G1 X97.144 Y93.095 E.04173
;WIDTH:0.480631
G1 X97.564 Y93.141 E.02086
;WIDTH:0.511922
G1 X97.985 Y93.187 E.02243
G1 X98.779 Y93.493 E.04515
;WIDTH:0.5
G1 X99.492 Y93.958 E.0439
G1 X100.087 Y94.564 E.04389
G1 X100.539 Y95.285 E.04389
G1 X100.825 Y96.086 E.04389
G1 X100.932 Y96.929 E.04389
G1 X100.855 Y97.776 E.04389
G1 X100.598 Y98.587 E.04389
G1 X100.186 Y99.304 E.0427
G1 X99.601 Y99.949 E.04491
G1 X98.904 Y100.441 E.04405
G1 X98.12 Y100.77 E.04389
G1 X97.283 Y100.922 E.04389
G1 X96.434 Y100.891 E.04389
G1 X95.632 Y100.686 E.0427
G1 X94.855 Y100.295 E.04491
G1 X94.194 Y99.755 E.04405
G1 X93.667 Y99.088 E.04389
G1 X93.297 Y98.322 E.04389
G1 X93.116 Y97.492 E.04389
;WIDTH:0.465827
G1 X93.105 Y96.645 E.04027
;WIDTH:0.5
G1 X93.251 Y95.812 E.04368
G1 X93.595 Y95.033 E.04389
G1 X93.618 Y95.002 E.00201
G1 X93.961 Y95.281 F9000
;TYPE:Outer wall
G1 F900
G1 X93.99 Y95.216 E.00364
G1 X94.444 Y94.611 E.03905
G1 X94.999 Y94.131 E.0379
G1 X95.682 Y93.759 E.04014
G1 X96.411 Y93.551 E.03911
G1 X97.166 Y93.505 E.03905
G1 X97.913 Y93.622 E.03905
G1 X98.618 Y93.898 E.03905
G1 X99.247 Y94.318 E.03906
G1 X99.771 Y94.864 E.03905
G1 X100.166 Y95.51 E.03905
G1 X100.412 Y96.225 E.03905
G1 X100.499 Y96.976 E.03905
G1 X100.422 Y97.729 E.03905
G1 X100.185 Y98.448 E.03905
G1 X99.812 Y99.08 E.03789
G1 X99.284 Y99.651 E.04014
G1 X98.66 Y100.08 E.03911
G1 X97.959 Y100.365 E.03905
G1 X97.213 Y100.492 E.03905
G1 X96.457 Y100.456 E.03905
G1 X95.748 Y100.266 E.03789
G1 X95.057 Y99.91 E.04014
G1 X94.476 Y99.423 E.03911
G1 X94.014 Y98.824 E.03905
