; HEADER_BLOCK_START
; generated by OrcaSlicer 1.7.0 on 2023-12-17 at 13:07:36
; total layer number: 60
; HEADER_BLOCK_END

; THUMBNAIL_BLOCK_START
; THUMBNAIL_BLOCK_END

; external perimeters extrusion width = 0.40mm
; perimeters extrusion width = 0.45mm
; infill extrusion width = 0.45mm
; solid infill extrusion width = 0.40mm
; top infill extrusion width = 0.40mm
; first layer extrusion width = 0.50mm

; EXECUTABLE_BLOCK_START
EXCLUDE_OBJECT_DEFINE NAME=Smaller_Glue_Sticc_Holder_parts_-_Blank_Storage_1_.stl_id_0_copy_0 CENTER=110,110 POLYGON=[[89.25,93],[89.2504,92.9477],[89.2548,92.8155],[89.261,92.7131],[89.2756,92.563],[89.3072,92.3477],[89.3246,92.2557],[89.3401,92.1829],[89.39,91.9848],[89.4337,91.8406],[89.4434,91.8114],[89.4816,91.7027],[89.5643,91.4973],[89.5842,91.4525],[89.7286,91.1668],[89.7612,91.1099],[89.928,90.8493],[89.9723,90.7873],[90.018,90.7261],[90.0334,90.7061],[90.2155,90.4882],[90.255,90.4451],[90.4304,90.2688],[90.4882,90.2155],[90.5195,90.1876],[90.5858,90.1309],[90.6946,90.0423],[90.7681,89.9864],[90.7873,89.9723],[90.8126,89.9541],[90.9049,89.8898],[90.9269,89.8751],[90.9388,89.8673],[91.0774,89.7808],[91.1099,89.7612],[91.2545,89.681],[91.3059,89.6556],[91.4525,89.5842],[91.5893,89.5255],[91.7141,89.4792],[91.8114,89.4434],[91.9434,89.4019],[91.9558,89.3983],[92.1828,89.3401],[92.2639,89.323],[92.4229,89.2957],[92.552,89.2769],[92.628,89.2685],[92.7106,89.2615],[92.8552,89.2529],[92.9016,89.2513],[93,89.25],[127,89.25],[127.052,89.2504],[127.141,89.2528],[127.292,89.2614],[127.437,89.2756],[127.657,89.308],[127.751,89.3259],[127.817,89.3401],[128.02,89.3913],[128.164,89.4352],[128.189,89.4434],[128.304,89.4839],[128.507,89.5661],[128.548,89.5842],[128.837,89.7309],[128.89,89.7612],[129.155,89.9307],[129.213,89.9723],[129.278,90.0209],[129.295,90.0345],[129.512,90.2155],[129.558,90.2582],[129.733,90.4319],[129.784,90.4882],[129.816,90.5231],[129.852,90.5659],[129.95,90.6844],[130.014,90.7682],[130.028,90.7873],[130.049,90.8164],[130.111,90.9055],[130.135,90.9426],[130.219,91.0775],[130.239,91.1099],[130.321,91.2586],[130.416,91.4525],[130.476,91.5936],[130.511,91.6877],[130.557,91.8114],[130.599,91.9479],[130.602,91.9573],[130.66,92.1829],[130.677,92.2641],[130.701,92.4016],[130.723,92.5541],[130.732,92.6281],[130.738,92.6999],[130.747,92.8499],[130.749,92.9016],[130.75,93],[130.75,127],[130.75,127.052],[130.747,127.141],[130.738,127.296],[130.724,127.437],[130.691,127.661],[130.66,127.817],[130.608,128.023],[130.564,128.166],[130.433,128.51],[130.416,128.548],[130.267,128.84],[130.239,128.89],[130.067,129.158],[130.028,129.213],[129.976,129.282],[129.784,129.512],[129.739,129.561],[129.632,129.671],[129.512,129.784],[129.474,129.818],[129.434,129.852],[129.315,129.95],[129.295,129.966],[129.232,130.014],[129.213,130.028],[129.181,130.051],[129.077,130.122],[129.055,130.137],[128.922,130.219],[128.89,130.239],[128.738,130.323],[128.569,130.406],[128.403,130.478],[128.189,130.557],[128.049,130.6],[127.817,130.66],[127.736,130.677],[127.598,130.701],[127.437,130.724],[127.372,130.732],[127.3,130.738],[127.15,130.747],[127.098,130.749],[127,130.75],[93,130.75],[92.9477,130.75],[92.8156,130.745],[92.7083,130.739],[92.563,130.724],[92.343,130.692],[92.2493,130.674],[92.1829,130.66],[91.9803,130.609],[91.8362,130.565],[91.8114,130.557],[91.6963,130.516],[91.4932,130.434],[91.4525,130.416],[91.1628,130.269],[91.1099,130.239],[90.8455,130.069],[90.7873,130.028],[90.7223,129.979],[90.7048,129.966],[90.4882,129.784],[90.4417,129.742],[90.2674,129.568],[90.2155,129.512],[90.1844,129.477],[90.1309,129.414],[90.0423,129.305],[89.9865,129.232],[89.9723,129.213],[89.9513,129.184],[89.8895,129.095],[89.8648,129.057],[89.7808,128.923],[89.7612,128.89],[89.6788,128.741],[89.6555,128.694],[89.5842,128.548],[89.5237,128.406],[89.4434,128.189],[89.4006,128.052],[89.3979,128.043],[89.3401,127.817],[89.3229,127.736],[89.2957,127.577],[89.2766,127.446],[89.2685,127.372],[89.2615,127.289],[89.2529,127.145],[89.2513,127.098],[89.25,127],[89.25,93]]
M73 P0 R42
;TYPE:Custom
START_PRINT EXTRUDER_TEMP=255  BED_TEMP=80
G90
G21
M83 ; use relative distances for extrusion
; filament start gcode
M106 S0
;LAYER_CHANGE
;Z:0.2
;HEIGHT:0.2
;BEFORE_LAYER_CHANGE
;0.2
G92 E0

G1 E-5 F1800
;_SET_FAN_SPEED_CHANGING_LAYER
G1 X82.562 Y82.063 F9000
G1 Z.4
G1 Z.2
G1 E5 F1800
;TYPE:Skirt
;WIDTH:0.5
G1 F900
G1 X83.687 Y81.09 E.0537
G1 X85.04 Y80.146 E.05957
G1 X86.402 Y79.397 E.05612
G1 X87.782 Y78.811 E.05412
G1 X89.288 Y78.345 E.05692
G1 X90.85 Y78.034 E.05749
G1 X93 Y77.879 E.07784
G1 X127.323 Y77.883 E1.23928
G1 X129.815 Y78.146 E.09047
G1 X131.256 Y78.495 E.05352
G1 X132.216 Y78.814 E.03654
G1 X134.302 Y79.766 E.08279
G1 X135.553 Y80.537 E.05303
G1 X136.71 Y81.414 E.05244
G1 X138.311 Y82.967 E.08053
G1 X139.319 Y84.233 E.05844
G1 X139.854 Y85.04 E.03494
G1 X140.493 Y86.18 E.0472
G1 X141.001 Y87.298 E.04433
G1 X141.45 Y88.552 E.0481
G1 X141.816 Y89.989 E.05355
G1 X142.044 Y91.483 E.05455
G1 X142.121 Y93 E.05485
G1 X142.111 Y127.511 E1.24606
G1 X141.877 Y129.69 E.07912
G1 X141.422 Y131.527 E.06833
G1 X140.534 Y133.729 E.08573
G1 X139.379 Y135.675 E.08173
G1 X138.126 Y137.236 E.07226
G1 X136.913 Y138.416 E.06108
G1 X135.647 Y139.403 E.05798
G1 X134.333 Y140.223 E.05594
G1 X132.877 Y140.929 E.05841
G1 X131.448 Y141.45 E.05491
G1 X129.83 Y141.852 E.06019
G1 X128.177 Y142.072 E.06025
G1 X91.836 Y142.075 E1.3121
G1 X89.664 Y141.745 E.07935
G1 X87.959 Y141.25 E.06409
G1 X86.212 Y140.504 E.06859
G1 X84.438 Y139.456 E.07441
G1 X83.22 Y138.527 E.05529
G1 X81.709 Y137.057 E.07611
G1 X80.676 Y135.76 E.05987
G1 X79.761 Y134.303 E.06211
G1 X79.099 Y132.948 E.05446
G1 X78.532 Y131.388 E.05991
G1 X78.14 Y129.786 E.05958
G1 X77.907 Y127.87 E.06967
G1 X77.925 Y91.838 E1.30096
G1 X78.253 Y89.675 E.079
G1 X78.721 Y88.043 E.0613
G1 X79.494 Y86.216 E.07164
G1 X80.545 Y84.436 E.07461
G1 X81.471 Y83.222 E.05515
G1 X82.534 Y82.092 E.05603
G1 X82.867 Y82.405 F9000
G1 F900
G1 X82.88 Y82.391 E.00069
G1 X83.972 Y81.447 E.0521
G1 X85.284 Y80.532 E.05776
G1 X86.605 Y79.807 E.05443
G1 X87.944 Y79.239 E.0525
G1 X89.404 Y78.787 E.05519
G1 X90.918 Y78.486 E.05571
G1 X93 Y78.336 E.07538
G1 X127.31 Y78.34 E1.23881
G1 X129.732 Y78.596 E.08792
G1 X132.062 Y79.244 E.08731
G1 X134.084 Y80.168 E.0803
G1 X135.293 Y80.913 E.05124
G1 X136.416 Y81.763 E.05086
G1 X137.971 Y83.272 E.07822
G1 X138.945 Y84.496 E.0565
G1 X139.467 Y85.284 E.03412
G1 X140.083 Y86.383 E.04551
G1 X140.579 Y87.471 E.04316
G1 X141.013 Y88.688 E.04663
G1 X141.368 Y90.077 E.05179
G1 X141.589 Y91.53 E.05306
G1 X141.664 Y93 E.05314
G1 X141.654 Y127.498 E1.24558
G1 X141.428 Y129.605 E.07653
G1 X140.985 Y131.392 E.06647
G1 X140.123 Y133.527 E.08312
G1 X139.003 Y135.415 E.07928
G1 X137.791 Y136.925 E.0699
G1 X136.616 Y138.068 E.05918
G1 X135.385 Y139.03 E.05641
G1 X134.114 Y139.821 E.05406
G1 X132.703 Y140.506 E.05661
G1 X131.313 Y141.013 E.05344
G1 X129.742 Y141.403 E.05842
G1 X128.138 Y141.617 E.05842
G1 X91.874 Y141.619 E1.30935
M73 P1 R42
G1 X89.768 Y141.3 E.07694
G1 X88.109 Y140.819 E.06236
G1 X86.414 Y140.094 E.06655
G1 X84.693 Y139.077 E.07219
G1 X83.513 Y138.176 E.05361
G1 X82.052 Y136.754 E.0736
G1 X81.05 Y135.498 E.05802
G1 X80.163 Y134.086 E.0602
G1 X79.519 Y132.767 E.05297
G1 X78.969 Y131.255 E.05812
G1 X78.589 Y129.699 E.05784
G1 X78.364 Y127.848 E.0673
G1 X78.38 Y91.876 E1.29881
G1 X78.698 Y89.779 E.0766
G1 X79.154 Y88.19 E.05968
G1 X79.904 Y86.418 E.06947
G1 X80.924 Y84.692 E.07239
G1 X81.822 Y83.514 E.05347
G1 X82.84 Y82.434 E.05358
G1 X83.172 Y82.747 F9000
G1 F900
G1 X83.198 Y82.719 E.00138
G1 X84.257 Y81.804 E.0505
G1 X85.528 Y80.919 E.05595
G1 X86.808 Y80.216 E.05273
G1 X88.106 Y79.666 E.05089
G1 X89.521 Y79.229 E.05346
G1 X90.986 Y78.938 E.05393
G1 X93 Y78.793 E.07291
G1 X127.297 Y78.797 E1.23834
G1 X129.649 Y79.045 E.08537
G1 X131.907 Y79.674 E.08464
G1 X133.867 Y80.57 E.0778
G1 X135.033 Y81.289 E.04945
G1 X136.121 Y82.113 E.04929
G1 X137.631 Y83.576 E.07591
G1 X139.081 Y85.528 E.08778
G1 X140.156 Y87.645 E.08574
G1 X140.577 Y88.823 E.04517
G1 X140.919 Y90.165 E.05002
G1 X141.135 Y91.577 E.05156
G1 X141.207 Y93 E.05143
G1 X141.197 Y127.485 E1.24511
G1 X140.979 Y129.521 E.07394
G1 X140.549 Y131.258 E.06461
G1 X139.713 Y133.326 E.08052
G1 X138.627 Y135.156 E.07684
G1 X137.456 Y136.614 E.06753
G1 X136.319 Y137.721 E.05728
G1 X135.122 Y138.656 E.05485
G1 X133.895 Y139.42 E.05218
G1 X132.53 Y140.084 E.05482
G1 X131.177 Y140.577 E.05197
G1 X129.654 Y140.955 E.05666
G1 X128.1 Y141.161 E.05659
G1 X92.461 Y141.195 E1.28679
G1 X90.362 Y140.957 E.07628
G1 X88.437 Y140.449 E.07188
G1 X86.617 Y139.684 E.07129
G1 X84.948 Y138.698 E.06998
G1 X83.805 Y137.825 E.05192
G1 X82.394 Y136.451 E.0711
G1 X81.424 Y135.235 E.05617
G1 X80.565 Y133.868 E.05829
G1 X79.939 Y132.587 E.05148
G1 X79.406 Y131.121 E.05633
G1 X79.037 Y129.612 E.05609
G1 X78.82 Y127.827 E.06492
G1 X78.836 Y91.914 E1.29665
G1 X79.143 Y89.882 E.0742
G1 X79.587 Y88.337 E.05806
G1 X80.314 Y86.62 E.0673
G1 X81.303 Y84.947 E.07018
G1 X82.174 Y83.807 E.0518
G1 X83.145 Y82.776 E.05114
; printing object Smaller+Glue+Sticc+Holder parts - Blank Storage (1).stl id:0 copy 0
G1 E-3.5 F1800
;WIPE_START
G1 F900
G1 X83.198 Y82.719 E-.23482
G1 X83.517 Y82.443 E-1.26518
;WIPE_END
EXCLUDE_OBJECT_START NAME=Smaller_Glue_Sticc_Holder_parts_-_Blank_Storage_1_.stl_id_0_copy_0
G17
G3 Z.6 I-1.202 J.188 P1  F9000
G1 X90.368 Y126.137 Z.6
G1 Z.2
G1 E5 F1800
;TYPE:Inner wall
;WIDTH:0.406856
G1 F900
G1 X90.703 Y126.694 E.01869
G1 X90.746 Y127.215 E.01504
;WIDTH:0.395318
G1 X90.863 Y127.752 E.0153
;WIDTH:0.397187
G1 X91.098 Y128.228 E.01484
;WIDTH:0.404414
G1 X91.487 Y128.682 E.01708
G1 X91.737 Y128.872 E.00896
;WIDTH:0.400365
G1 X92.204 Y129.124 E.01499
G1 X92.751 Y129.253 E.01587
;WIDTH:0.408267
G1 X93.302 Y129.295 E.01595
G1 X93.86 Y129.632 E.01882
G1 X93.648 Y129.632 E.00612
;WIDTH:0.409364
G1 X93.038 Y129.631 E.01766
G1 X92.485 Y129.568 E.01611
;WIDTH:0.398853
G1 X91.973 Y129.41 E.01506
;WIDTH:0.407904
G1 X91.671 Y129.258 E.00975
G1 X91.262 Y128.965 E.01452
;WIDTH:0.404649
G1 X90.992 Y128.679 E.01122
;WIDTH:0.400174
G1 X90.764 Y128.358 E.01111
;WIDTH:0.397807
G1 X90.529 Y127.864 E.01534
;WIDTH:0.398083
G1 X90.413 Y127.382 E.01389
;WIDTH:0.406856
G1 X90.368 Y126.791 E.01704
G1 X90.368 Y126.177 E.01766
G1 E-3.5 F1800
;WIPE_START
G1 F900
G1 X90.64 Y126.596 E-1.5
;WIPE_END
G17
G3 Z.6 I1.184 J-.283 P1  F9000
G1 X89.925 Y123.607 Z.6
G1 Z.2
G1 E5 F1800
;WIDTH:0.467453
G1 F900
G1 X90.019 Y124.045 E.01504
;WIDTH:0.499999
G1 X90.113 Y124.483 E.01619
G1 X90.494 Y125.478 E.03846
G1 X90.814 Y126.103 E.02533
G1 X91.141 Y126.617 E.022
G1 X91.144 Y127.099 E.01741
G1 X91.247 Y127.624 E.01931
G1 X91.496 Y128.095 E.01924
G1 X91.875 Y128.478 E.01944
G1 X92.349 Y128.743 E.01963
G1 X92.829 Y128.85 E.01775
G1 X93.381 Y128.858 E.01991
G1 X93.955 Y129.219 E.02452
G1 X94.578 Y129.531 E.02515
G1 X95.297 Y129.813 E.02788
G1 X96.08 Y130.041 E.02945
M73 P1 R41
G1 X93.005 Y130.041 E.11105
G1 X92.38 Y129.961 E.02273
G1 X91.799 Y129.777 E.02201
M73 P2 R41
G1 X91.474 Y129.623 E.01298
G1 X90.973 Y129.261 E.02233
G1 X90.555 Y128.805 E.02236
G1 X90.232 Y128.254 E.02305
G1 X90.035 Y127.664 E.02244
G1 X89.957 Y126.961 E.02553
G1 X89.957 Y124.42 E.09174
G1 X89.941 Y124.013 E.0147
;WIDTH:0.467453
G1 X89.927 Y123.647 E.01231
G1 E-3.5 F1800
;WIPE_START
G1 F900
G1 X90.019 Y124.045 E-1.22701
G1 X90.038 Y124.134 E-.27299
;WIPE_END
G17
G3 Z.6 I1.215 J.072 P1  F9000
G1 X90.414 Y117.797 Z.6
G1 Z.2
G1 E5 F1800
;WIDTH:0.499999
G1 F900
G1 X90.414 Y93.22 E.88736
G1 X90.429 Y92.916 E.01098
G1 X90.531 Y92.284 E.02313
G1 X90.772 Y91.708 E.02254
G1 X91.082 Y91.278 E.01913
G1 X91.468 Y90.925 E.01891
G1 X91.936 Y90.651 E.01957
G1 X92.435 Y90.484 E.01898
G1 X93.064 Y90.414 E.02286
G1 X117.781 Y90.416 E.89244
G1 X117.07 Y90.863 E.03032
G1 X116.565 Y91.245 E.02289
G1 X115.873 Y91.877 E.03383
G1 X115.253 Y92.58 E.03384
G1 X114.712 Y93.346 E.03384
G1 X114.258 Y94.165 E.03384
G1 X113.895 Y95.029 E.03384
G1 X113.627 Y95.927 E.03384
G1 X113.458 Y96.849 E.03384
G1 X113.389 Y97.783 E.03384
G1 X113.422 Y98.72 E.03384
G1 X113.556 Y99.647 E.03384
G1 X113.789 Y100.555 E.03384
G1 X114.118 Y101.432 E.03384
G1 X114.541 Y102.269 E.03384
G1 X115.051 Y103.055 E.03384
G1 X115.644 Y103.781 E.03384
G1 X116.311 Y104.439 E.03384
G1 X117.046 Y105.021 E.03384
G1 X117.839 Y105.52 E.03384
G1 X118.681 Y105.931 E.03384
G1 X119.563 Y106.248 E.03384
G1 X120.474 Y106.468 E.03384
G1 X121.403 Y106.588 E.03384
G1 X122.34 Y106.608 E.03384
G1 X123.274 Y106.526 E.03384
G1 X124.193 Y106.343 E.03384
G1 X125.087 Y106.063 E.03384
G1 X125.946 Y105.687 E.03384
G1 X126.759 Y105.221 E.03384
G1 X127.517 Y104.67 E.03384
G1 X128.211 Y104.04 E.03384
G1 X128.832 Y103.339 E.03384
G1 X129.308 Y102.679 E.02938
G1 X129.586 Y102.203 E.01989
G1 X129.586 Y126.78 E.88736
G1 X129.551 Y127.267 E.01763
G1 X129.461 Y127.74 E.01741
G1 X129.228 Y128.292 E.0216
G1 X128.918 Y128.722 E.01914
G1 X128.531 Y129.076 E.01893
G1 X128.069 Y129.347 E.01936
G1 X127.565 Y129.516 E.0192
G1 X126.936 Y129.586 E.02284
G1 X102.217 Y129.586 E.8925
G1 X102.93 Y129.137 E.03042
G1 X103.435 Y128.755 E.02289
G1 X104.127 Y128.123 E.03383
G1 X104.747 Y127.42 E.03384
G1 X105.288 Y126.654 E.03384
G1 X105.742 Y125.835 E.03384
G1 X106.105 Y124.971 E.03384
G1 X106.373 Y124.073 E.03384
G1 X106.542 Y123.151 E.03384
G1 X106.611 Y122.217 E.03384
G1 X106.578 Y121.28 E.03384
G1 X106.444 Y120.353 E.03384
G1 X106.211 Y119.445 E.03384
G1 X105.882 Y118.568 E.03384
G1 X105.459 Y117.731 E.03384
G1 X104.949 Y116.945 E.03384
G1 X104.356 Y116.219 E.03384
G1 X103.689 Y115.561 E.03384
G1 X102.954 Y114.979 E.03384
G1 X102.161 Y114.48 E.03384
G1 X101.319 Y114.069 E.03384
G1 X100.437 Y113.752 E.03384
G1 X99.526 Y113.532 E.03384
G1 X98.597 Y113.412 E.03384
G1 X97.66 Y113.392 E.03384
G1 X96.726 Y113.474 E.03384
G1 X95.807 Y113.657 E.03384
G1 X94.913 Y113.937 E.03384
G1 X94.054 Y114.313 E.03384
G1 X93.241 Y114.779 E.03383
G1 X92.483 Y115.33 E.03384
G1 X91.789 Y115.96 E.03384
G1 X91.168 Y116.661 E.03384
G1 X90.692 Y117.321 E.02938
G1 X90.434 Y117.762 E.01844
G1 E-3.5 F1800
;WIPE_START
G1 F900
G1 X90.434 Y117.262 E-1.5
;WIPE_END
G17
G3 Z.6 I-1.201 J-.194 P1  F9000
G1 X89.957 Y120.214 Z.6
G1 Z.2
G1 E5 F1800
G1 F900
G1 X89.957 Y93.036 E.98127
G1 X90.024 Y92.391 E.0234
G1 X90.153 Y91.946 E.01674
G1 X90.377 Y91.474 E.01886
G1 X90.739 Y90.973 E.02233
G1 X91.195 Y90.555 E.02235
G1 X91.746 Y90.232 E.02304
G1 X92.336 Y90.035 E.02245
G1 X93.039 Y89.957 E.02553
G1 X120.201 Y89.96 E.98071
G1 X120.018 Y89.999 E.00673
G1 X119.158 Y90.271 E.03259
G1 X118.14 Y90.738 E.04043
G1 X117.343 Y91.229 E.03379
G1 X116.87 Y91.585 E.02137
G1 X116.213 Y92.182 E.03205
G1 X115.624 Y92.846 E.03205
G1 X115.111 Y93.57 E.03205
G1 X114.678 Y94.345 E.03205
G1 X114.332 Y95.163 E.03205
G1 X114.076 Y96.013 E.03205
G1 X113.913 Y96.886 E.03205
G1 X113.846 Y97.771 E.03205
G1 X113.875 Y98.658 E.03205
G1 X113.999 Y99.537 E.03205
G1 X114.218 Y100.397 E.03205
G1 X114.528 Y101.229 E.03205
G1 X114.926 Y102.023 E.03205
G1 X115.408 Y102.768 E.03205
G1 X115.967 Y103.458 E.03205
G1 X116.598 Y104.082 E.03205
G1 X117.292 Y104.636 E.03205
G1 X118.042 Y105.11 E.03205
G1 X118.839 Y105.502 E.03205
G1 X119.674 Y105.804 E.03205
G1 X120.536 Y106.015 E.03205
G1 X121.416 Y106.131 E.03205
G1 X122.303 Y106.152 E.03205
G1 X123.188 Y106.077 E.03205
G1 X124.059 Y105.906 E.03205
G1 X124.907 Y105.643 E.03205
G1 X125.721 Y105.289 E.03205
G1 X126.493 Y104.85 E.03205
G1 X127.212 Y104.329 E.03205
G1 X127.871 Y103.734 E.03205
G1 X128.462 Y103.072 E.03205
G1 X128.977 Y102.349 E.03205
G1 X129.412 Y101.575 E.03205
G1 X129.761 Y100.759 E.03205
G1 X130.043 Y99.786 E.03657
G1 X130.043 Y126.79 E.97501
G1 X130 Y127.368 E.02093
G1 X129.898 Y127.872 E.01854
G1 X129.623 Y128.526 E.02562
G1 X129.261 Y129.027 E.02233
G1 X128.804 Y129.445 E.02237
G1 X128.259 Y129.765 E.02282
G1 X127.664 Y129.965 E.02267
G1 X126.961 Y130.043 E.02552
G1 X99.786 Y130.043 E.98118
G1 X99.982 Y130.001 E.00722
G1 X100.829 Y129.735 E.03205
G1 X101.633 Y129.384 E.03169
G1 X102.118 Y129.117 E.01996
G1 X102.657 Y128.771 E.02315
