; HEADER_BLOCK_START
; generated by OrcaSlicer 1.7.0 on 2023-12-17 at 14:44:38
; total layer number: 60
; HEADER_BLOCK_END

; THUMBNAIL_BLOCK_START
; THUMBNAIL_BLOCK_END

; external perimeters extrusion width = 0.40mm
; perimeters extrusion width = 0.45mm
; infill extrusion width = 0.45mm
; solid infill extrusion width = 0.40mm
; top infill extrusion width = 0.40mm
; first layer extrusion width = 0.50mm

; EXECUTABLE_BLOCK_START
EXCLUDE_OBJECT_DEFINE NAME=Smaller_Glue_Sticc_Holder_parts_-_Blank_Storage_3_.stl_id_0_copy_0 CENTER=110,110 POLYGON=[[89.25,93],[89.2504,92.9477],[89.2548,92.8155],[89.261,92.7131],[89.2756,92.563],[89.3072,92.3477],[89.3246,92.2557],[89.3401,92.1829],[89.39,91.9848],[89.4337,91.8406],[89.4434,91.8114],[89.4816,91.7027],[89.5643,91.4973],[89.5842,91.4525],[89.7286,91.1668],[89.7612,91.1099],[89.928,90.8493],[89.9723,90.7873],[90.018,90.7261],[90.0334,90.7061],[90.2155,90.4882],[90.255,90.4451],[90.4304,90.2688],[90.4882,90.2155],[90.5195,90.1876],[90.5858,90.1309],[90.6946,90.0423],[90.7681,89.9864],[90.7873,89.9723],[90.8126,89.9541],[90.9049,89.8898],[90.9269,89.8751],[90.9388,89.8673],[91.0774,89.7808],[91.1099,89.7612],[91.2545,89.681],[91.3059,89.6556],[91.4525,89.5842],[91.5893,89.5255],[91.7141,89.4792],[91.8114,89.4434],[91.9434,89.4019],[91.9558,89.3983],[92.1828,89.3401],[92.2639,89.323],[92.4229,89.2957],[92.552,89.2769],[92.628,89.2685],[92.7106,89.2615],[92.8552,89.2529],[92.9016,89.2513],[93,89.25],[127,89.25],[127.292,89.2614],[127.362,89.2675],[127.657,89.308],[127.751,89.3259],[127.754,89.3266],[128.02,89.3913],[128.139,89.427],[128.164,89.4352],[128.304,89.4839],[128.507,89.5661],[128.51,89.5675],[128.837,89.7309],[128.865,89.7465],[129.155,89.9307],[129.198,89.962],[129.278,90.0209],[129.295,90.0345],[129.507,90.2116],[129.558,90.2582],[129.733,90.4319],[129.788,90.4925],[129.816,90.5231],[130.038,90.8015],[130.049,90.8164],[130.111,90.9055],[130.135,90.9426],[130.253,91.1352],[130.321,91.2586],[130.432,91.4898],[130.476,91.5936],[130.573,91.8614],[130.599,91.9479],[130.602,91.9573],[130.673,92.2457],[130.677,92.2641],[130.723,92.5541],[130.732,92.6281],[130.733,92.6385],[130.75,93],[130.75,127],[130.75,127.052],[130.747,127.141],[130.738,127.296],[130.724,127.437],[130.691,127.661],[130.66,127.817],[130.608,128.023],[130.564,128.166],[130.433,128.51],[130.416,128.548],[130.267,128.84],[130.239,128.89],[130.067,129.158],[130.028,129.213],[129.976,129.282],[129.784,129.512],[129.739,129.561],[129.632,129.671],[129.512,129.784],[129.474,129.818],[129.434,129.852],[129.315,129.95],[129.295,129.966],[129.232,130.014],[129.213,130.028],[129.181,130.051],[129.077,130.122],[129.055,130.137],[128.922,130.219],[128.89,130.239],[128.738,130.323],[128.569,130.406],[128.403,130.478],[128.189,130.557],[128.049,130.6],[127.817,130.66],[127.736,130.677],[127.598,130.701],[127.437,130.724],[127.372,130.732],[127.3,130.738],[127.15,130.747],[127.098,130.749],[127,130.75],[93,130.75],[92.7083,130.739],[92.6385,130.733],[92.343,130.692],[92.2493,130.674],[92.2457,130.673],[91.9803,130.609],[91.8614,130.573],[91.8362,130.565],[91.6963,130.516],[91.4932,130.434],[91.4898,130.432],[91.1628,130.269],[91.1352,130.253],[90.8455,130.069],[90.8015,130.038],[90.7223,129.979],[90.7048,129.966],[90.4925,129.788],[90.4417,129.742],[90.2674,129.568],[90.2116,129.507],[90.1844,129.477],[89.962,129.198],[89.9513,129.184],[89.8895,129.095],[89.8648,129.057],[89.7465,128.865],[89.6788,128.741],[89.5675,128.51],[89.5237,128.406],[89.427,128.139],[89.4006,128.052],[89.3979,128.043],[89.3266,127.754],[89.3229,127.736],[89.2766,127.446],[89.2685,127.372],[89.2675,127.362],[89.25,127],[89.25,93]]
M73 P0 R28
;TYPE:Custom
START_PRINT EXTRUDER_TEMP=255  BED_TEMP=80
G90
G21
M83 ; use relative distances for extrusion
; filament start gcode
M106 S0
;LAYER_CHANGE
;Z:0.2
;HEIGHT:0.2
;BEFORE_LAYER_CHANGE
;0.2
G92 E0

G1 E-5 F1800
;_SET_FAN_SPEED_CHANGING_LAYER
G1 X81.982 Y82.649 F9000
G1 Z.4
G1 Z.2
G1 E5 F1800
;TYPE:Skirt
;WIDTH:0.5
G1 F900
G1 X82.887 Y81.761 E.04576
G1 X84.362 Y80.59 E.068
G1 X85.838 Y79.685 E.06251
G1 X87.511 Y78.914 E.06654
G1 X89.048 Y78.408 E.05841
G1 X90.684 Y78.059 E.06038
G1 X93 Y77.879 E.08389
G1 X122.822 Y77.879 E1.07675
G1 X125.805 Y78.277 E.10866
G1 X128.579 Y79.444 E.10866
G1 X130.863 Y81.209 E.10422
G1 X138.791 Y89.137 E.40482
G1 X140.618 Y91.528 E.10866
G1 X141.755 Y94.315 E.10866
G1 X142.121 Y97.178 E.10422
G1 X142.111 Y127.511 E1.0952
G1 X141.979 Y129.052 E.05585
G1 X141.654 Y130.71 E.061
G1 X141.035 Y132.606 E.07201
G1 X140.234 Y134.301 E.06769
G1 X139.209 Y135.911 E.06888
G1 X138.126 Y137.236 E.06182
G1 X137.083 Y138.267 E.05295
G1 X135.696 Y139.369 E.06394
G1 X134.206 Y140.292 E.06331
G1 X132.546 Y141.063 E.06609
G1 X130.987 Y141.583 E.05932
G1 X129.15 Y141.966 E.06774
G1 X127 Y142.121 E.07785
G1 X97.178 Y142.121 E1.07675
G1 X94.195 Y141.723 E.10866
G1 X91.421 Y140.556 E.10866
G1 X89.137 Y138.791 E.10422
G1 X81.209 Y130.863 E.40482
G1 X79.382 Y128.472 E.10866
G1 X78.245 Y125.685 E.10866
G1 X77.879 Y122.822 E.10422
G1 X77.891 Y92.437 E1.09707
G1 X78.039 Y90.818 E.05871
G1 X78.473 Y88.823 E.07373
G1 X79.083 Y87.104 E.06583
G1 X79.807 Y85.623 E.05952
G1 X80.747 Y84.149 E.06315
G1 X81.957 Y82.68 E.06871
G1 X82.309 Y82.969 F9000
G1 F900
G1 X82.313 Y82.965 E.00023
G1 X83.196 Y82.098 E.04465
G1 X84.624 Y80.964 E.06586
G1 X86.055 Y80.087 E.0606
G1 X87.673 Y79.341 E.06433
M73 P1 R28
G1 X89.164 Y78.85 E.05669
G1 X90.752 Y78.511 E.0586
G1 X93 Y78.336 E.08142
G1 X122.822 Y78.336 E1.07675
G1 X125.743 Y78.734 E.10644
M73 P1 R27
G1 X128.451 Y79.899 E.10644
G1 X130.539 Y81.533 E.09572
G1 X138.467 Y89.461 E.40482
G1 X140.251 Y91.808 E.10644
G1 X141.342 Y94.547 E.10644
G1 X141.664 Y97.178 E.09572
G1 X141.654 Y127.498 E1.09473
G1 X141.527 Y128.987 E.05398
G1 X141.21 Y130.601 E.05937
G1 X140.609 Y132.441 E.0699
G1 X139.832 Y134.084 E.0656
G1 X138.838 Y135.645 E.06683
G1 X137.68 Y137.045 E.0656
G1 X136.293 Y138.341 E.06855
G1 X134.931 Y139.332 E.06081
G1 X133.625 Y140.079 E.05431
G1 X132.088 Y140.749 E.06053
G1 X130.611 Y141.209 E.05589
G1 X128.581 Y141.578 E.07448
G1 X127 Y141.664 E.05717
G1 X97.178 Y141.664 E1.07675
G1 X94.257 Y141.266 E.10644
G1 X91.549 Y140.101 E.10644
G1 X89.461 Y138.467 E.09572
G1 X81.533 Y130.539 E.40482
G1 X79.749 Y128.192 E.10644
G1 X78.658 Y125.453 E.10644
G1 X78.336 Y122.822 E.09572
G1 X78.348 Y92.451 E1.09656
G1 X78.492 Y90.882 E.05689
G1 X78.914 Y88.945 E.07158
G1 X79.505 Y87.279 E.06383
G1 X80.207 Y85.844 E.05768
G1 X81.116 Y84.419 E.06103
G1 X82.283 Y83 E.06632
G1 X82.636 Y83.29 F9000
G1 F900
G1 X82.644 Y83.28 E.00046
G1 X83.504 Y82.435 E.04354
G1 X84.887 Y81.338 E.06373
G1 X86.273 Y80.489 E.05868
G1 X87.835 Y79.769 E.06212
G1 X89.281 Y79.292 E.05496
G1 X90.82 Y78.963 E.05682
G1 X93 Y78.793 E.07895
G1 X122.822 Y78.793 E1.07675
M73 P2 R27
G1 X125.68 Y79.191 E.10418
G1 X128.32 Y80.355 E.10418
G1 X130.216 Y81.856 E.08731
G1 X138.144 Y89.784 E.40482
G1 X139.884 Y92.086 E.10418
G1 X140.927 Y94.776 E.10418
G1 X141.207 Y97.178 E.08731
G1 X141.197 Y127.485 E1.09425
G1 X141.053 Y129.074 E.05761
G1 X140.607 Y131.069 E.07382
G1 X140.182 Y132.276 E.0462
G1 X139.43 Y133.866 E.06351
G1 X138.466 Y135.379 E.06478
G1 X137.345 Y136.734 E.06349
G1 X136.006 Y137.985 E.06617
G1 X134.687 Y138.945 E.05891
G1 X133.422 Y139.67 E.05264
G1 X131.925 Y140.322 E.05894
G1 X130.494 Y140.767 E.05413
G1 X128.534 Y141.123 E.07192
G1 X127 Y141.207 E.05546
G1 X97.178 Y141.207 E1.07675
G1 X94.32 Y140.809 E.10418
G1 X91.68 Y139.645 E.10418
G1 X89.784 Y138.144 E.08731
G1 X81.856 Y130.216 E.40482
G1 X80.116 Y127.914 E.10418
G1 X79.073 Y125.224 E.10418
G1 X78.793 Y122.822 E.08731
G1 X78.804 Y92.465 E1.09605
G1 X78.944 Y90.947 E.05506
G1 X79.354 Y89.068 E.06944
G1 X79.928 Y87.454 E.06184
G1 X80.608 Y86.065 E.05585
G1 X81.485 Y84.689 E.05892
G1 X82.61 Y83.321 E.06395
; printing object Smaller+Glue+Sticc+Holder parts - Blank Storage (3).stl id:0 copy 0
G1 E-3.5 F1800
;WIPE_START
G1 F900
G1 X82.644 Y83.28 E-.15822
G1 X82.963 Y82.967 E-1.34178
;WIPE_END
EXCLUDE_OBJECT_START NAME=Smaller_Glue_Sticc_Holder_parts_-_Blank_Storage_3_.stl_id_0_copy_0
G17
G3 Z.6 I-.516 J1.102 P1  F9000
G1 X127.578 Y103.838 Z.6
G1 Z.2
G1 E5 F1800
;TYPE:Inner wall
;WIDTH:0.499999
G1 F900
G1 X127.657 Y103.799 E.00317
G1 X128.42 Y103.314 E.03264
G1 X129.127 Y102.751 E.03264
G1 X129.586 Y102.302 E.02318
G1 X129.586 Y126.965 E.89046
G1 X129.525 Y127.494 E.01923
G1 X129.359 Y128.039 E.02058
G1 X129.031 Y128.591 E.02318
G1 X128.744 Y128.894 E.01508
G1 X128.305 Y129.229 E.01993
G1 X127.742 Y129.473 E.02214
G1 X127.112 Y129.58 E.02307
G1 X102.303 Y129.585 E.89577
M73 P3 R27
G1 X102.943 Y128.902 E.03378
G1 X103.385 Y128.319 E.02642
G1 X103.858 Y127.549 E.03264
G1 X104.246 Y126.733 E.03264
G1 X104.544 Y125.879 E.03264
G1 X104.749 Y124.999 E.03264
G1 X104.859 Y124.101 E.03264
G1 X104.871 Y123.198 E.03264
G1 X104.786 Y122.298 E.03264
G1 X104.605 Y121.412 E.03264
G1 X104.33 Y120.551 E.03264
G1 X103.965 Y119.724 E.03264
G1 X103.512 Y118.941 E.03264
G1 X102.979 Y118.211 E.03264
G1 X102.37 Y117.543 E.03264
G1 X101.693 Y116.944 E.03264
G1 X100.956 Y116.421 E.03264
G1 X100.166 Y115.98 E.03264
G1 X99.334 Y115.627 E.03264
G1 X98.469 Y115.365 E.03264
G1 X97.581 Y115.197 E.03264
G1 X96.68 Y115.125 E.03264
G1 X95.776 Y115.151 E.03264
G1 X94.88 Y115.273 E.03264
G1 X94.003 Y115.491 E.03264
G1 X93.154 Y115.801 E.03264
G1 X92.343 Y116.201 E.03264
G1 X91.58 Y116.686 E.03264
G1 X90.873 Y117.249 E.03264
G1 X90.414 Y117.698 E.02318
G1 X90.421 Y92.93 E.89427
G1 X90.486 Y92.425 E.01839
G1 X90.662 Y91.915 E.01948
G1 X90.981 Y91.395 E.02202
G1 X91.373 Y91.001 E.02009
G1 X91.802 Y90.718 E.01854
G1 X92.34 Y90.527 E.02063
G1 X92.886 Y90.42 E.02009
G1 X117.695 Y90.415 E.89575
G1 X117.168 Y90.966 E.02752
G1 X116.615 Y91.681 E.03264
G1 X116.142 Y92.451 E.03264
G1 X115.754 Y93.267 E.03264
G1 X115.456 Y94.121 E.03264
G1 X115.251 Y95.001 E.03264
G1 X115.141 Y95.899 E.03264
G1 X115.129 Y96.802 E.03264
G1 X115.214 Y97.702 E.03264
G1 X115.395 Y98.588 E.03264
G1 X115.67 Y99.449 E.03264
G1 X116.035 Y100.276 E.03264
G1 X116.488 Y101.059 E.03264
G1 X117.021 Y101.789 E.03264
G1 X117.63 Y102.457 E.03264
G1 X118.307 Y103.056 E.03264
G1 X119.044 Y103.579 E.03264
G1 X119.834 Y104.02 E.03264
G1 X120.666 Y104.373 E.03264
G1 X121.531 Y104.635 E.03264
G1 X122.419 Y104.803 E.03264
G1 X123.32 Y104.875 E.03264
G1 X124.224 Y104.849 E.03264
G1 X125.12 Y104.727 E.03264
G1 X125.997 Y104.509 E.03264
G1 X126.846 Y104.199 E.03264
G1 X127.542 Y103.855 E.02802
G1 X127.374 Y103.431 F9000
G1 F900
G1 X127.414 Y103.411 E.00162
G1 X128.137 Y102.955 E.03087
G1 X128.807 Y102.424 E.03087
G1 X129.416 Y101.823 E.03087
G1 X130.043 Y101.033 E.03642
G1 X130.037 Y127.074 E.94024
G1 X129.973 Y127.583 E.01853
G1 X129.78 Y128.22 E.02404
G1 X129.513 Y128.693 E.01958
G1 X129.177 Y129.121 E.01966
G1 X128.667 Y129.538 E.02379
G1 X128.202 Y129.792 E.01914
G1 X127.7 Y129.953 E.01902
G1 X127.137 Y130.037 E.02057
G1 X101.034 Y130.042 E.94247
G1 X101.222 Y129.913 E.00823
G1 X101.902 Y129.344 E.03201
G1 X102.581 Y128.624 E.03573
G1 X102.997 Y128.077 E.02481
G1 X103.447 Y127.35 E.03086
G1 X103.816 Y126.579 E.03087
G1 X104.1 Y125.772 E.03087
G1 X104.296 Y124.94 E.03087
G1 X104.402 Y124.092 E.03087
G1 X104.415 Y123.237 E.03087
G1 X104.338 Y122.386 E.03087
G1 X104.169 Y121.548 E.03087
G1 X103.911 Y120.732 E.03087
G1 X103.567 Y119.95 E.03087
G1 X103.142 Y119.208 E.03087
G1 X102.639 Y118.517 E.03087
G1 X102.065 Y117.883 E.03087
G1 X101.426 Y117.315 E.03087
G1 X100.73 Y116.819 E.03087
G1 X99.984 Y116.4 E.03087
G1 X99.199 Y116.063 E.03087
G1 X98.381 Y115.813 E.03087
G1 X97.541 Y115.652 E.03087
G1 X96.689 Y115.582 E.03087
G1 X95.835 Y115.604 E.03087
G1 X94.987 Y115.717 E.03087
G1 X94.157 Y115.921 E.03087
G1 X93.353 Y116.213 E.03087
G1 X92.586 Y116.589 E.03087
G1 X91.863 Y117.045 E.03087
G1 X91.193 Y117.576 E.03087
G1 X90.584 Y118.177 E.03087
G1 X89.957 Y118.967 E.03642
G1 X89.957 Y93.117 E.93333
G1 X89.97 Y92.804 E.01132
G1 X90.043 Y92.308 E.0181
G1 X90.241 Y91.734 E.02191
G1 X90.51 Y91.275 E.01923
G1 X90.888 Y90.814 E.02154
G1 X91.336 Y90.459 E.02064
G1 X91.8 Y90.208 E.01903
G1 X92.304 Y90.061 E.01894
G1 X92.862 Y89.963 E.02048
G1 X118.967 Y89.958 E.94252
G1 X118.778 Y90.087 E.00825
G1 X118.104 Y90.651 E.03172
M73 P4 R27
G1 X117.528 Y91.248 E.02997
G1 X117.003 Y91.923 E.03087
G1 X116.553 Y92.65 E.03087
G1 X116.184 Y93.421 E.03087
G1 X115.9 Y94.228 E.03087
G1 X115.704 Y95.06 E.03087
G1 X115.598 Y95.908 E.03087
G1 X115.585 Y96.763 E.03087
G1 X115.662 Y97.614 E.03087
G1 X115.831 Y98.452 E.03087
G1 X116.089 Y99.268 E.03087
G1 X116.433 Y100.05 E.03087
G1 X116.858 Y100.792 E.03087
G1 X117.361 Y101.483 E.03087
G1 X117.935 Y102.117 E.03087
G1 X118.574 Y102.685 E.03087
G1 X119.27 Y103.181 E.03087
G1 X120.016 Y103.6 E.03087
G1 X120.801 Y103.937 E.03087
G1 X121.619 Y104.187 E.03087
G1 X122.459 Y104.348 E.03087
G1 X123.311 Y104.418 E.03087
G1 X124.165 Y104.396 E.03087
G1 X125.013 Y104.283 E.03087
G1 X125.843 Y104.079 E.03087
G1 X126.647 Y103.787 E.03087
G1 X127.338 Y103.449 E.0278
G1 X126.97 Y103.122 F9000
;TYPE:Outer wall
G1 F900
G1 X127.172 Y103.024 E.00812
G1 X127.855 Y102.595 E.0291
G1 X128.488 Y102.097 E.0291
G1 X129.064 Y101.533 E.0291
G1 X129.575 Y100.911 E.02904
G1 X129.966 Y100.322 E.02554
G1 X130.277 Y99.746 E.02363
G1 X130.5 Y99.197 E.02142
G1 X130.5 Y126.883 E.99963
G1 X130.475 Y127.405 E.01887
G1 X130.371 Y127.925 E.01916
G1 X130.107 Y128.585 E.02565
G1 X129.759 Y129.147 E.02388
G1 X129.349 Y129.579 E.02152
G1 X128.92 Y129.919 E.01976
G1 X128.383 Y130.213 E.02209
G1 X127.806 Y130.397 E.02188
G1 X127.162 Y130.494 E.02352
G1 X99.227 Y130.5 E1.00862
G1 X99.48 Y130.402 E.0098
G1 X100.341 Y129.956 E.03501
G1 X100.93 Y129.561 E.02562
G1 X101.57 Y129.029 E.03005
G1 X102.219 Y128.345 E.03402
G1 X102.61 Y127.835 E.02321
G1 X103.035 Y127.151 E.02909
G1 X103.385 Y126.425 E.0291
G1 X103.656 Y125.666 E.0291
G1 X103.843 Y124.882 E.0291
G1 X103.945 Y124.082 E.0291
G1 X103.96 Y123.277 E.0291
G1 X103.889 Y122.474 E.0291
G1 X103.732 Y121.683 E.0291
G1 X103.492 Y120.914 E.0291
G1 X103.17 Y120.175 E.0291
G1 X102.771 Y119.475 E.0291
G1 X102.299 Y118.822 E.0291
G1 X101.759 Y118.223 E.0291
G1 X101.159 Y117.686 E.0291
G1 X100.504 Y117.216 E.0291
G1 X99.803 Y116.819 E.0291
G1 X99.063 Y116.5 E.0291
G1 X98.293 Y116.262 E.0291
G1 X97.502 Y116.108 E.0291
G1 X96.699 Y116.039 E.0291
G1 X95.893 Y116.057 E.0291
G1 X95.094 Y116.162 E.0291
G1 X94.311 Y116.351 E.0291
G1 X93.552 Y116.624 E.0291
G1 X92.828 Y116.976 E.0291
G1 X92.145 Y117.405 E.0291
G1 X91.512 Y117.903 E.0291
G1 X90.936 Y118.467 E.0291
G1 X90.425 Y119.089 E.02904
G1 X90.034 Y119.678 E.02554
G1 X89.723 Y120.254 E.02363
G1 X89.5 Y120.803 E.02142
G1 X89.5 Y93.117 E.99963
G1 X89.514 Y92.776 E.01232
G1 X89.599 Y92.191 E.02134
G1 X89.819 Y91.554 E.02434
G1 X90.132 Y91.018 E.02239
G1 X90.568 Y90.485 E.02488
G1 X91.085 Y90.077 E.02379
G1 X91.633 Y89.781 E.02248
G1 X92.426 Y89.55 E.02983
G1 X92.838 Y89.506 E.01496
G1 X120.773 Y89.5 E1.00862
M73 P4 R26
G1 X120.458 Y89.626 E.01225
G1 X119.7 Y90.02 E.03082
G1 X119.07 Y90.439 E.02735
G1 X118.432 Y90.969 E.02995
G1 X117.887 Y91.531 E.02823
G1 X117.39 Y92.165 E.0291
G1 X116.965 Y92.849 E.0291
G1 X116.615 Y93.575 E.0291
G1 X116.344 Y94.334 E.0291
G1 X116.157 Y95.118 E.0291
G1 X116.055 Y95.918 E.0291
G1 X116.04 Y96.723 E.0291
G1 X116.111 Y97.526 E.0291
G1 X116.268 Y98.317 E.0291
G1 X116.508 Y99.086 E.0291
G1 X116.83 Y99.825 E.0291
G1 X117.229 Y100.525 E.0291
G1 X117.701 Y101.178 E.0291
G1 X118.241 Y101.777 E.0291
G1 X118.841 Y102.314 E.0291
G1 X119.496 Y102.784 E.0291
G1 X120.197 Y103.181 E.0291
G1 X120.937 Y103.5 E.0291
G1 X121.707 Y103.738 E.0291
G1 X122.498 Y103.892 E.0291
G1 X123.301 Y103.961 E.0291
G1 X124.107 Y103.943 E.0291
G1 X124.906 Y103.838 E.0291
G1 X125.689 Y103.649 E.0291
G1 X126.448 Y103.376 E.0291
G1 X126.934 Y103.139 E.01954
G1 E-3.5 F1800
;WIPE_START
G1 F900
G1 X127.172 Y103.024 E-.79445
G1 X127.372 Y102.899 E-.70555
;WIPE_END
G17
G3 Z.6 I-.937 J-.776 P1  F9000
G1 X116.283 Y116.283 Z.6
G1 Z.2
G1 E5 F1800
;TYPE:Bottom surface
;WIDTH:0.505218
