; HEADER_BLOCK_START
; generated by OrcaSlicer 1.7.0 on 2023-11-11 at 21:04:24
; total layer number: 250
; HEADER_BLOCK_END

; THUMBNAIL_BLOCK_START
; THUMBNAIL_BLOCK_END

; external perimeters extrusion width = 0.40mm
; perimeters extrusion width = 0.45mm
; infill extrusion width = 0.45mm
; solid infill extrusion width = 0.40mm
; top infill extrusion width = 0.40mm
; first layer extrusion width = 0.50mm

; EXECUTABLE_BLOCK_START
EXCLUDE_OBJECT_DEFINE NAME=temperature_tower.stl_id_0_copy_0 CENTER=110,110 POLYGON=[[87.7562,105],[127.785,105],[127.995,105.006],[128.145,105.016],[128.154,105.016],[128.208,105.021],[128.251,105.025],[128.285,105.029],[128.336,105.035],[128.473,105.053],[128.503,105.057],[128.535,105.062],[128.627,105.078],[128.792,105.11],[128.857,105.124],[129.04,105.17],[129.133,105.195],[129.309,105.25],[129.361,105.267],[129.444,105.296],[129.511,105.321],[129.55,105.336],[129.663,105.381],[129.684,105.389],[129.752,105.418],[129.762,105.423],[129.785,105.433],[129.943,105.507],[129.987,105.529],[130.246,105.668],[130.375,105.745],[130.517,105.836],[130.746,105.998],[131.063,106.257],[131.334,106.516],[131.508,106.704],[131.566,106.772],[131.708,106.947],[131.76,107.017],[131.877,107.18],[131.916,107.238],[132.009,107.383],[132.036,107.427],[132.11,107.555],[132.125,107.582],[132.185,107.694],[132.19,107.704],[132.23,107.783],[132.244,107.811],[132.242,112.192],[132.237,112.204],[132.22,112.237],[132.197,112.282],[132.166,112.342],[132.124,112.42],[132.074,112.508],[132.021,112.597],[131.943,112.72],[131.895,112.794],[131.777,112.962],[131.744,113.006],[131.575,113.218],[131.565,113.231],[131.353,113.465],[131.334,113.484],[131.055,113.75],[130.877,113.9],[130.738,114.008],[130.382,114.25],[130.369,114.258],[130.135,114.394],[129.939,114.495],[129.891,114.518],[129.785,114.567],[129.762,114.577],[129.752,114.582],[129.684,114.611],[129.663,114.619],[129.55,114.664],[129.519,114.676],[129.458,114.699],[129.444,114.704],[129.361,114.733],[129.32,114.746],[129.273,114.762],[129.112,114.811],[129.04,114.83],[128.857,114.876],[128.792,114.89],[128.627,114.922],[128.535,114.938],[128.503,114.943],[128.473,114.947],[128.336,114.965],[128.285,114.971],[128.251,114.975],[128.208,114.979],[128.154,114.984],[128.145,114.984],[127.995,114.994],[127.785,115],[87.7562,115],[87.7562,105]]
M73 P0 R77
;TYPE:Custom
START_PRINT EXTRUDER_TEMP=250  BED_TEMP=80
G90
G21
M83 ; use relative distances for extrusion
; filament start gcode
M106 S0
;LAYER_CHANGE
;Z:0.2
;HEIGHT:0.2
;BEFORE_LAYER_CHANGE
;0.2
G92 E0

G1 E-4 F1800
;_SET_FAN_SPEED_CHANGING_LAYER
M104 S250 ; set nozzle temperature
G1 Z.4 F12000
G1 X85.835 Y92.493
G1 Z.4
G1 Z.2
G1 E4 F1800
;TYPE:Skirt
;WIDTH:0.5
G1 F900
G1 X87.85 Y90.918 E.09721
G1 X90.075 Y89.656 E.09721
G1 X92.462 Y88.737 E.09721
G1 X94.958 Y88.179 E.09721
G1 X97.473 Y87.987 E.09585
G1 X127.913 Y87.988 E1.15693
G1 X129.415 Y88.055 E.05715
G1 X130.941 Y88.225 E.05836
G1 X133.155 Y88.703 E.08608
G1 X135.665 Y89.62 E.10155
G1 X137.907 Y90.852 E.09721
G1 X139.943 Y92.4 E.09721
G1 X141.728 Y94.232 E.09721
G1 X143.223 Y96.307 E.09721
G1 X144.397 Y98.579 E.09721
G1 X145.04 Y100.35 E.07158
G1 X145.635 Y103.177 E.10982
G1 X145.79 Y105.361 E.0832
G1 X145.79 Y114.64 E.35265
G1 X145.705 Y116.255 E.06148
G1 X145.428 Y118.118 E.07158
G1 X144.73 Y120.579 E.09721
G1 X143.677 Y122.91 E.09721
G1 X142.292 Y125.06 E.09721
G1 X140.114 Y127.446 E.1228
G1 X138.099 Y129.022 E.09721
G1 X135.873 Y130.283 E.09721
G1 X133.697 Y131.126 E.08871
G1 X132.728 Y131.402 E.03828
G1 X130.035 Y131.888 E.10401
G1 X127.784 Y132.013 E.08569
G1 X97.472 Y132.013 E1.15205
G1 X95.856 Y131.929 E.06148
G1 X93.993 Y131.651 E.07158
G1 X90.903 Y130.709 E.1228
G1 X89.202 Y129.9 E.07158
G1 X87.052 Y128.515 E.09721
G1 X84.665 Y126.337 E.1228
G1 X83.09 Y124.322 E.09721
G1 X82.129 Y122.702 E.07158
G1 X81.117 Y120.353 E.09721
G1 X80.463 Y117.88 E.09721
G1 X80.172 Y115.282 E.09937
G1 X80.159 Y105.3 E.37938
G1 X80.243 Y103.684 E.06148
G1 X80.521 Y101.821 E.07158
G1 X81.463 Y98.731 E.1228
G1 X82.272 Y97.03 E.07158
G1 X83.657 Y94.88 E.09721
G1 X85.808 Y92.523 E.12128
G1 X86.145 Y92.83 F12000
G1 F900
G1 X86.149 Y92.825 E.00024
G1 X88.112 Y91.292 E.09464
G1 X90.279 Y90.066 E.09464
G1 X92.603 Y89.172 E.09464
G1 X94.367 Y88.741 E.06902
G1 X96.494 Y88.476 E.08148
G1 X127.913 Y88.446 E1.19412
G1 X130.88 Y88.677 E.11311
G1 X133.041 Y89.146 E.08404
G1 X135.483 Y90.04 E.09883
G1 X137.665 Y91.24 E.09464
G1 X139.646 Y92.748 E.09464
G1 X141.384 Y94.533 E.09464
G1 X142.839 Y96.554 E.09464
G1 X143.98 Y98.767 E.09464
G1 X144.6 Y100.474 E.06902
G1 X145.18 Y103.223 E.1068
G1 X145.333 Y105.361 E.08146
G1 X145.333 Y114.64 E.35265
G1 X145.249 Y116.221 E.0602
G1 X144.982 Y118.017 E.06902
G1 X144.304 Y120.413 E.09464
G1 X143.28 Y122.683 E.09464
G1 X141.932 Y124.777 E.09464
G1 X139.8 Y127.114 E.12023
G1 X137.837 Y128.647 E.09464
G1 X135.67 Y129.874 E.09464
G1 X133.572 Y130.686 E.08552
G1 X132.603 Y130.962 E.03828
G1 X129.979 Y131.435 E.10133
G1 X127.784 Y131.556 E.08355
G1 X97.472 Y131.556 E1.15205
G1 X95.89 Y131.473 E.0602
G1 X94.094 Y131.205 E.06902
G1 X91.068 Y130.283 E.12023
G1 X89.428 Y129.503 E.06902
G1 X87.334 Y128.155 E.09464
G1 X84.997 Y126.023 E.12023
G1 X83.465 Y124.06 E.09464
G1 X82.538 Y122.498 E.06902
G1 X81.552 Y120.212 E.09464
G1 X80.913 Y117.805 E.09464
G1 X80.629 Y115.261 E.0973
G1 X80.616 Y105.3 E.37858
G1 X80.699 Y103.718 E.0602
G1 X80.967 Y101.922 E.06902
G1 X81.889 Y98.896 E.12023
G1 X82.669 Y97.256 E.06902
G1 X84.017 Y95.162 E.09464
G1 X86.118 Y92.859 E.11847
G1 X86.455 Y93.167 F12000
G1 F900
G1 X86.463 Y93.158 E.00047
G1 X88.373 Y91.667 E.09208
G1 X90.482 Y90.475 E.09208
G1 X92.744 Y89.607 E.09208
G1 X94.442 Y89.192 E.06645
G1 X96.515 Y88.932 E.0794
G1 X127.913 Y88.903 E1.19333
G1 X130.819 Y89.13 E.11078
G1 X132.927 Y89.589 E.082
G1 X135.302 Y90.459 E.09611
G1 X137.424 Y91.628 E.09208
G1 X139.35 Y93.097 E.09208
G1 X141.039 Y94.833 E.09208
G1 X142.454 Y96.8 E.09208
G1 X143.563 Y98.954 E.09208
G1 X144.16 Y100.597 E.06645
G1 X144.725 Y103.269 E.10378
G1 X144.876 Y105.361 E.07972
G1 X144.876 Y114.64 E.35265
G1 X144.794 Y116.187 E.05891
G1 X144.536 Y117.917 E.06645
G1 X143.877 Y120.248 E.09207
G1 X142.882 Y122.457 E.09208
G1 X141.573 Y124.495 E.09208
G1 X139.486 Y126.782 E.11766
G1 X137.576 Y128.272 E.09208
G1 X135.467 Y129.464 E.09208
G1 X133.446 Y130.247 E.08234
G1 X132.478 Y130.523 E.03828
G1 X129.923 Y130.981 E.09864
G1 X127.784 Y131.099 E.08142
G1 X97.472 Y131.099 E1.15205
G1 X95.924 Y131.017 E.05892
G1 X94.195 Y130.759 E.06645
G1 X91.233 Y129.856 E.11766
G1 X89.654 Y129.106 E.06645
G1 X87.616 Y127.796 E.09208
G1 X85.33 Y125.709 E.11766
G1 X83.839 Y123.799 E.09208
G1 X82.948 Y122.295 E.06645
G1 X81.987 Y120.071 E.09208
G1 X81.364 Y117.73 E.09208
G1 X81.085 Y115.24 E.09522
G1 X81.073 Y105.3 E.37779
G1 X81.155 Y103.752 E.05892
G1 X81.413 Y102.023 E.06645
G1 X82.316 Y99.061 E.11766
G1 X83.066 Y97.482 E.06645
G1 X84.376 Y95.444 E.09208
G1 X86.428 Y93.196 E.11567
G1 X86.764 Y93.504 F12000
G1 F900
G1 X86.777 Y93.49 E.00071
G1 X88.635 Y92.042 E.08951
G1 X90.685 Y90.884 E.08951
G1 X92.884 Y90.041 E.08951
G1 X94.517 Y89.643 E.06388
G1 X96.536 Y89.389 E.07732
G1 X127.913 Y89.36 E1.19253
G1 X130.758 Y89.583 E.10845
G1 X132.813 Y90.031 E.07996
G1 X135.12 Y90.878 E.09338
G1 X137.182 Y92.016 E.08951
G1 X138.54 Y93.007 E.06388
G1 X140.251 Y94.625 E.08951
G1 X141.704 Y96.478 E.08951
G1 X142.869 Y98.525 E.08951
G1 X143.72 Y100.721 E.08951
G1 X144.271 Y103.315 E.10076
G1 X144.419 Y105.361 E.07798
G1 X144.419 Y114.64 E.35265
G1 X144.338 Y116.154 E.05763
G1 X144.09 Y117.816 E.06388
G1 X143.451 Y120.083 E.08951
G1 X142.485 Y122.231 E.08951
M73 P0 R76
G1 X141.213 Y124.213 E.08951
G1 X139.172 Y126.45 E.1151
G1 X137.314 Y127.897 E.08951
G1 X135.263 Y129.055 E.08951
G1 X133.321 Y129.807 E.07916
G1 X132.352 Y130.083 E.03828
G1 X129.867 Y130.528 E.09596
G1 X127.784 Y130.642 E.07928
G1 X97.472 Y130.642 E1.15205
M73 P1 R76
G1 X95.958 Y130.561 E.05763
G1 X94.295 Y130.313 E.06388
G1 X91.399 Y129.43 E.1151
G1 X89.881 Y128.709 E.06388
G1 X87.899 Y127.437 E.08951
G1 X85.662 Y125.395 E.1151
G1 X84.214 Y123.537 E.08951
G1 X83.357 Y122.092 E.06388
G1 X82.422 Y119.93 E.08951
G1 X81.815 Y117.655 E.08951
G1 X81.542 Y115.219 E.09314
G1 X81.53 Y105.3 E.377
G1 X81.611 Y103.786 E.05763
G1 X81.859 Y102.123 E.06388
G1 X82.742 Y99.227 E.1151
G1 X83.463 Y97.709 E.06388
G1 X84.735 Y95.727 E.08951
G1 X86.737 Y93.533 E.11287
G1 X87.074 Y93.84 F12000
G1 F900
G1 X87.091 Y93.822 E.00095
G1 X88.896 Y92.417 E.08694
G1 X90.889 Y91.294 E.08694
G1 X93.025 Y90.476 E.08694
G1 X94.593 Y90.094 E.06131
G1 X96.557 Y89.845 E.07525
G1 X127.913 Y89.817 E1.19174
G1 X130.697 Y90.036 E.10612
G1 X132.7 Y90.474 E.07792
G1 X134.938 Y91.298 E.09066
G1 X136.941 Y92.404 E.08694
G1 X138.758 Y93.793 E.08694
G1 X140.351 Y95.435 E.08694
G1 X141.684 Y97.294 E.08694
G1 X142.729 Y99.329 E.08694
G1 X143.28 Y100.845 E.06131
G1 X143.816 Y103.36 E.09774
G1 X143.962 Y105.361 E.07624
G1 X143.962 Y114.64 E.35265
G1 X143.882 Y116.12 E.05635
G1 X143.644 Y117.716 E.06131
G1 X143.025 Y119.918 E.08694
G1 X142.088 Y122.005 E.08694
G1 X140.854 Y123.93 E.08694
G1 X138.858 Y126.117 E.11253
G1 X137.052 Y127.522 E.08694
G1 X135.06 Y128.646 E.08694
G1 X133.196 Y129.368 E.07598
G1 X132.227 Y129.644 E.03828
G1 X129.811 Y130.074 E.09328
G1 X127.784 Y130.185 E.07714
G1 X97.472 Y130.185 E1.15205
G1 X95.992 Y130.105 E.05635
G1 X94.396 Y129.867 E.06131
G1 X91.564 Y129.004 E.11253
G1 X90.107 Y128.311 E.06131
G1 X88.181 Y127.077 E.08694
G1 X85.994 Y125.081 E.11253
G1 X84.589 Y123.276 E.08694
G1 X83.766 Y121.888 E.06131
G1 X82.857 Y119.789 E.08694
G1 X82.266 Y117.579 E.08694
G1 X82.017 Y115.615 E.07525
G1 X81.987 Y114.7 E.0348
G1 X81.987 Y105.3 E.35727
G1 X82.067 Y103.82 E.05635
G1 X82.305 Y102.224 E.06131
G1 X83.168 Y99.392 E.11253
G1 X83.861 Y97.935 E.06131
G1 X85.095 Y96.009 E.08694
G1 X87.047 Y93.87 E.11006
G1 X87.36 Y94.238 F12000
G1 F900
G1 X88.604 Y93.179 E.06207
G1 X90.487 Y92.004 E.08437
G1 X92.523 Y91.119 E.08437
G1 X94.668 Y90.545 E.08437
G1 X96.578 Y90.302 E.07317
G1 X127.913 Y90.274 E1.19094
G1 X130.635 Y90.489 E.10379
G1 X132.586 Y90.917 E.07588
G1 X134.756 Y91.717 E.08794
G1 X136.699 Y92.792 E.08437
G1 X137.947 Y93.704 E.05875
G1 X139.562 Y95.227 E.08437
G1 X140.935 Y96.972 E.08437
G1 X142.312 Y99.516 E.10996
G1 X143.023 Y101.619 E.08437
G1 X143.361 Y103.406 E.06912
G1 X143.505 Y105.361 E.0745
G1 X143.505 Y114.64 E.35265
G1 X143.426 Y116.086 E.05506
G1 X143.05 Y118.274 E.08437
G1 X142.355 Y120.382 E.08437
G1 X141.356 Y122.365 E.08437
G1 X140.077 Y124.179 E.08437
G1 X139.035 Y125.321 E.05875
G1 X137.345 Y126.761 E.08437
G1 X135.461 Y127.936 E.08437
G1 X133.07 Y128.928 E.09839
G1 X130.519 Y129.526 E.0996
G1 X128.903 Y129.691 E.06173
G1 X96.699 Y129.699 E1.22394
G1 X93.837 Y129.273 E.10996
G1 X91.729 Y128.578 E.08437
G1 X90.333 Y127.914 E.05875
G1 X87.932 Y126.3 E.10996
G1 X86.79 Y125.258 E.05875
G1 X85.351 Y123.568 E.08437
G1 X84.176 Y121.685 E.08437
G1 X83.291 Y119.649 E.08437
G1 X82.606 Y116.838 E.10996
G1 X82.444 Y114.7 E.08148
G1 X82.444 Y105.3 E.35727
G1 X82.523 Y103.853 E.05506
G1 X82.899 Y101.665 E.08437
G1 X83.35 Y100.187 E.05875
G1 X84.592 Y97.574 E.10996
G1 X85.872 Y95.76 E.08437
G1 X86.914 Y94.618 E.05875
G1 X87.33 Y94.264 E.02078
; printing object temperature_tower.stl id:0 copy 0
G1 E-2.8 F1800
;WIPE_START
G1 F900
G1 X88.091 Y93.615 E-1.2
;WIPE_END
EXCLUDE_OBJECT_START NAME=temperature_tower.stl_id_0_copy_0
G1 Z.6 F12000
G1 X94.65 Y102.01 Z.6
G1 Z.2
G1 E4 F1800
;TYPE:Brim
G1 F900
G1 X94.731 Y101.933 E.00428
G1 X95.258 Y101.565 E.02439
G1 X95.832 Y101.28 E.02439
G1 X96.443 Y101.082 E.02439
G1 X97.079 Y100.976 E.02451
G1 X97.477 Y100.958 E.01514
G1 X127.906 Y100.959 E1.15648
G1 X128.644 Y101.003 E.02811
G1 X129.19 Y101.077 E.02095
G1 X129.905 Y101.261 E.02804
G1 X130.493 Y101.515 E.02435
G1 X131.038 Y101.855 E.02439
G1 X131.526 Y102.27 E.02439
G1 X131.949 Y102.754 E.02439
G1 X132.295 Y103.294 E.02439
G1 X132.558 Y103.879 E.02439
G1 X132.731 Y104.494 E.02428
G1 X132.819 Y105.372 E.03355
G1 X132.819 Y114.631 E.35189
G1 X132.771 Y115.279 E.02471
G1 X132.63 Y115.905 E.02439
G1 X132.398 Y116.504 E.02439
G1 X132.08 Y117.061 E.02439
G1 X131.684 Y117.566 E.02439
G1 X131.217 Y118.007 E.02439
G1 X130.691 Y118.374 E.02439
G1 X130.12 Y118.658 E.02424
G1 X129.189 Y118.923 E.03681
G1 X128.451 Y119.015 E.02824
G1 X127.779 Y119.042 E.02556
G1 X97.48 Y119.042 E1.15155
G1 X96.832 Y118.994 E.02471
G1 X96.206 Y118.853 E.02439
G1 X95.608 Y118.621 E.02439
G1 X95.05 Y118.303 E.02439
G1 X94.545 Y117.907 E.02439
G1 X94.105 Y117.441 E.02439
G1 X93.737 Y116.914 E.02439
G1 X93.452 Y116.34 E.02439
G1 X93.254 Y115.729 E.02439
G1 X93.148 Y115.093 E.02451
G1 X93.13 Y114.695 E.01514
G1 X93.13 Y105.308 E.35675
G1 X93.178 Y104.66 E.02471
G1 X93.319 Y104.034 E.02439
G1 X93.551 Y103.436 E.02439
G1 X93.869 Y102.878 E.02439
G1 X94.265 Y102.373 E.02439
G1 X94.621 Y102.037 E.01859
G1 X94.934 Y102.371 F12000
G1 F900
G1 X95.029 Y102.282 E.00494
G1 X95.483 Y101.965 E.02104
G1 X95.996 Y101.709 E.02181
G1 X96.562 Y101.526 E.02258
G1 X97.119 Y101.433 E.02149
G1 X97.491 Y101.415 E.01413
G1 X127.888 Y101.417 E1.1553
G1 X128.595 Y101.458 E.0269
G1 X129.095 Y101.525 E.01916
G1 X129.746 Y101.692 E.02555
G1 X130.271 Y101.917 E.02172
G1 X130.759 Y102.219 E.02181
G1 X131.197 Y102.59 E.02181
G1 X131.588 Y103.037 E.02258
G1 X131.887 Y103.503 E.02104
G1 X132.123 Y104.026 E.02181
G1 X132.281 Y104.591 E.0223
G1 X132.362 Y105.402 E.03096
G1 X132.362 Y114.609 E.34992
G1 X132.315 Y115.222 E.02336
G1 X132.194 Y115.762 E.02104
G1 X131.988 Y116.297 E.02181
G1 X131.693 Y116.814 E.02258
G1 X131.351 Y117.249 E.02104
G1 X130.935 Y117.644 E.02181
G1 X130.466 Y117.974 E.02181
G1 X129.965 Y118.224 E.02125
G1 X129.087 Y118.475 E.03474
G1 X128.419 Y118.558 E.02556
G1 X127.767 Y118.585 E.02481
G1 X97.492 Y118.585 E1.15063
G1 X96.91 Y118.542 E.0222
G1 X96.349 Y118.417 E.02181
G1 X95.814 Y118.211 E.02181
G1 X95.314 Y117.928 E.02181
G1 X94.862 Y117.575 E.02181
G1 X94.467 Y117.159 E.02181
G1 X94.137 Y116.689 E.02181
G1 X93.881 Y116.176 E.02181
G1 X93.698 Y115.61 E.02258
G1 X93.605 Y115.053 E.02149
G1 X93.587 Y114.681 E.01413
G1 X93.587 Y105.33 E.3554
G1 X93.63 Y104.738 E.02259
G1 X93.761 Y104.158 E.02258
G1 X93.97 Y103.624 E.02181
G1 X94.255 Y103.126 E.02181
G1 X94.611 Y102.675 E.02181
G1 X94.905 Y102.399 E.01535
G1 X95.218 Y102.732 F12000
G1 F900
G1 X95.311 Y102.645 E.00481
G1 X95.709 Y102.365 E.01851
G1 X96.161 Y102.137 E.01922
G1 X96.68 Y101.969 E.02075
G1 X97.16 Y101.889 E.01849
G1 X97.505 Y101.872 E.01313
G1 X127.871 Y101.874 E1.1541
G1 X128.546 Y101.913 E.0257
G1 X128.999 Y101.973 E.01739
G1 X129.588 Y102.123 E.02307
G1 X130.05 Y102.32 E.01909
G1 X130.481 Y102.585 E.01923
G1 X130.882 Y102.924 E.01998
G1 X131.227 Y103.321 E.01997
G1 X131.488 Y103.731 E.01848
G1 X131.688 Y104.174 E.01845
G1 X131.832 Y104.688 E.02031
G1 X131.905 Y105.432 E.02839
G1 X131.905 Y114.586 E.34794
G1 X131.86 Y115.164 E.022
G1 X131.751 Y115.638 E.0185
G1 X131.577 Y116.091 E.01846
G1 X131.307 Y116.566 E.02075
G1 X131.005 Y116.947 E.01848
G1 X130.653 Y117.283 E.01849
G1 X130.239 Y117.574 E.01923
G1 X129.81 Y117.791 E.01825
G1 X128.985 Y118.027 E.03265
G1 X128.376 Y118.102 E.02331
G1 X127.755 Y118.128 E.02364
G1 X97.504 Y118.127 E1.14971
M73 P2 R76
G1 X96.987 Y118.089 E.01972
G1 X96.492 Y117.98 E.01925
G1 X96.019 Y117.8 E.01923
G1 X95.578 Y117.552 E.01923
G1 X95.178 Y117.242 E.01923
G1 X94.829 Y116.876 E.01923
G1 X94.537 Y116.462 E.01923
G1 X94.31 Y116.011 E.0192
G1 X94.141 Y115.492 E.02075
G1 X94.061 Y115.012 E.01849
G1 X94.044 Y114.667 E.01313
G1 X94.044 Y105.352 E.35403
G1 X94.083 Y104.815 E.02046
G1 X94.203 Y104.283 E.02075
G1 X94.388 Y103.813 E.0192
G1 X94.641 Y103.374 E.01923
G1 X94.956 Y102.978 E.01923
G1 X95.189 Y102.759 E.01216
G1 X95.502 Y103.094 F12000
G1 F900
G1 X95.608 Y102.995 E.00552
G1 X95.953 Y102.754 E.01601
G1 X96.345 Y102.558 E.01663
G1 X96.799 Y102.413 E.01811
G1 X97.201 Y102.346 E.01551
G1 X97.52 Y102.329 E.01212
G1 X127.854 Y102.331 E1.15287
G1 X128.497 Y102.368 E.0245
G1 X128.904 Y102.422 E.01562
