; HEADER_BLOCK_START
; generated by OrcaSlicer 1.7.0 on 2023-11-06 at 19:21:11
; total layer number: 125
; HEADER_BLOCK_END

; THUMBNAIL_BLOCK_START
; THUMBNAIL_BLOCK_END

; external perimeters extrusion width = 0.40mm
; perimeters extrusion width = 0.45mm
; infill extrusion width = 0.45mm
; solid infill extrusion width = 0.40mm
; top infill extrusion width = 0.40mm
; first layer extrusion width = 0.50mm

; external perimeters extrusion width = 0.40mm
; perimeters extrusion width = 0.45mm
; infill extrusion width = 0.45mm
; solid infill extrusion width = 0.40mm
; top infill extrusion width = 0.40mm
; first layer extrusion width = 0.50mm

; EXECUTABLE_BLOCK_START
EXCLUDE_OBJECT_DEFINE NAME=Thicker_for_20x40_fans_1_.stl_id_0_copy_0 CENTER=128.604,128.657 POLYGON=[[104.504,106.657],[148.504,106.657],[152.704,144.257],[152.704,144.257],[152.704,149.557],[148.504,150.607],[142.319,150.657],[104.504,150.657],[104.504,150.657],[104.504,106.657]]
EXCLUDE_OBJECT_DEFINE NAME=hot_end_side_link_VampyreX13_Remix.stl_id_1_copy_0 CENTER=96.3964,96.4244 POLYGON=[[67.3121,98.693],[67.3169,98.6792],[67.3186,98.6742],[69.6832,91.8848],[72.9705,82.446],[73.4731,81.652],[120.746,69.3533],[121.683,69.4824],[122.724,70.0544],[123.878,71.166],[124.777,72.2488],[125.298,73.5572],[125.332,73.7064],[125.481,74.9574],[125.374,76.2516],[125.012,77.5796],[124.4,78.9271],[123.543,80.2817],[122.45,81.6301],[121.13,82.9598],[81.979,122.111],[75.8346,123.495],[75.749,123.444],[75.3086,123.166],[72.3474,121.294],[72.0719,120.071],[72.013,119.81],[67.3121,98.693]]
M73 P0 R83
;TYPE:Custom
START_PRINT EXTRUDER_TEMP=250  BED_TEMP=80
G90
G21
M83 ; use relative distances for extrusion
; filament start gcode
M106 S0
;LAYER_CHANGE
;Z:0.2
;HEIGHT:0.2
;BEFORE_LAYER_CHANGE
;0.2
G92 E0

G1 E-5 F3600
;_SET_FAN_SPEED_CHANGING_LAYER
SET_VELOCITY_LIMIT ACCEL=500 ACCEL_TO_DECEL=250
G1 Z.4 F12000
G1 X64.734 Y72.379
G1 Z.4
G1 Z.2
G1 E5 F2400
;TYPE:Skirt
;WIDTH:0.5
G1 F900
G1 X67.308 Y70.5 E.12111
G1 X70.265 Y69.32 E.12101
G1 X117.537 Y57.021 E1.85647
G1 X120.697 Y56.611 E.12111
G1 X122.484 Y56.73 E.06805
G1 X123.408 Y56.857 E.03545
G1 X127.76 Y58.288 E.17413
G1 X128.815 Y58.862 E.04563
G1 X131.566 Y60.878 E.12963
G1 X133.682 Y63.026 E.11458
G1 X135.267 Y65.015 E.09668
G1 X158.994 Y99.423 E1.5885
G1 X160.461 Y102.252 E.12111
G1 X161.246 Y106.589 E.16752
G1 X161.446 Y149.557 E1.63307
G1 X161.048 Y152.718 E.12111
G1 X160.535 Y154.289 E.06281
G1 X160.335 Y154.789 E.02047
G1 X158.791 Y157.577 E.12111
G1 X156.604 Y159.894 E.12111
G1 X153.91 Y161.596 E.12111
G1 X149.655 Y162.747 E.16751
G1 X141.825 Y163.399 E.29861
G1 X104.504 Y163.399 E1.41845
G1 X101.342 Y163.001 E.12111
G1 X98.379 Y161.83 E.12111
G1 X95.912 Y160.066 E.11526
G1 X63.755 Y130.703 E1.65502
G1 X61.689 Y128.277 E.12111
G1 X59.917 Y124.095 E.17262
G1 X54.874 Y101.462 E.88131
G1 X54.576 Y98.289 E.12111
G1 X55.279 Y94.502 E.1464
G1 X60.937 Y78.255 E.65387
G1 X62.204 Y75.631 E.11074
G1 X62.706 Y74.837 E.03571
G1 X64.708 Y72.41 E.11959
G1 X65.063 Y72.703 F12000
G1 F900
G1 X65.089 Y72.672 E.00153
G1 X67.629 Y70.846 E.11891
G1 X70.38 Y69.762 E.11238
G1 X117.652 Y57.464 E1.85647
G1 X120.756 Y57.068 E.11891
G1 X122.422 Y57.183 E.06346
G1 X123.346 Y57.31 E.03545
G1 X127.542 Y58.689 E.16788
G1 X128.596 Y59.263 E.04563
G1 X131.249 Y61.208 E.12498
G1 X133.33 Y63.318 E.11265
G1 X134.891 Y65.275 E.09513
G1 X158.618 Y99.682 E1.5885
G1 X160.051 Y102.463 E.11891
G1 X160.789 Y106.591 E.15938
M73 P0 R82
G1 X160.989 Y149.557 E1.63297
G1 X160.111 Y154.119 E.1766
G1 X159.911 Y154.619 E.02047
G1 X158.388 Y157.353 E.11891
G1 X156.225 Y159.613 E.11891
G1 X153.561 Y161.253 E.11891
G1 X149.614 Y162.292 E.15511
G1 X141.825 Y162.942 E.29704
G1 X104.504 Y162.942 E1.41845
G1 X101.401 Y162.544 E.11891
G1 X98.499 Y161.374 E.11891
G1 X96.22 Y159.729 E.10684
G1 X64.063 Y130.366 E1.65502
G1 X62.04 Y127.979 E.11891
G1 X60.363 Y123.995 E.1643
G1 X55.32 Y101.363 E.88126
G1 X55.035 Y98.247 E.11891
G1 X55.71 Y94.652 E.13901
G1 X61.369 Y78.405 E.65387
G1 X62.59 Y75.875 E.10677
G1 X63.092 Y75.081 E.03571
G1 X65.037 Y72.734 E.11586
G1 X65.391 Y73.029 F12000
G1 F900
G1 X65.443 Y72.967 E.00306
G1 X67.948 Y71.193 E.11667
G1 X70.495 Y70.205 E.10383
G1 X117.768 Y57.906 E1.85647
M73 P1 R82
G1 X120.813 Y57.525 E.11667
G1 X122.359 Y57.636 E.0589
G1 X123.283 Y57.763 E.03545
G1 X127.323 Y59.091 E.16163
G1 X128.378 Y59.665 E.04563
G1 X130.931 Y61.537 E.12033
G1 X132.085 Y62.648 E.06089
G1 X133.877 Y64.693 E.10333
G1 X158.242 Y99.942 E1.62857
G1 X159.641 Y102.674 E.11667
G1 X160.332 Y106.594 E.15128
G1 X160.532 Y149.557 E1.63288
G1 X159.686 Y153.95 E.17003
G1 X159.486 Y154.45 E.02047
G1 X157.986 Y157.128 E.11667
G1 X155.847 Y159.33 E.11667
G1 X153.214 Y160.907 E.11667
G1 X149.573 Y161.837 E.14283
G1 X141.825 Y162.485 E.29547
G1 X104.504 Y162.485 E1.41845
G1 X101.46 Y162.087 E.11667
G1 X98.622 Y160.919 E.11667
G1 X96.528 Y159.391 E.09849
G1 X64.372 Y130.028 E1.65502
G1 X62.392 Y127.682 E.11667
G1 X60.809 Y123.894 E.15602
G1 X55.766 Y101.263 E.88122
G1 X55.494 Y98.206 E.11667
G1 X56.142 Y94.803 E.13166
G1 X61.8 Y78.556 E.65387
G1 X62.976 Y76.12 E.1028
G1 X63.479 Y75.326 E.03571
G1 X65.366 Y73.06 E.11208
G1 X65.719 Y73.356 F12000
G1 F900
G1 X65.797 Y73.263 E.0046
G1 X68.266 Y71.543 E.11438
G1 X70.61 Y70.647 E.09536
G1 X117.883 Y58.348 E1.85647
G1 X122.297 Y58.088 E.16806
G1 X123.221 Y58.216 E.03545
G1 X127.105 Y59.492 E.15539
G1 X128.16 Y60.066 E.04563
G1 X130.614 Y61.866 E.11568
G1 X131.768 Y62.977 E.06089
G1 X133.526 Y64.985 E.10141
G1 X157.865 Y100.201 E1.62702
G1 X159.231 Y102.883 E.11438
G1 X159.875 Y106.596 E.14323
G1 X160.075 Y149.557 E1.63279
G1 X159.262 Y153.78 E.16346
G1 X159.062 Y154.28 E.02047
G1 X157.584 Y156.902 E.11438
G1 X155.471 Y159.044 E.11438
G1 X152.869 Y160.557 E.11438
G1 X149.531 Y161.381 E.13067
G1 X141.825 Y162.028 E.2939
G1 X104.504 Y162.028 E1.41845
G1 X101.521 Y161.63 E.11438
G1 X98.747 Y160.463 E.11438
G1 X96.836 Y159.054 E.09023
G1 X64.68 Y129.691 E1.65502
G1 X62.745 Y127.385 E.11438
G1 X61.254 Y123.794 E.14779
G1 X56.213 Y101.164 E.88117
G1 X55.953 Y98.166 E.11438
G1 X56.573 Y94.953 E.12436
G1 X62.232 Y78.706 E.65387
G1 X63.362 Y76.364 E.09882
M73 P1 R81
G1 X63.865 Y75.57 E.03571
G1 X65.693 Y73.386 E.10826
G1 X66.046 Y73.683 F12000
G1 F900
G1 X66.15 Y73.56 E.00613
G1 X68.583 Y71.895 E.11205
G1 X70.725 Y71.089 E.08698
G1 X117.998 Y58.791 E1.85647
G1 X122.235 Y58.541 E.16131
G1 X123.159 Y58.668 E.03545
G1 X126.886 Y59.894 E.14914
G1 X127.941 Y60.468 E.04563
G1 X130.297 Y62.195 E.11103
G1 X131.451 Y63.307 E.06089
G1 X133.174 Y65.277 E.09948
G1 X157.489 Y100.461 E1.62547
M73 P2 R81
G1 X158.819 Y103.092 E.11205
G1 X159.418 Y106.599 E.13522
G1 X159.618 Y149.557 E1.6327
G1 X158.837 Y153.61 E.15689
G1 X158.637 Y154.11 E.02047
G1 X157.183 Y156.674 E.11205
G1 X155.095 Y158.756 E.11205
G1 X152.526 Y160.203 E.11205
G1 X149.49 Y160.926 E.11863
G1 X141.825 Y161.571 E.29233
G1 X104.504 Y161.571 E1.41845
G1 X101.583 Y161.173 E.11205
G1 X98.875 Y160.007 E.11205
G1 X97.144 Y158.716 E.08205
G1 X64.988 Y129.353 E1.65502
G1 X63.099 Y127.089 E.11205
G1 X61.7 Y123.693 E.13959
G1 X56.659 Y101.065 E.88112
G1 X56.413 Y98.127 E.11205
G1 X57.005 Y95.103 E.1171
G1 X62.664 Y78.856 E.65387
G1 X63.748 Y76.609 E.09485
G1 X64.251 Y75.815 E.03571
G1 X66.02 Y73.714 E.10439
G1 X66.372 Y74.011 F12000
G1 F900
G1 X66.502 Y73.857 E.00767
G1 X68.898 Y72.249 E.10966
G1 X70.84 Y71.532 E.0787
G1 X118.113 Y59.233 E1.85647
G1 X122.172 Y58.994 E.15455
G1 X123.096 Y59.121 E.03545
G1 X126.668 Y60.295 E.1429
G1 X127.723 Y60.869 E.04563
G1 X129.98 Y62.524 E.10638
G1 X131.134 Y63.636 E.06089
G1 X132.822 Y65.569 E.09755
G1 X157.113 Y100.72 E1.62392
G1 X158.407 Y103.299 E.10966
G1 X158.961 Y106.601 E.12725
G1 X159.161 Y149.557 E1.6326
G1 X158.413 Y153.44 E.15032
G1 X158.213 Y153.94 E.02047
G1 X156.782 Y156.446 E.10966
G1 X154.721 Y158.465 E.10966
G1 X152.186 Y159.844 E.10966
G1 X149.449 Y160.471 E.10674
G1 X141.825 Y161.114 E.29076
G1 X104.504 Y161.114 E1.41845
G1 X101.646 Y160.716 E.10966
G1 X99.006 Y159.552 E.10966
G1 X97.453 Y158.379 E.07397
G1 X65.296 Y129.016 E1.65502
G1 X63.454 Y126.795 E.10966
G1 X62.146 Y123.593 E.13145
G1 X57.105 Y100.965 E.88108
G1 X56.872 Y98.089 E.10966
G1 X57.437 Y95.254 E.10988
G1 X63.095 Y79.007 E.65387
G1 X64.135 Y76.853 E.09088
G1 X64.637 Y76.059 E.03571
G1 X66.346 Y74.042 E.10048
; printing object Thicker_for_20x40_fans (1).stl id:0 copy 0
G1 E-3.5 F3600
;WIPE_START
G1 F900
G1 X66.502 Y73.857 E-.36259
G1 X67.132 Y73.435 E-1.13741
;WIPE_END
EXCLUDE_OBJECT_START NAME=Thicker_for_20x40_fans_1_.stl_id_0_copy_0
G1 Z.6 F12000
G1 X105.211 Y149.95 Z.6
G1 Z.2
G1 E5 F2400
;TYPE:Inner wall
;WIDTH:0.499999
G1 F900
G1 X105.211 Y149.517 E.01644
;WIDTH:0.51438
G1 X105.211 Y107.364 E1.6525
;WIDTH:0.499999
G1 X105.643 Y107.364 E.01644
;WIDTH:0.53219
G1 X106.013 Y107.38 E.01505
;WIDTH:0.564381
G1 X106.382 Y107.396 E.01604
G1 X111.225 Y107.396 E.20999
;WIDTH:0.600066
G1 X111.49 Y107.414 E.01227
;WIDTH:0.63575
G1 X111.754 Y107.432 E.01306
G1 X112.018 Y107.414 E.01306
;WIDTH:0.600066
G1 X112.282 Y107.396 E.01227
;WIDTH:0.564381
G1 X117.125 Y107.396 E.20999
;WIDTH:0.600066
G1 X117.39 Y107.414 E.01227
;WIDTH:0.63575
G1 X117.654 Y107.432 E.01306
G1 X117.918 Y107.414 E.01306
;WIDTH:0.600065
G1 X118.182 Y107.396 E.01227
;WIDTH:0.564381
G1 X123.025 Y107.396 E.20999
;WIDTH:0.600066
G1 X123.29 Y107.414 E.01227
;WIDTH:0.635751
G1 X123.554 Y107.432 E.01306
G1 X123.818 Y107.414 E.01306
;WIDTH:0.600066
G1 X124.082 Y107.396 E.01227
;WIDTH:0.564381
G1 X128.925 Y107.396 E.20999
;WIDTH:0.600066
G1 X129.19 Y107.414 E.01227
;WIDTH:0.63575
G1 X129.454 Y107.432 E.01306
G1 X129.718 Y107.414 E.01306
;WIDTH:0.600066
G1 X129.982 Y107.396 E.01227
;WIDTH:0.564381
G1 X134.825 Y107.396 E.20999
;WIDTH:0.600066
G1 X135.09 Y107.414 E.01227
;WIDTH:0.63575
G1 X135.354 Y107.432 E.01306
G1 X135.618 Y107.414 E.01306
;WIDTH:0.600066
G1 X135.882 Y107.396 E.01227
;WIDTH:0.564381
G1 X140.725 Y107.396 E.20999
;WIDTH:0.600065
G1 X140.99 Y107.414 E.01227
;WIDTH:0.635749
G1 X141.254 Y107.432 E.01306
G1 X141.518 Y107.414 E.01306
;WIDTH:0.600065
G1 X141.782 Y107.396 E.01227
;WIDTH:0.564379
G1 X146.625 Y107.396 E.20999
G1 X147.211 Y107.38 E.02541
;WIDTH:0.532189
G1 X147.797 Y107.364 E.02384
;WIDTH:0.499999
G1 X147.797 Y107.796 E.01644
;WIDTH:0.51438
G1 X147.79 Y144.278 E1.43017
;WIDTH:0.56438
G1 X147.837 Y144.498 E.00976
;WIDTH:0.61438
G1 X147.884 Y144.718 E.0107
G1 X147.94 Y144.746 E.00296
G1 X147.94 Y148.678 E.18683
;WIDTH:0.628728
G1 X147.932 Y149.065 E.01885
G1 X147.876 Y149.094 E.00307
G1 X147.802 Y149.285 E.01002
G1 X147.315 Y149.307 E.02375
;WIDTH:0.584528
G1 X147.029 Y149.329 E.0129
;WIDTH:0.540328
G1 X146.744 Y149.352 E.01184
G1 X146.941 Y149.207 E.01013
;WIDTH:0.584528
G1 X147.139 Y149.062 E.01103
;WIDTH:0.628728
G1 X147.336 Y148.918 E.01192
G1 X147.368 Y148.678 E.01177
;WIDTH:0.61438
G1 X147.368 Y144.888 E.18012
G1 X147.343 Y144.583 E.01453
;WIDTH:0.56438
G1 X147.318 Y144.278 E.01326
;WIDTH:0.51438
G1 X147.318 Y108.635 E1.39728
M73 P3 R81
G1 X147.079 Y108.121 E.02225
;WIDTH:0.532189
G1 X146.852 Y108.019 E.0101
;WIDTH:0.56438
G1 X146.625 Y107.917 E.01077
G1 X141.782 Y107.917 E.20999
;WIDTH:0.600065
G1 X141.593 Y107.951 E.00892
;WIDTH:0.635749
G1 X141.403 Y107.984 E.00949
G1 X141.254 Y108.109 E.00957
G1 X141.105 Y107.984 E.00957
G1 X140.915 Y107.951 E.00949
;WIDTH:0.600065
G1 X140.725 Y107.917 E.00892
;WIDTH:0.564381
G1 X135.882 Y107.917 E.20999
;WIDTH:0.600066
G1 X135.693 Y107.951 E.00892
;WIDTH:0.63575
G1 X135.503 Y107.984 E.00949
G1 X135.354 Y108.109 E.00957
G1 X135.205 Y107.984 E.00957
G1 X135.015 Y107.951 E.00949
;WIDTH:0.600066
G1 X134.825 Y107.917 E.00892
;WIDTH:0.564381
G1 X129.982 Y107.917 E.20999
;WIDTH:0.600066
G1 X129.793 Y107.951 E.00892
;WIDTH:0.63575
G1 X129.603 Y107.984 E.00949
G1 X129.454 Y108.109 E.00957
G1 X129.305 Y107.984 E.00957
G1 X129.115 Y107.951 E.00949
;WIDTH:0.600066
G1 X128.925 Y107.917 E.00892
;WIDTH:0.564381
G1 X124.082 Y107.917 E.20999
;WIDTH:0.600066
G1 X123.893 Y107.951 E.00892
;WIDTH:0.635751
G1 X123.703 Y107.984 E.00949
G1 X123.554 Y108.109 E.00957
G1 X123.405 Y107.984 E.00957
G1 X123.215 Y107.951 E.00949
;WIDTH:0.600066
G1 X123.025 Y107.917 E.00892
;WIDTH:0.564381
G1 X118.182 Y107.917 E.20999
;WIDTH:0.600065
G1 X117.993 Y107.951 E.00892
;WIDTH:0.63575
G1 X117.803 Y107.984 E.00949
G1 X117.654 Y108.109 E.00957
G1 X117.505 Y107.984 E.00957
G1 X117.315 Y107.951 E.00949
;WIDTH:0.600066
G1 X117.125 Y107.917 E.00892
;WIDTH:0.564381
G1 X112.282 Y107.917 E.20999
;WIDTH:0.600066
M73 P3 R80
G1 X112.093 Y107.951 E.00892
;WIDTH:0.63575
G1 X111.903 Y107.984 E.00949
G1 X111.754 Y108.109 E.00957
G1 X111.605 Y107.984 E.00957
G1 X111.415 Y107.951 E.00949
;WIDTH:0.600066
G1 X111.225 Y107.917 E.00892
;WIDTH:0.564381
G1 X106.382 Y107.917 E.20999
;WIDTH:0.571795
G1 X106.258 Y107.925 E.00549
G1 X106.094 Y108.023 E.00841
;WIDTH:0.535897
G1 X105.929 Y108.121 E.00784
;WIDTH:0.51438
G1 X105.69 Y108.635 E.02225
G1 X105.69 Y148.678 E1.56976
;WIDTH:0.521416
G1 X105.697 Y148.799 E.00479
G1 X105.929 Y149.193 E.01821
;WIDTH:0.53219
G1 X106.156 Y149.294 E.0101
;WIDTH:0.564381
G1 X106.382 Y149.396 E.01077
G1 X111.225 Y149.396 E.20999
;WIDTH:0.600066
G1 X111.415 Y149.363 E.00892
;WIDTH:0.63575
G1 X111.605 Y149.329 E.00949
G1 X111.754 Y149.205 E.00957
G1 X111.903 Y149.329 E.00957
G1 X112.093 Y149.363 E.00949
;WIDTH:0.600066
G1 X112.282 Y149.396 E.00892
;WIDTH:0.564381
G1 X117.125 Y149.396 E.20999
;WIDTH:0.600066
G1 X117.315 Y149.363 E.00892
;WIDTH:0.635751
G1 X117.505 Y149.329 E.00949
G1 X117.654 Y149.205 E.00957
G1 X117.803 Y149.329 E.00957
G1 X117.993 Y149.363 E.00949
;WIDTH:0.600067
G1 X118.182 Y149.396 E.00892
;WIDTH:0.564383
G1 X123.025 Y149.396 E.20999
;WIDTH:0.600066
G1 X123.215 Y149.363 E.00892
;WIDTH:0.63575
G1 X123.405 Y149.329 E.00949
G1 X123.554 Y149.205 E.00957
G1 X123.703 Y149.329 E.00957
G1 X123.893 Y149.363 E.00949
;WIDTH:0.600066
G1 X124.082 Y149.396 E.00892
;WIDTH:0.564381
G1 X128.925 Y149.396 E.20999
;WIDTH:0.600066
G1 X129.115 Y149.363 E.00892
;WIDTH:0.63575
G1 X129.305 Y149.329 E.00949
G1 X129.454 Y149.205 E.00957
G1 X129.603 Y149.329 E.00957
G1 X129.793 Y149.363 E.00949
;WIDTH:0.600066
G1 X129.982 Y149.396 E.00892
;WIDTH:0.564381
G1 X134.825 Y149.396 E.20999
;WIDTH:0.600066
G1 X135.015 Y149.363 E.00892
;WIDTH:0.63575
G1 X135.205 Y149.329 E.00949
G1 X135.354 Y149.205 E.00957
G1 X135.503 Y149.329 E.00957
G1 X135.693 Y149.363 E.00949
;WIDTH:0.600066
G1 X135.882 Y149.396 E.00892
;WIDTH:0.564381
G1 X140.725 Y149.396 E.20999
;WIDTH:0.600065
G1 X140.915 Y149.363 E.00892
;WIDTH:0.635749
G1 X141.105 Y149.329 E.00949
G1 X141.254 Y149.205 E.00957
G1 X141.403 Y149.329 E.00957
G1 X141.667 Y149.361 E.01308
;WIDTH:0.597648
G1 X141.93 Y149.394 E.01224
;WIDTH:0.559546
G1 X142.737 Y149.394 E.03468
;WIDTH:0.573868
G1 X143.255 Y149.401 E.02285
G1 X142.873 Y149.535 E.01787
;WIDTH:0.559546
G1 X142.377 Y149.789 E.02395
G1 X142.001 Y149.9 E.01685
;WIDTH:0.564381
G1 X141.782 Y149.917 E.0095
;WIDTH:0.600065
G1 X141.518 Y149.9 E.01227
;WIDTH:0.635749
G1 X141.254 Y149.882 E.01306
G1 X140.99 Y149.9 E.01306
;WIDTH:0.600065
G1 X140.725 Y149.917 E.01227
;WIDTH:0.564381
G1 X135.882 Y149.917 E.20999
;WIDTH:0.600066
G1 X135.618 Y149.9 E.01227
;WIDTH:0.63575
G1 X135.354 Y149.882 E.01306
G1 X135.09 Y149.9 E.01306
;WIDTH:0.600066
G1 X134.825 Y149.917 E.01227
;WIDTH:0.564381
G1 X129.982 Y149.917 E.20999
;WIDTH:0.600066
G1 X129.718 Y149.9 E.01227
;WIDTH:0.63575
G1 X129.454 Y149.882 E.01306
G1 X129.19 Y149.9 E.01306
;WIDTH:0.600066
G1 X128.925 Y149.917 E.01227
;WIDTH:0.564381
G1 X124.082 Y149.917 E.20999
;WIDTH:0.600066
G1 X123.818 Y149.9 E.01227
;WIDTH:0.63575
G1 X123.554 Y149.882 E.01306
G1 X123.29 Y149.9 E.01306
;WIDTH:0.600066
G1 X123.025 Y149.917 E.01227
;WIDTH:0.564383
G1 X118.182 Y149.917 E.20999
;WIDTH:0.600067
G1 X117.918 Y149.9 E.01227
;WIDTH:0.635751
G1 X117.654 Y149.882 E.01306
G1 X117.39 Y149.9 E.01306
;WIDTH:0.600066
G1 X117.125 Y149.917 E.01227
;WIDTH:0.564381
G1 X112.282 Y149.917 E.20999
;WIDTH:0.600066
G1 X112.018 Y149.9 E.01227
;WIDTH:0.63575
G1 X111.754 Y149.882 E.01306
