; HEADER_BLOCK_START
; generated by OrcaSlicer 1.7.0 on 2023-11-18 at 19:03:40
; total layer number: 255
; HEADER_BLOCK_END

; THUMBNAIL_BLOCK_START
; THUMBNAIL_BLOCK_END

; external perimeters extrusion width = 0.40mm
; perimeters extrusion width = 0.45mm
; infill extrusion width = 0.45mm
; solid infill extrusion width = 0.40mm
; top infill extrusion width = 0.40mm
; first layer extrusion width = 0.50mm

; EXECUTABLE_BLOCK_START
EXCLUDE_OBJECT_DEFINE NAME=tower_with_seam.stl_id_0_copy_0 CENTER=110,110 POLYGON=[[70.0193,144.965],[70.0314,109.416],[70.3806,108.063],[71.0908,106.859],[106.806,71.1294],[107.98,70.4021],[109.309,70.024],[110.691,70.024],[112.02,70.4021],[113.194,71.1294],[148.909,106.859],[149.619,108.063],[149.969,109.416],[149.981,144.965],[149.672,146.308],[149.008,147.515],[148.04,148.496],[146.841,149.175],[145.503,149.501],[110,149.976],[74.4973,149.501],[73.1586,149.175],[71.9597,148.496],[70.9918,147.515],[70.3281,146.308],[70.0193,144.965]]
M73 P0 R54
;TYPE:Custom
START_PRINT EXTRUDER_TEMP=255  BED_TEMP=80
G90
G21
M83 ; use relative distances for extrusion
; filament start gcode
M106 S0
;LAYER_CHANGE
;Z:0.2
;HEIGHT:0.2
;BEFORE_LAYER_CHANGE
;0.2
G92 E0

G1 E-6 F3600
;_SET_FAN_SPEED_CHANGING_LAYER
SET_PRESSURE_ADVANCE ADVANCE=0; Override pressure advance value
SET_VELOCITY_LIMIT SQUARE_CORNER_VELOCITY=8
G1 X79.977 Y79.945 F12000
G1 Z.4
G1 Z.2
G1 E6 F3600
;TYPE:Skirt
;WIDTH:0.5
G1 F900
G1 X97.794 Y62.121 E.90994
G1 X100.098 Y60.296 E.10613
G1 X101.272 Y59.568 E.04988
G1 X104.493 Y58.146 E.12713
G1 X105.822 Y57.768 E.04988
G1 X109.309 Y57.281 E.12712
G1 X110.691 Y57.281 E.04988
G1 X114.178 Y57.768 E.12713
G1 X115.507 Y58.146 E.04988
G1 X118.728 Y59.568 E.12713
G1 X119.902 Y60.296 E.04988
G1 X122.206 Y62.121 E.10613
G1 X157.921 Y97.85 E1.82403
G1 X159.884 Y100.384 E.11575
G1 X160.595 Y101.588 E.05047
G1 X161.958 Y104.88 E.12863
G1 X162.307 Y106.233 E.05047
G1 X162.711 Y109.412 E.11568
G1 X162.723 Y144.96 E1.28352
G1 X162.399 Y147.821 E.10395
G1 X162.09 Y149.164 E.04975
G1 X160.839 Y152.445 E.12678
G1 X160.175 Y153.652 E.04975
G1 X158.076 Y156.467 E.12678
G1 X157.108 Y157.448 E.04975
G1 X154.321 Y159.583 E.12678
G1 X153.122 Y160.262 E.04975
G1 X149.857 Y161.555 E.12678
G1 X148.519 Y161.881 E.04975
G1 X145.673 Y162.242 E.10355
G1 X110.171 Y162.717 E1.28198
G1 X74.327 Y162.242 E1.2943
G1 X71.481 Y161.881 E.10355
G1 X70.143 Y161.555 E.04975
G1 X66.878 Y160.262 E.12678
G1 X65.679 Y159.583 E.04975
G1 X62.892 Y157.448 E.12678
G1 X61.924 Y156.467 E.04975
G1 X59.825 Y153.652 E.12678
G1 X59.161 Y152.445 E.04975
G1 X57.91 Y149.164 E.12678
G1 X57.601 Y147.821 E.04975
G1 X57.277 Y144.96 E.10395
G1 X57.289 Y109.412 E1.28352
G1 X57.693 Y106.233 E.11568
G1 X58.042 Y104.88 E.05047
G1 X59.405 Y101.588 E.12863
G1 X60.116 Y100.384 E.05047
G1 X62.079 Y97.85 E.11575
G1 X79.949 Y79.973 E.91264
G1 X80.272 Y80.296 F12000
G1 F900
G1 X98.117 Y62.444 E.91138
G1 X100.338 Y60.684 E.10232
G1 X101.513 Y59.957 E.04988
G1 X104.618 Y58.586 E.12257
G1 X105.947 Y58.208 E.04988
G1 X109.309 Y57.739 E.12256
G1 X110.691 Y57.739 E.04988
G1 X114.053 Y58.208 E.12257
G1 X115.382 Y58.586 E.04988
G1 X118.487 Y59.957 E.12257
G1 X119.662 Y60.684 E.04988
G1 X121.883 Y62.444 E.10233
G1 X157.598 Y98.173 E1.82403
G1 X159.491 Y100.617 E.1116
G1 X160.201 Y101.821 E.05047
G1 X161.515 Y104.994 E.12402
G1 X161.865 Y106.348 E.05047
G1 X162.254 Y109.412 E.11153
G1 X162.266 Y144.961 E1.28352
M73 P1 R54
G1 X161.953 Y147.719 E.10022
G1 X161.645 Y149.061 E.04975
G1 X160.438 Y152.225 E.12223
G1 X159.775 Y153.432 E.04975
G1 X157.751 Y156.146 E.12224
G1 X156.783 Y157.127 E.04975
G1 X154.095 Y159.185 E.12223
M73 P1 R53
G1 X152.896 Y159.864 E.04975
G1 X149.749 Y161.111 E.12223
G1 X148.41 Y161.437 E.04975
G1 X145.667 Y161.785 E.09984
G1 X110.164 Y162.26 E1.28198
G1 X74.333 Y161.785 E1.29385
G1 X71.59 Y161.437 E.09984
G1 X70.251 Y161.111 E.04975
G1 X67.104 Y159.864 E.12223
G1 X65.905 Y159.185 E.04975
G1 X63.217 Y157.127 E.12223
G1 X62.249 Y156.146 E.04975
G1 X60.225 Y153.432 E.12224
G1 X59.562 Y152.225 E.04975
G1 X58.355 Y149.061 E.12223
G1 X58.047 Y147.719 E.04975
G1 X57.734 Y144.961 E.10022
G1 X57.746 Y109.412 E1.28352
G1 X58.135 Y106.348 E.11153
G1 X58.485 Y104.994 E.05047
G1 X59.799 Y101.821 E.12402
G1 X60.509 Y100.617 E.05047
G1 X62.402 Y98.173 E.1116
G1 X80.244 Y80.325 E.9112
G1 X80.567 Y80.648 F12000
G1 F900
G1 X98.44 Y62.767 E.91283
G1 X100.579 Y61.073 E.09852
G1 X101.754 Y60.345 E.04988
G1 X104.743 Y59.025 E.11801
G1 X106.072 Y58.647 E.04988
G1 X109.309 Y58.196 E.118
G1 X110.691 Y58.196 E.04988
G1 X113.928 Y58.647 E.11801
G1 X115.257 Y59.025 E.04988
G1 X118.246 Y60.345 E.11801
G1 X119.421 Y61.073 E.04988
G1 X121.56 Y62.767 E.09852
G1 X157.275 Y98.496 E1.82403
G1 X159.097 Y100.849 E.10744
G1 X159.807 Y102.053 E.05047
G1 X161.073 Y105.108 E.1194
G1 X161.422 Y106.462 E.05047
G1 X161.797 Y109.412 E.10738
G1 X161.809 Y144.961 E1.28352
G1 X161.508 Y147.616 E.09649
G1 X161.199 Y148.959 E.04975
G1 X160.038 Y152.004 E.11768
G1 X159.374 Y153.212 E.04975
G1 X157.426 Y155.825 E.11769
G1 X156.458 Y156.805 E.04975
G1 X153.87 Y158.787 E.11769
G1 X152.671 Y159.466 E.04975
G1 X149.641 Y160.667 E.11768
G1 X148.302 Y160.993 E.04975
G1 X145.661 Y161.328 E.09612
G1 X110.158 Y161.803 E1.28198
G1 X74.339 Y161.328 E1.29341
G1 X71.698 Y160.993 E.09612
G1 X70.359 Y160.667 E.04975
G1 X67.329 Y159.466 E.11768
G1 X66.13 Y158.787 E.04975
G1 X63.542 Y156.805 E.11769
G1 X62.574 Y155.825 E.04975
G1 X60.626 Y153.212 E.11769
G1 X59.962 Y152.004 E.04975
G1 X58.801 Y148.959 E.11768
M73 P2 R53
G1 X58.492 Y147.616 E.04975
G1 X58.191 Y144.961 E.09649
G1 X58.203 Y109.412 E1.28352
G1 X58.578 Y106.462 E.10738
G1 X58.927 Y105.108 E.05047
G1 X60.193 Y102.053 E.1194
G1 X60.903 Y100.849 E.05047
G1 X62.725 Y98.496 E.10744
G1 X80.539 Y80.676 E.90976
G1 X80.862 Y80.999 F12000
G1 F900
G1 X98.763 Y63.09 E.91427
G1 X100.82 Y61.461 E.09471
G1 X101.994 Y60.734 E.04988
G1 X104.869 Y59.465 E.11345
G1 X106.197 Y59.087 E.04988
G1 X109.309 Y58.653 E.11344
G1 X110.691 Y58.653 E.04988
G1 X113.803 Y59.087 E.11345
G1 X115.131 Y59.465 E.04988
G1 X118.006 Y60.734 E.11345
G1 X119.18 Y61.461 E.04988
G1 X121.237 Y63.09 E.09471
G1 X156.951 Y98.82 E1.82403
G1 X158.703 Y101.081 E.10329
G1 X159.414 Y102.285 E.05047
G1 X160.63 Y105.222 E.11479
G1 X160.979 Y106.576 E.05047
G1 X161.34 Y109.412 E.10323
G1 X161.352 Y144.961 E1.28352
G1 X161.063 Y147.514 E.09277
G1 X160.754 Y148.857 E.04975
G1 X159.637 Y151.784 E.11314
G1 X158.974 Y152.992 E.04975
G1 X157.1 Y155.504 E.11314
G1 X156.132 Y156.484 E.04975
G1 X153.645 Y158.39 E.11314
G1 X152.446 Y159.069 E.04975
G1 X149.533 Y160.223 E.11314
G1 X148.194 Y160.549 E.04975
G1 X145.655 Y160.871 E.09241
G1 X110.152 Y161.346 E1.28198
G1 X74.345 Y160.871 E1.29297
G1 X71.806 Y160.549 E.09241
G1 X70.467 Y160.223 E.04975
G1 X67.554 Y159.069 E.11314
G1 X66.355 Y158.39 E.04975
G1 X63.868 Y156.484 E.11314
G1 X62.9 Y155.504 E.04975
G1 X61.026 Y152.992 E.11314
G1 X60.363 Y151.784 E.04975
G1 X59.246 Y148.857 E.11314
G1 X58.937 Y147.514 E.04975
G1 X58.648 Y144.961 E.09277
G1 X58.66 Y109.412 E1.28352
G1 X59.021 Y106.576 E.10323
G1 X59.37 Y105.222 E.05047
G1 X60.586 Y102.285 E.11479
G1 X61.297 Y101.081 E.05047
G1 X63.049 Y98.82 E.10329
G1 X80.834 Y81.027 E.90831
G1 X81.157 Y81.351 F12000
G1 F900
G1 X99.087 Y63.413 E.91571
G1 X101.06 Y61.85 E.0909
G1 X102.235 Y61.123 E.04988
G1 X104.994 Y59.905 E.10889
G1 X106.322 Y59.526 E.04988
M73 P2 R52
G1 X109.309 Y59.11 E.10888
G1 X110.691 Y59.11 E.04988
G1 X113.678 Y59.526 E.10888
G1 X115.006 Y59.905 E.04988
G1 X117.765 Y61.123 E.10889
G1 X118.94 Y61.85 E.04988
G1 X120.913 Y63.413 E.0909
G1 X156.628 Y99.143 E1.82403
M73 P3 R52
G1 X158.31 Y101.313 E.09914
G1 X159.02 Y102.517 E.05047
G1 X160.188 Y105.337 E.11017
G1 X160.537 Y106.69 E.05047
G1 X160.883 Y109.412 E.09908
G1 X160.895 Y144.961 E1.28352
G1 X160.617 Y147.411 E.08904
G1 X160.308 Y148.754 E.04975
G1 X159.237 Y151.564 E.10859
G1 X158.573 Y152.772 E.04975
G1 X156.775 Y155.183 E.10859
G1 X155.807 Y156.163 E.04975
G1 X153.419 Y157.992 E.10859
G1 X152.221 Y158.671 E.04975
G1 X149.425 Y159.779 E.10859
G1 X148.086 Y160.105 E.04975
G1 X145.649 Y160.414 E.0887
G1 X110.146 Y160.889 E1.28198
G1 X74.351 Y160.414 E1.29253
G1 X71.914 Y160.105 E.0887
G1 X70.575 Y159.779 E.04975
G1 X67.779 Y158.671 E.10859
G1 X66.581 Y157.992 E.04975
G1 X64.193 Y156.163 E.10859
G1 X63.225 Y155.183 E.04975
G1 X61.427 Y152.772 E.10859
G1 X60.763 Y151.564 E.04975
G1 X59.692 Y148.754 E.10859
G1 X59.383 Y147.411 E.04975
G1 X59.105 Y144.961 E.08904
G1 X59.117 Y109.412 E1.28352
G1 X59.463 Y106.69 E.09908
G1 X59.812 Y105.337 E.05047
G1 X60.98 Y102.517 E.11017
G1 X61.69 Y101.313 E.05047
G1 X63.372 Y99.143 E.09914
G1 X81.129 Y81.379 E.90687
G1 X81.452 Y81.702 F12000
G1 F900
G1 X99.41 Y63.737 E.91716
G1 X101.301 Y62.239 E.0871
G1 X102.475 Y61.511 E.04988
G1 X105.119 Y60.344 E.10433
G1 X106.448 Y59.966 E.04988
G1 X109.309 Y59.567 E.10432
G1 X110.691 Y59.567 E.04988
G1 X113.552 Y59.966 E.10432
G1 X114.881 Y60.344 E.04988
G1 X117.525 Y61.511 E.10433
G1 X118.699 Y62.239 E.04988
G1 X120.59 Y63.737 E.0871
G1 X156.305 Y99.466 E1.82403
G1 X157.916 Y101.546 E.09499
G1 X158.626 Y102.75 E.05047
G1 X159.745 Y105.451 E.10556
G1 X160.094 Y106.804 E.05047
G1 X160.426 Y109.413 E.09493
G1 X160.438 Y144.961 E1.28352
G1 X160.172 Y147.309 E.08531
G1 X159.863 Y148.652 E.04975
G1 X158.836 Y151.344 E.10404
G1 X158.173 Y152.552 E.04975
G1 X156.45 Y154.862 E.10405
G1 X155.482 Y155.842 E.04975
G1 X153.194 Y157.594 E.10404
G1 X151.995 Y158.273 E.04975
G1 X149.316 Y159.335 E.10404
G1 X147.978 Y159.661 E.04975
G1 X145.643 Y159.957 E.08498
G1 X110.14 Y160.432 E1.28198
G1 X74.357 Y159.957 E1.29209
M73 P4 R52
G1 X72.022 Y159.661 E.08498
G1 X70.684 Y159.335 E.04975
G1 X68.005 Y158.273 E.10404
G1 X66.806 Y157.594 E.04975
G1 X64.518 Y155.842 E.10404
G1 X63.55 Y154.862 E.04975
G1 X61.827 Y152.552 E.10405
G1 X61.164 Y151.344 E.04975
G1 X60.137 Y148.652 E.10404
G1 X59.828 Y147.309 E.04975
G1 X59.562 Y144.961 E.08531
G1 X59.574 Y109.413 E1.28352
G1 X59.906 Y106.804 E.09493
G1 X60.255 Y105.451 E.05047
G1 X61.374 Y102.75 E.10556
G1 X62.084 Y101.546 E.05047
G1 X63.695 Y99.466 E.09499
G1 X81.424 Y81.73 E.90542
; printing object tower_with_seam.stl id:0 copy 0
G1 E-4.2 F3600
;WIPE_START
G1 F900
G1 X82.13 Y81.023 E-1.8
;WIPE_END
EXCLUDE_OBJECT_START NAME=tower_with_seam.stl_id_0_copy_0
G17
G3 Z.6 I-1.205 J-.169 P1  F12000
G1 X77.697 Y112.689 Z.6
G1 Z.2
G1 E6 F3600
;TYPE:Inner wall
;WIDTH:0.499999
G1 F900
G1 X76.896 Y113.299 E.03633
G1 X75.808 Y113.742 E.04243
G1 X75.508 Y113.935 E.01286
G1 X75.181 Y113.826 E.01244
G1 X74.479 Y113.727 E.0256
G1 X73.941 Y113.651 E.01961
G1 X72.965 Y113.214 E.0386
G1 X72.148 Y112.524 E.0386
G1 X71.554 Y111.635 E.0386
G1 X71.23 Y110.617 E.0386
G1 X71.2 Y109.548 E.0386
G1 X71.467 Y108.513 E.0386
G1 X72.01 Y107.592 E.0386
G1 X72.787 Y106.857 E.0386
G1 X73.737 Y106.366 E.0386
G1 X74.786 Y106.158 E.0386
G1 X75.851 Y106.248 E.03861
G1 X76.85 Y106.629 E.0386
G1 X77.85 Y107.382 E.04521
G1 X78.158 Y107.536 E.01244
G1 X78.234 Y107.884 E.01286
G1 X78.69 Y108.967 E.04243
G1 X78.826 Y109.964 E.03633
G1 X78.696 Y110.962 E.03633
G1 X78.311 Y111.892 E.03633
G1 X77.721 Y112.658 E.03489
G1 X78.022 Y113.016 F12000
G1 F900
G1 X77.125 Y113.699 E.04071
G1 X75.973 Y114.168 E.04488
G1 X75.697 Y114.38 E.01259
G1 X75.602 Y114.658 E.01061
G1 X75.439 Y114.413 E.01061
G1 X75.117 Y114.278 E.01259
G1 X74.415 Y114.179 E.0256
G1 X73.814 Y114.094 E.02194
G1 X72.72 Y113.605 E.04326
G1 X71.804 Y112.832 E.04326
G1 X71.139 Y111.836 E.04326
G1 X70.775 Y110.694 E.04326
G1 X70.741 Y109.496 E.04326
G1 X71.04 Y108.336 E.04326
G1 X71.649 Y107.304 E.04326
G1 X72.52 Y106.481 E.04326
G1 X73.584 Y105.931 E.04326
G1 X74.76 Y105.697 E.04326
G1 X75.954 Y105.798 E.04326
G1 X77.073 Y106.225 E.04326
G1 X78.125 Y107.017 E.04754
G1 X78.448 Y107.149 E.01259
G1 X78.714 Y107.107 E.00973
G1 X78.607 Y107.354 E.00973
G1 X78.611 Y107.555 E.00726
G1 X78.655 Y107.707 E.00569
G1 X79.135 Y108.846 E.04462
G1 X79.287 Y109.963 E.04071
G1 X79.142 Y111.081 E.04071
G1 X78.71 Y112.123 E.04071
G1 X78.046 Y112.985 E.03927
G1 E-4.2 F3600
;WIPE_START
G1 F900
G1 X77.256 Y113.597 E-1.8
;WIPE_END
G17
G3 Z.6 I-.942 J-.771 P1  F12000
G1 X76.26 Y114.815 Z.6
G1 X76.26 Y139.687
G1 X78.022 Y146.819
G1 Z.2
G1 E6 F3600
G1 F900
G1 X77.547 Y147.38 E.02653
G1 X76.671 Y147.966 E.03805
G1 X75.669 Y148.292 E.03805
G1 X74.615 Y148.331 E.03805
G1 X73.591 Y148.082 E.03805
G1 X72.674 Y147.562 E.03805
G1 X71.934 Y146.812 E.03805
G1 X71.426 Y145.889 E.03805
G1 X71.19 Y144.862 E.03805
G1 X71.243 Y143.809 E.03805
G1 X71.582 Y142.811 E.03805
G1 X72.179 Y141.943 E.03805
G1 X72.992 Y141.271 E.03805
G1 X73.956 Y140.847 E.03805
G1 X75.165 Y140.678 E.04407
G1 X75.508 Y140.567 E.01302
G1 X75.799 Y140.757 E.01253
G1 X76.912 Y141.213 E.04342
G1 X77.722 Y141.839 E.03698
G1 X78.338 Y142.657 E.03698
G1 X78.777 Y143.769 E.04318
G1 X78.965 Y144.069 E.01277
G1 X78.852 Y144.397 E.01253
G1 X78.666 Y145.617 E.04457
G1 X78.229 Y146.576 E.03805
G1 X78.048 Y146.789 E.01007
G1 X78.618 Y146.824 F12000
G1 F900
G1 X77.854 Y147.724 E.04265
G1 X76.873 Y148.381 E.04264
G1 X75.749 Y148.746 E.04264
G1 X74.569 Y148.79 E.04264
G1 X73.421 Y148.511 E.04264
G1 X72.394 Y147.929 E.04264
G1 X71.564 Y147.088 E.04264
G1 X70.995 Y146.053 E.04264
G1 X70.73 Y144.902 E.04264
G1 X70.79 Y143.723 E.04264
G1 X71.169 Y142.604 E.04264
G1 X71.839 Y141.631 E.04264
G1 X72.749 Y140.878 E.04264
G1 X73.83 Y140.403 E.04264
G1 X75.116 Y140.224 E.04687
G1 X75.437 Y140.09 E.01255
G1 X75.598 Y139.871 E.00984
G1 X75.698 Y140.124 E.00984
G1 X75.975 Y140.335 E.01255
G1 X77.142 Y140.813 E.04555
G1 X78.05 Y141.515 E.04144
G1 X78.74 Y142.432 E.04144
G1 X79.202 Y143.601 E.04541
G1 X79.411 Y143.884 E.0127
G1 X79.663 Y143.988 E.00984
G1 X79.441 Y144.146 E.00984
G1 X79.303 Y144.465 E.01255
G1 X79.108 Y145.749 E.04687
G1 X78.635 Y146.787 E.0412
G1 E-4.2 F3600
;WIPE_START
G1 F900
G1 X77.994 Y147.555 E-1.8
;WIPE_END
G17
G3 Z.6 I1.018 J.667 P1  F12000
G1 X79.026 Y145.98 Z.6
G1 X79.222 Y145.692
G1 X80 Y144.59
G1 X113.939 Y144.461
G1 Z.2
G1 E6 F3600
G1 F900
G1 X113.846 Y144.755 E.01114
G1 X113.706 Y145.927 E.04261
G1 X113.329 Y146.86 E.03635
G1 X112.722 Y147.664 E.03635
G1 X111.927 Y148.281 E.03635
G1 X110.998 Y148.669 E.03635
G1 X110 Y148.802 E.03635
G1 X109.002 Y148.669 E.03635
G1 X108.073 Y148.281 E.03635
G1 X107.278 Y147.664 E.03635
G1 X106.671 Y146.86 E.03635
G1 X106.294 Y145.927 E.03635
G1 X106.155 Y144.763 E.04231
G1 X106.047 Y144.417 E.01309
G1 X106.244 Y144.122 E.01279
G1 X106.696 Y143.048 E.04208
G1 X107.304 Y142.261 E.0359
G1 X108.095 Y141.658 E.0359
G1 X109.014 Y141.279 E.0359
G1 X110 Y141.15 E.0359
G1 X110.986 Y141.279 E.0359
G1 X111.905 Y141.658 E.0359
G1 X112.696 Y142.261 E.0359
G1 X113.304 Y143.048 E.0359
G1 X113.754 Y144.118 E.04193
G1 X113.953 Y144.417 E.01293
G1 X113.951 Y144.422 E.00021
G1 X114.645 Y144.317 F12000
G1 F900
G1 X114.649 Y144.318 E.00013
G1 X114.425 Y144.488 E.01015
G1 X114.3 Y144.809 E.01243
G1 X114.152 Y146.041 E.0448
G1 X113.731 Y147.087 E.04073
G1 X113.051 Y147.988 E.04073
G1 X112.159 Y148.679 E.04073
G1 X111.118 Y149.114 E.04073
G1 X110 Y149.263 E.04073
G1 X108.882 Y149.114 E.04073
G1 X107.841 Y148.679 E.04073
G1 X106.949 Y147.988 E.04073
G1 X106.269 Y147.087 E.04073
G1 X105.848 Y146.041 E.04073
G1 X105.701 Y144.817 E.0445
G1 X105.575 Y144.488 E.01273
G1 X105.351 Y144.318 E.01015
G1 X105.613 Y144.216 E.01015
G1 X105.823 Y143.943 E.01243
G1 X106.297 Y142.815 E.04418
G1 X106.979 Y141.934 E.04023
G1 X107.865 Y141.259 E.04023
G1 X108.895 Y140.834 E.04023
G1 X110 Y140.689 E.04023
G1 X111.105 Y140.834 E.04023
G1 X112.135 Y141.259 E.04023
G1 X113.021 Y141.934 E.04023
G1 X113.703 Y142.815 E.04023
G1 X114.176 Y143.941 E.0441
G1 X114.387 Y144.216 E.01252
G1 X114.608 Y144.302 E.00857
G1 E-4.2 F3600
;WIPE_START
G1 F900
G1 X114.649 Y144.318 E-.07845
G1 X114.425 Y144.488 E-.50581
G1 X114.3 Y144.809 E-.61984
G1 X114.26 Y145.138 E-.5959
;WIPE_END
G17
G3 Z.6 I.356 J1.164 P1  F12000
G1 X115 Y144.912 Z.6
G1 X140 Y144.59
G1 X141.677 Y146.369
G1 Z.2
G1 E6 F3600
G1 F900
G1 X141.334 Y145.617 E.02983
