; HEADER_BLOCK_START
; generated by OrcaSlicer 1.7.0 on 2023-11-20 at 11:49:38
; total layer number: 255
; HEADER_BLOCK_END

; THUMBNAIL_BLOCK_START
; THUMBNAIL_BLOCK_END

; external perimeters extrusion width = 0.40mm
; perimeters extrusion width = 0.45mm
; infill extrusion width = 0.45mm
; solid infill extrusion width = 0.40mm
; top infill extrusion width = 0.40mm
; first layer extrusion width = 0.50mm

; EXECUTABLE_BLOCK_START
EXCLUDE_OBJECT_DEFINE NAME=tower_with_seam.stl_id_0_copy_0 CENTER=110,110 POLYGON=[[70.0193,144.965],[70.0314,109.416],[70.3806,108.063],[71.0908,106.859],[106.806,71.1294],[107.98,70.4021],[109.309,70.024],[110.691,70.024],[112.02,70.4021],[113.194,71.1294],[148.909,106.859],[149.619,108.063],[149.969,109.416],[149.981,144.965],[149.672,146.308],[149.008,147.515],[148.04,148.496],[146.841,149.175],[145.503,149.501],[110,149.976],[74.4973,149.501],[73.1586,149.175],[71.9597,148.496],[70.9918,147.515],[70.3281,146.308],[70.0193,144.965]]
M73 P0 R58
;TYPE:Custom
START_PRINT EXTRUDER_TEMP=255  BED_TEMP=80
G90
G21
M83 ; use relative distances for extrusion
; filament start gcode
M106 S0
;LAYER_CHANGE
;Z:0.2
;HEIGHT:0.2
;BEFORE_LAYER_CHANGE
;0.2
G92 E0

G1 E-5 F3600
;_SET_FAN_SPEED_CHANGING_LAYER
SET_PRESSURE_ADVANCE ADVANCE=0; Override pressure advance value
SET_VELOCITY_LIMIT ACCEL=500 ACCEL_TO_DECEL=250
SET_VELOCITY_LIMIT SQUARE_CORNER_VELOCITY=8
G1 X81.358 Y81.35 F9000
G1 Z.4
G1 Z.2
G1 E5 F2400
;TYPE:Skirt
;WIDTH:0.5
G1 F900
G1 X99.555 Y63.15 E.97814
G1 X100.679 Y62.26 E.0545
G1 X102.264 Y61.257 E.07126
G1 X103.434 Y60.626 E.05054
G1 X104.465 Y60.21 E.04225
G1 X106.33 Y59.659 E.07391
G1 X107.612 Y59.377 E.04988
G1 X108.775 Y59.258 E.04443
G1 X110.854 Y59.247 E.079
G1 X112.922 Y59.476 E.07911
G1 X115.957 Y60.366 E.1202
G1 X117.471 Y61.108 E.06408
G1 X118.847 Y61.945 E.06121
G1 X119.705 Y62.536 E.03961
G1 X120.602 Y63.299 E.04474
G1 X156.393 Y99.097 E1.92393
G1 X157.743 Y100.681 E.07911
G1 X158.959 Y102.676 E.0888
G1 X159.49 Y103.727 E.04474
G1 X160.024 Y105.244 E.06111
G1 X160.615 Y107.715 E.09656
G1 X160.745 Y109.105 E.05309
G1 X160.752 Y145.435 E1.38076
G1 X160.593 Y146.859 E.05445
G1 X160.192 Y148.68 E.07088
G1 X159.905 Y149.7 E.04025
G1 X159.473 Y150.795 E.04474
G1 X158.481 Y152.669 E.08059
G1 X157.772 Y153.794 E.05053
G1 X156.72 Y155.049 E.06227
G1 X154.758 Y156.928 E.10324
G1 X153.403 Y157.848 E.06227
G1 X151.003 Y159.12 E.10323
G1 X149.448 Y159.636 E.06226
G1 X146.791 Y160.204 E.10324
G1 X145.733 Y160.28 E.04032
G1 X110.18 Y160.757 E1.35138
G1 X73.888 Y160.265 E1.37943
G1 X72.467 Y160.087 E.05445
G1 X70.651 Y159.663 E.07088
G1 X69.38 Y159.272 E.05053
G1 X68.316 Y158.805 E.04417
G1 X66.684 Y157.902 E.07088
G1 X65.569 Y157.178 E.05053
G1 X64.327 Y156.109 E.06227
G1 X62.474 Y154.124 E.10324
G1 X61.571 Y152.757 E.06227
G1 X60.33 Y150.34 E.10324
G1 X59.851 Y148.846 E.05966
G1 X59.332 Y146.385 E.09559
G1 X59.238 Y145.054 E.05069
G1 X59.252 Y109.612 E1.34701
G1 X59.295 Y108.436 E.04474
G1 X59.466 Y107.279 E.04447
G1 X59.926 Y105.416 E.07293
G1 X60.335 Y104.149 E.0506
G1 X60.82 Y103.084 E.04447
G1 X61.859 Y101.29 E.07879
G1 X62.522 Y100.317 E.04474
G1 X63.251 Y99.458 E.04282
G1 X81.33 Y81.378 E.97174
; printing object tower_with_seam.stl id:0 copy 0
G1 E-3.5 F3600
;WIPE_START
G1 F900
G1 X82.037 Y80.671 E-1.5
;WIPE_END
EXCLUDE_OBJECT_START NAME=tower_with_seam.stl_id_0_copy_0
G17
G3 Z.6 I-.965 J.742 P1  F9000
G1 X86.737 Y86.785 Z.6
G1 Z.2
G1 E5 F2400
;TYPE:Brim
G1 F900
G1 X96.958 Y76.564 E.54939
G1 X97.024 Y76.381 E.00739
G1 X96.942 Y75.499 E.03369
G1 X96.909 Y74.615 E.03362
G1 X97.041 Y73.297 E.05034
G1 X97.293 Y71.926 E.05295
G1 X97.502 Y71.063 E.03374
G1 X97.802 Y70.234 E.03353
G1 X98.613 Y68.565 E.07054
G1 X99.05 Y67.793 E.03371
G1 X99.567 Y67.075 E.03362
G1 X99.862 Y66.731 E.01723
G1 X100.802 Y65.694 E.05319
G1 X101.433 Y65.07 E.03374
G1 X102.125 Y64.523 E.03353
G1 X103.694 Y63.531 E.07054
G1 X104.471 Y63.104 E.03371
G1 X105.289 Y62.766 E.03362
G1 X105.721 Y62.629 E.01724
G1 X107.066 Y62.242 E.05319
G1 X107.931 Y62.044 E.03374
G1 X108.808 Y61.943 E.03352
G1 X110.713 Y61.929 E.07241
G1 X111.598 Y61.978 E.03371
G1 X112.468 Y62.123 E.03353
G1 X114.231 Y62.611 E.0695
G1 X115.066 Y62.899 E.03359
G1 X116.247 Y63.499 E.05034
G1 X117.434 Y64.229 E.05295
G1 X118.163 Y64.735 E.03374
G1 X118.828 Y65.315 E.03353
G1 X120.092 Y66.674 E.07054
G1 X120.654 Y67.36 E.03371
G1 X121.136 Y68.102 E.03362
G1 X121.351 Y68.501 E.01723
G1 X121.978 Y69.752 E.05319
G1 X122.332 Y70.566 E.03374
G1 X122.592 Y71.409 E.03353
G1 X122.951 Y73.23 E.07054
G1 X123.068 Y74.109 E.03371
G1 X123.087 Y74.992 E.03354
G1 X122.975 Y76.384 E.05308
G1 X123.041 Y76.564 E.00729
G1 X143.413 Y96.935 E1.09494
G1 X143.594 Y97.001 E.00734
G1 X144.572 Y96.916 E.03729
G1 X145.459 Y96.888 E.03374
G1 X146.338 Y96.957 E.03351
G1 X148.205 Y97.308 E.07219
G1 X149.064 Y97.526 E.03371
G1 X149.89 Y97.836 E.03351
G1 X151.586 Y98.69 E.07219
G1 X152.352 Y99.138 E.03371
G1 X153.059 Y99.664 E.03351
G1 X154.453 Y100.955 E.07219
G1 X155.065 Y101.597 E.03371
G1 X155.601 Y102.301 E.03361
G1 X155.858 Y102.706 E.01825
G1 X156.581 Y103.923 E.05381
G1 X156.991 Y104.711 E.03374
G1 X157.311 Y105.535 E.03361
G1 X157.446 Y105.996 E.01825
G1 X157.804 Y107.366 E.05381
G1 X157.98 Y108.236 E.03374
G1 X158.059 Y109.114 E.03351
G1 X158.026 Y111.013 E.07219
G1 X157.954 Y111.897 E.03371
G1 X157.787 Y112.763 E.03351
G1 X157.229 Y114.579 E.07219
G1 X156.916 Y115.409 E.03371
G1 X156.515 Y116.197 E.03361
G1 X155.478 Y117.784 E.07206
G1 X154.947 Y118.495 E.03374
G1 X154.344 Y119.139 E.03352
G1 X153.178 Y120.149 E.05864
G1 X153.099 Y120.322 E.00722
G1 X153.099 Y134.183 E.52681
G1 X153.182 Y134.36 E.00742
G1 X153.828 Y134.891 E.03178
G1 X154.479 Y135.49 E.03363
G1 X155.319 Y136.507 E.05013
G1 X156.135 Y137.684 E.05444
G1 X156.596 Y138.439 E.03361
G1 X157.123 Y139.648 E.05011
G1 X157.573 Y140.962 E.05281
G1 X157.813 Y141.817 E.03374
G1 X157.957 Y142.687 E.03353
G1 X158.068 Y144.53 E.07016
G1 X158.066 Y145.417 E.03371
G1 X157.967 Y146.294 E.03353
G1 X157.571 Y148.097 E.07016
G1 X157.327 Y148.949 E.03371
G1 X156.992 Y149.766 E.03353
G1 X156.119 Y151.392 E.07016
M73 P1 R58
G1 X155.651 Y152.146 E.03371
G1 X155.105 Y152.842 E.03362
G1 X154.801 Y153.17 E.017
G1 X153.823 Y154.165 E.05304
G1 X153.167 Y154.764 E.03374
G1 X152.452 Y155.284 E.03362
G1 X152.07 Y155.517 E.017
G1 X150.857 Y156.208 E.05304
G1 X150.063 Y156.604 E.03374
G1 X149.233 Y156.91 E.03362
G1 X148.802 Y157.029 E.017
G1 X147.447 Y157.363 E.05304
G1 X146.574 Y157.527 E.03374
G1 X145.692 Y157.595 E.03362
G1 X145.245 Y157.592 E.017
G1 X143.85 Y157.543 E.05304
G1 X142.966 Y157.463 E.03374
G1 X142.099 Y157.288 E.03362
G1 X141.67 Y157.163 E.017
G1 X140.341 Y156.735 E.05304
G1 X139.512 Y156.417 E.03374
G1 X138.726 Y156.011 E.03362
G1 X138.347 Y155.774 E.017
G1 X137.186 Y155 E.05304
G1 X136.475 Y154.468 E.03374
G1 X135.831 Y153.864 E.03354
G1 X134.936 Y152.836 E.05182
G1 X134.761 Y152.757 E.0073
G1 X120.454 Y152.941 E.54379
G1 X120.275 Y153.032 E.00766
G1 X120.036 Y153.349 E.01506
G1 X119.466 Y154.027 E.03365
G1 X118.551 Y154.862 E.0471
G1 X117.504 Y155.678 E.05043
G1 X116.777 Y156.183 E.03365
G1 X115.676 Y156.75 E.0471
G1 X114.453 Y157.265 E.05043
G1 X113.619 Y157.563 E.03365
G1 X112.407 Y157.823 E.0471
G1 X111.092 Y158.001 E.05043
G1 X110.21 Y158.071 E.03365
G1 X108.972 Y158.006 E.0471
G1 X107.657 Y157.835 E.05043
G1 X106.786 Y157.672 E.03365
G1 X105.609 Y157.287 E.0471
G1 X104.383 Y156.778 E.05043
G1 X103.585 Y156.394 E.03365
G1 X102.549 Y155.715 E.0471
G1 X101.498 Y154.904 E.05043
G1 X100.828 Y154.325 E.03365
G1 X100.005 Y153.399 E.0471
G1 X99.726 Y153.031 E.01754
G1 X99.547 Y152.941 E.00762
G1 X85.238 Y152.757 E.54389
G1 X85.06 Y152.838 E.00742
G1 X84.521 Y153.477 E.03178
G1 X83.912 Y154.123 E.03374
G1 X83.239 Y154.694 E.03353
G1 X81.716 Y155.736 E.07016
G1 X80.954 Y156.191 E.03371
G1 X80.151 Y156.557 E.03353
G1 X78.401 Y157.144 E.07016
G1 X77.544 Y157.373 E.03371
G1 X76.672 Y157.506 E.03353
G1 X74.828 Y157.593 E.07016
G1 X73.941 Y157.58 E.03371
G1 X73.066 Y157.469 E.03353
G1 X71.268 Y157.05 E.07016
G1 X70.419 Y156.795 E.03371
G1 X69.607 Y156.45 E.03353
G1 X67.992 Y155.556 E.07016
G1 X67.244 Y155.079 E.03371
G1 X66.555 Y154.524 E.03362
G1 X66.231 Y154.215 E.017
G1 X65.248 Y153.225 E.05304
G1 X64.658 Y152.561 E.03374
G1 X64.147 Y151.839 E.03362
G1 X63.919 Y151.454 E.017
G1 X63.244 Y150.233 E.05304
G1 X62.858 Y149.433 E.03374
G1 X62.563 Y148.599 E.03362
G1 X62.449 Y148.167 E.017
G1 X62.133 Y146.807 E.05304
G1 X61.979 Y145.933 E.03374
G1 X61.923 Y145.05 E.03362
G1 X61.932 Y144.603 E.017
G1 X61.999 Y143.209 E.05304
G1 X62.09 Y142.326 E.03374
G1 X62.277 Y141.461 E.03362
G1 X62.407 Y141.033 E.017
G1 X62.852 Y139.71 E.05304
G1 X63.18 Y138.886 E.03374
G1 X63.596 Y138.105 E.03362
G1 X63.839 Y137.729 E.017
G1 X64.627 Y136.578 E.05304
G1 X65.169 Y135.874 E.03374
G1 X65.78 Y135.238 E.03354
G1 X66.82 Y134.356 E.05182
G1 X66.901 Y134.182 E.0073
G1 X66.901 Y120.32 E.52685
M73 P1 R57
G1 X66.82 Y120.145 E.00734
G1 X66.068 Y119.514 E.03729
G1 X65.421 Y118.906 E.03374
G1 X64.848 Y118.236 E.03351
G1 X63.776 Y116.668 E.07219
G1 X63.323 Y115.905 E.03371
G1 X62.958 Y115.103 E.03351
G1 X62.363 Y113.299 E.07219
G1 X62.138 Y112.441 E.03371
G1 X62.01 Y111.569 E.03351
G1 X61.937 Y109.671 E.07219
G1 X61.958 Y108.784 E.03371
G1 X62.077 Y107.91 E.03351
G1 X62.532 Y106.066 E.07219
G1 X62.798 Y105.22 E.03371
G1 X63.154 Y104.413 E.03351
G1 X64.101 Y102.767 E.07219
G1 X64.591 Y102.028 E.03371
G1 X65.156 Y101.351 E.03351
G1 X66.523 Y100.032 E.07219
G1 X67.198 Y99.457 E.03371
G1 X67.929 Y98.963 E.03351
G1 X69.607 Y98.074 E.07219
G1 X70.415 Y97.709 E.03371
G1 X71.256 Y97.435 E.03361
G1 X73.112 Y97.046 E.07206
G1 X73.991 Y96.919 E.03374
G1 X74.872 Y96.889 E.03352
G1 X76.411 Y97 E.05864
G1 X76.589 Y96.934 E.00722
G1 X86.709 Y86.814 E.54393
G1 X87.032 Y87.137 F9000
G1 F900
G1 X97.271 Y76.898 E.55033
G1 X97.394 Y76.705 E.00869
G1 X97.449 Y76.55 E.00624
G1 X97.478 Y76.323 E.00869
G1 X97.398 Y75.472 E.03248
G1 X97.367 Y74.638 E.03173
G1 X97.495 Y73.355 E.049
G1 X97.74 Y72.025 E.0514
G1 X97.938 Y71.203 E.03216
G1 X98.221 Y70.419 E.03167
G1 X99.016 Y68.781 E.0692
G1 X99.44 Y68.033 E.03266
G1 X99.923 Y67.362 E.03143
G1 X100.204 Y67.034 E.01641
G1 X101.129 Y66.013 E.05239
G1 X101.731 Y65.418 E.03216
G1 X102.396 Y64.893 E.03221
G1 X103.923 Y63.927 E.06865
G1 X104.663 Y63.52 E.03209
G1 X105.451 Y63.194 E.03244
G1 X107.177 Y62.686 E.06836
G1 X108.016 Y62.494 E.03273
G1 X108.843 Y62.4 E.03162
G1 X110.706 Y62.386 E.07082
G1 X111.555 Y62.434 E.03233
G1 X112.376 Y62.572 E.03164
G1 X114.091 Y63.046 E.06761
G1 X114.896 Y63.325 E.03237
G1 X116.029 Y63.901 E.04829
G1 X117.18 Y64.61 E.0514
G1 X117.876 Y65.092 E.03216
G1 X118.515 Y65.649 E.03221
G1 X119.744 Y66.972 E.06865
G1 X120.289 Y67.637 E.03266
G1 X120.74 Y68.33 E.03143
G1 X120.944 Y68.71 E.01641
G1 X121.562 Y69.942 E.05239
G1 X121.899 Y70.718 E.03216
G1 X122.146 Y71.514 E.03167
G1 X122.499 Y73.3 E.0692
G1 X122.61 Y74.137 E.03209
G1 X122.629 Y74.985 E.03224
G1 X122.521 Y76.332 E.05136
G1 X122.551 Y76.556 E.00857
G1 X122.607 Y76.708 E.00615
G1 X122.729 Y76.898 E.00857
G1 X143.079 Y97.248 E1.09381
G1 X143.27 Y97.37 E.00863
G1 X143.424 Y97.426 E.0062
G1 X143.649 Y97.455 E.00863
G1 X144.595 Y97.373 E.03609
G1 X145.441 Y97.346 E.03216
G1 X146.27 Y97.41 E.03163
G1 X148.11 Y97.756 E.07115
G1 X148.92 Y97.961 E.03175
G1 X149.699 Y98.253 E.03163
G1 X151.364 Y99.09 E.07082
G1 X152.093 Y99.516 E.03208
G1 X152.761 Y100.012 E.03163
G1 X154.135 Y101.283 E.07115
G1 X154.711 Y101.888 E.03175
G1 X155.222 Y102.557 E.03198
G1 X156.183 Y104.149 E.07068
G1 X156.577 Y104.907 E.03245
G1 X156.88 Y105.688 E.03185
G1 X157.357 Y107.465 E.06995
G1 X157.526 Y108.295 E.03216
G1 X157.602 Y109.138 E.03219
G1 X157.569 Y110.987 E.07026
G1 X157.501 Y111.828 E.03208
G1 X157.341 Y112.66 E.03219
G1 X156.798 Y114.427 E.07026
G1 X156.5 Y115.216 E.03208
G1 X156.122 Y115.961 E.03172
G1 X155.105 Y117.518 E.07069
G1 X154.6 Y118.195 E.03211
G1 X154.021 Y118.814 E.0322
G1 X152.89 Y119.794 E.05688
G1 X152.756 Y119.973 E.00849
G1 X152.689 Y120.119 E.0061
G1 X152.642 Y120.337 E.00848
G1 X152.642 Y134.168 E.52568
G1 X152.692 Y134.392 E.00873
G1 X152.762 Y134.541 E.00626
G1 X152.904 Y134.722 E.00873
G1 X153.531 Y135.238 E.03087
G1 X154.14 Y135.799 E.03145
G1 X154.951 Y136.778 E.04834
G1 X155.75 Y137.93 E.05328
G1 X156.185 Y138.643 E.03171
G1 X156.698 Y139.819 E.04878
G1 X157.135 Y141.095 E.05126
G1 X157.364 Y141.909 E.03216
G1 X157.503 Y142.746 E.03222
G1 X157.611 Y144.539 E.06828
G1 X157.608 Y145.398 E.03266
G1 X157.514 Y146.226 E.03165
G1 X157.128 Y147.98 E.06828
G1 X156.896 Y148.792 E.03209
G1 X156.581 Y149.564 E.03168
G1 X155.721 Y151.167 E.06914
G1 X155.28 Y151.877 E.03177
G1 X154.761 Y152.54 E.03201
G1 X153.503 Y153.839 E.06871
G1 X152.884 Y154.404 E.03187
G1 X152.203 Y154.9 E.03201
G1 X150.639 Y155.806 E.06871
G1 X149.888 Y156.181 E.03187
G1 X149.098 Y156.472 E.03201
G1 X147.346 Y156.917 E.06871
G1 X146.522 Y157.072 E.03187
G1 X145.682 Y157.137 E.03201
G1 X143.883 Y157.087 E.06839
G1 X143.025 Y157.009 E.03277
G1 X142.214 Y156.845 E.03144
G1 X141.805 Y156.726 E.01618
G1 X140.496 Y156.305 E.05225
G1 X139.706 Y156.002 E.03216
G1 X138.945 Y155.609 E.03255
G1 X137.446 Y154.624 E.06817
G1 X136.775 Y154.122 E.03187
G1 X136.166 Y153.551 E.03172
G1 X135.291 Y152.547 E.05063
G1 X135.109 Y152.412 E.00859
G1 X134.961 Y152.346 E.00617
G1 X134.74 Y152.3 E.00859
G1 X120.464 Y152.484 E.54262
G1 X120.233 Y152.541 E.00903
G1 X120.082 Y152.618 E.00647
G1 X119.9 Y152.77 E.00903
G1 X119.676 Y153.067 E.01413
G1 X119.129 Y153.715 E.03222
G1 X118.252 Y154.515 E.04514
G1 X117.236 Y155.307 E.04894
G1 X116.533 Y155.794 E.03251
G1 X115.487 Y156.333 E.04474
G1 X114.29 Y156.837 E.04934
G1 X113.485 Y157.124 E.0325
G1 X112.323 Y157.373 E.04514
G1 X111.047 Y157.546 E.04894
G1 X110.213 Y157.612 E.03182
G1 X109.009 Y157.55 E.04583
G1 X107.732 Y157.384 E.04894
G1 X106.909 Y157.23 E.03182
G1 X105.763 Y156.856 E.04582
G1 X104.566 Y156.359 E.04923
G1 X103.803 Y155.991 E.03222
G1 X102.81 Y155.339 E.04514
G1 X101.791 Y154.552 E.04894
G1 X101.157 Y154.005 E.03182
G1 X100.362 Y153.112 E.04542
G1 X100.1 Y152.767 E.01647
G1 X99.918 Y152.616 E.00898
G1 X99.767 Y152.54 E.00643
G1 X99.537 Y152.484 E.00898
G1 X85.259 Y152.3 E.54272
G1 X85.034 Y152.348 E.00873
G1 X84.884 Y152.416 E.00626
G1 X84.701 Y152.555 E.00873
G1 X84.177 Y153.175 E.03087
G1 X83.602 Y153.785 E.03187
G1 X82.967 Y154.326 E.03168
G1 X81.473 Y155.349 E.06883
G1 X80.748 Y155.781 E.03209
G1 X79.976 Y156.133 E.03222
G1 X78.273 Y156.704 E.06828
G1 X77.458 Y156.923 E.03209
G1 X76.62 Y157.051 E.03222
G1 X74.825 Y157.135 E.06828
G1 X73.966 Y157.122 E.03266
G1 X73.14 Y157.017 E.03165
G1 X71.39 Y156.609 E.06828
G1 X70.581 Y156.367 E.03209
G1 X69.814 Y156.041 E.03168
G1 X68.229 Y155.165 E.06882
G1 X67.505 Y154.702 E.03266
G1 X66.861 Y154.183 E.03143
G1 X66.552 Y153.89 E.01618
G1 X65.584 Y152.914 E.05225
G1 X65.012 Y152.27 E.03273
G1 X64.534 Y151.595 E.03143
G1 X64.317 Y151.229 E.01618
G1 X63.652 Y150.026 E.05225
G1 X63.278 Y149.25 E.03273
G1 X63.002 Y148.47 E.03144
G1 X62.894 Y148.059 E.01618
G1 X62.582 Y146.72 E.05225
G1 X62.435 Y145.886 E.03216
G1 X62.381 Y145.046 E.03201
G1 X62.389 Y144.62 E.01618
G1 X62.454 Y143.247 E.05225
G1 X62.543 Y142.39 E.03273
G1 X62.718 Y141.582 E.03143
G1 X62.842 Y141.175 E.01618
G1 X63.28 Y139.871 E.05225
G1 X63.593 Y139.085 E.03216
G1 X63.996 Y138.329 E.03255
G1 X65 Y136.843 E.06817
G1 X65.511 Y136.179 E.03187
G1 X66.089 Y135.576 E.03172
G1 X67.105 Y134.715 E.05063
G1 X67.241 Y134.535 E.00859
G1 X67.31 Y134.388 E.00617
G1 X67.358 Y134.167 E.00859
G1 X67.358 Y120.335 E.52571
G1 X67.309 Y120.113 E.00863
G1 X67.24 Y119.965 E.0062
G1 X67.102 Y119.785 E.00863
G1 X66.375 Y119.174 E.03609
G1 X65.758 Y118.595 E.03216
G1 X65.216 Y117.963 E.03163
G1 X64.16 Y116.418 E.07115
G1 X63.733 Y115.7 E.03175
G1 X63.388 Y114.943 E.03163
G1 X62.8 Y113.165 E.07115
G1 X62.585 Y112.342 E.03233
G1 X62.465 Y111.519 E.03161
G1 X62.394 Y109.672 E.07026
G1 X62.414 Y108.828 E.03208
G1 X62.528 Y107.989 E.03219
G1 X62.971 Y106.194 E.07026
