; HEADER_BLOCK_START
; generated by OrcaSlicer 1.7.0 on 2023-11-20 at 09:21:03
; total layer number: 255
; HEADER_BLOCK_END

; THUMBNAIL_BLOCK_START
; THUMBNAIL_BLOCK_END

; external perimeters extrusion width = 0.40mm
; perimeters extrusion width = 0.45mm
; infill extrusion width = 0.45mm
; solid infill extrusion width = 0.40mm
; top infill extrusion width = 0.40mm
; first layer extrusion width = 0.56mm

; EXECUTABLE_BLOCK_START
EXCLUDE_OBJECT_DEFINE NAME=tower_with_seam.stl_id_0_copy_0 CENTER=110,110 POLYGON=[[70.0193,144.965],[70.0314,109.416],[70.3806,108.063],[71.0908,106.859],[106.806,71.1294],[107.98,70.4021],[109.309,70.024],[110.691,70.024],[112.02,70.4021],[113.194,71.1294],[148.909,106.859],[149.619,108.063],[149.969,109.416],[149.981,144.965],[149.672,146.308],[149.008,147.515],[148.04,148.496],[146.841,149.175],[145.503,149.501],[110,149.976],[74.4973,149.501],[73.1586,149.175],[71.9597,148.496],[70.9918,147.515],[70.3281,146.308],[70.0193,144.965]]
M73 P0 R50
;TYPE:Custom
START_PRINT EXTRUDER_TEMP=255  BED_TEMP=80
G90
G21
M83 ; use relative distances for extrusion
; filament start gcode
M106 S0
;LAYER_CHANGE
;Z:0.25
;HEIGHT:0.25
;BEFORE_LAYER_CHANGE
;0.25
G92 E0

G1 E-.5 F3600
;_SET_FAN_SPEED_CHANGING_LAYER
SET_PRESSURE_ADVANCE ADVANCE=0; Override pressure advance value
SET_VELOCITY_LIMIT ACCEL=500 ACCEL_TO_DECEL=250
SET_VELOCITY_LIMIT SQUARE_CORNER_VELOCITY=8
; printing object tower_with_seam.stl id:0 copy 0
EXCLUDE_OBJECT_START NAME=tower_with_seam.stl_id_0_copy_0
G1 X142.394 Y112.597 F9000
G1 Z.4
G1 Z.25
G1 E.5 F2400
;TYPE:Inner wall
;WIDTH:0.559999
G1 F1800
G1 X141.801 Y111.827 E.05117
G1 X141.429 Y110.929 E.05117
G1 X141.304 Y109.965 E.05117
G1 X141.435 Y109.001 E.05117
G1 X141.886 Y107.931 E.06114
G1 X141.967 Y107.651 E.01536
G1 X142.223 Y107.487 E.01596
G1 X143.213 Y106.743 E.06519
G1 X144.178 Y106.374 E.05436
G1 X145.207 Y106.287 E.05436
G1 X146.22 Y106.489 E.05436
G1 X147.138 Y106.963 E.05436
G1 X147.888 Y107.673 E.05436
G1 X148.413 Y108.562 E.05436
G1 X148.671 Y109.562 E.05436
G1 X148.657 Y110.079 E.02718
G1 X148.642 Y110.595 E.02718
G1 X148.329 Y111.579 E.05436
G1 X147.755 Y112.438 E.05436
G1 X146.966 Y113.104 E.05436
G1 X146.023 Y113.526 E.05436
G1 X144.527 Y113.768 E.07976
G1 X144.244 Y113.624 E.01669
G1 X143.168 Y113.186 E.06114
G1 X142.426 Y112.622 E.04906
G1 X142.034 Y112.96 F9000
G1 F1800
G1 X141.359 Y112.083 E.05824
G1 X140.935 Y111.061 E.05824
G1 X140.793 Y109.963 E.05824
G1 X140.942 Y108.867 E.05824
G1 X141.443 Y107.67 E.06829
G1 X141.473 Y107.343 E.01725
G1 X141.413 Y107.206 E.00789
G1 X141.561 Y107.229 E.00789
G1 X141.775 Y107.168 E.01172
G1 X141.919 Y107.083 E.00878
G1 X142.966 Y106.295 E.06895
G1 X144.064 Y105.876 E.06188
G1 X145.236 Y105.777 E.06189
G1 X146.389 Y106.006 E.06188
G1 X147.434 Y106.546 E.06189
G1 X148.288 Y107.354 E.06189
G1 X148.886 Y108.367 E.06188
G1 X149.179 Y109.505 E.06188
G1 X149.163 Y110.093 E.03094
G1 X149.146 Y110.681 E.03094
G1 X148.789 Y111.801 E.06189
G1 X148.136 Y112.779 E.06189
G1 X147.238 Y113.537 E.06188
G1 X146.164 Y114.018 E.06189
G1 X144.808 Y114.211 E.07213
G1 X144.511 Y114.35 E.01725
G1 X144.42 Y114.486 E.0086
G1 X144.367 Y114.332 E.0086
G1 X144.207 Y114.177 E.01172
G1 X144.053 Y114.093 E.00922
G1 X142.915 Y113.63 E.06468
G1 X142.066 Y112.984 E.05613
G1 E-.35 F3600
;WIPE_START
G1 F1800
G1 X141.449 Y112.197 E-.15
;WIPE_END
G17
G3 Z.65 I-1.217 J.004 P1  F9000
G1 X141.562 Y145.808 Z.65
G1 Z.25
G1 E.5 F2400
G1 F1800
G1 X141.459 Y145.58 E.01317
G1 X141.277 Y144.387 E.06349
G1 X141.193 Y144.087 E.01643
G1 X141.338 Y143.828 E.01564
G1 X141.775 Y142.721 E.06264
G1 X142.37 Y141.93 E.05207
G1 X143.153 Y141.325 E.05207
G1 X144.497 Y140.74 E.07712
G1 X144.799 Y140.803 E.01625
G1 X146.008 Y140.971 E.06428
G1 X146.94 Y141.382 E.05359
G1 X147.725 Y142.031 E.05358
G1 X148.303 Y142.869 E.05359
G1 X148.629 Y143.833 E.05358
G1 X148.681 Y144.85 E.05359
G1 X148.452 Y145.843 E.05359
G1 X147.962 Y146.735 E.05359
G1 X147.247 Y147.459 E.05359
G1 X146.361 Y147.961 E.05358
G1 X145.372 Y148.202 E.05359
G1 X144.354 Y148.164 E.05359
G1 X143.386 Y147.85 E.05358
G1 X142.54 Y147.283 E.05358
G1 X141.881 Y146.507 E.05359
G1 X141.579 Y145.844 E.03831
G1 X140.969 Y145.726 F9000
G1 F1800
G1 X140.763 Y144.39 E.07114
G1 X140.622 Y144.095 E.01721
G1 X140.497 Y144.006 E.00808
G1 X140.639 Y143.948 E.00808
G1 X140.79 Y143.785 E.0117
G1 X140.869 Y143.638 E.00874
G1 X141.33 Y142.471 E.06607
G1 X142.006 Y141.571 E.05927
G1 X142.898 Y140.882 E.05927
G1 X144.114 Y140.381 E.06922
G1 X144.366 Y140.173 E.01721
G1 X144.422 Y140.03 E.00808
G1 X144.513 Y140.154 E.00808
G1 X144.708 Y140.261 E.0117
G1 X144.869 Y140.302 E.00874
G1 X146.148 Y140.48 E.06799
G1 X147.209 Y140.947 E.061
G1 X148.102 Y141.685 E.061
G1 X148.759 Y142.64 E.061
G1 X149.132 Y143.738 E.061
G1 X149.19 Y144.895 E.061
G1 X148.93 Y146.025 E.061
G1 X148.372 Y147.04 E.061
G1 X147.558 Y147.865 E.061
G1 X146.549 Y148.436 E.061
G1 X145.423 Y148.711 E.061
G1 X144.265 Y148.667 E.061
G1 X143.162 Y148.309 E.061
G1 X142.199 Y147.664 E.061
G1 X141.449 Y146.781 E.061
G1 X140.985 Y145.762 E.05889
G1 E-.35 F3600
;WIPE_START
G1 F1800
G1 X140.825 Y144.775 E-.15
;WIPE_END
G17
G3 Z.65 I.008 J-1.217 P1  F9000
G1 X113.748 Y144.596 Z.65
G1 Z.25
G1 E.5 F2400
G1 F1800
G1 X113.58 Y145.894 E.06891
G1 X113.217 Y146.797 E.05119
G1 X112.63 Y147.573 E.05119
G1 X111.862 Y148.169 E.05119
G1 X110.964 Y148.544 E.05119
G1 X110 Y148.672 E.05119
G1 X109.036 Y148.544 E.05119
G1 X108.138 Y148.169 E.05119
G1 X107.37 Y147.573 E.05119
G1 X106.783 Y146.797 E.05119
G1 X106.42 Y145.894 E.05119
G1 X106.282 Y144.744 E.06096
G1 X106.204 Y144.439 E.01659
G1 X106.361 Y144.176 E.0161
G1 X106.808 Y143.113 E.06069
G1 X107.395 Y142.353 E.05056
G1 X108.159 Y141.771 E.05056
G1 X109.047 Y141.405 E.05056
G1 X110 Y141.28 E.05056
G1 X110.953 Y141.405 E.05056
G1 X111.841 Y141.771 E.05056
G1 X112.605 Y142.353 E.05056
G1 X113.192 Y143.113 E.05056
G1 X113.772 Y144.414 E.07494
G1 X113.754 Y144.556 E.00756
G1 X114.491 Y144.34 F9000
G1 F1800
G1 X114.361 Y144.44 E.00866
G1 X114.258 Y144.636 E.01165
G1 X114.222 Y144.795 E.00859
G1 X114.075 Y146.021 E.065
G1 X113.661 Y147.048 E.05827
G1 X112.994 Y147.931 E.05827
G1 X112.119 Y148.61 E.05827
G1 X111.097 Y149.037 E.05827
G1 X110 Y149.183 E.05827
G1 X108.903 Y149.037 E.05827
G1 X107.881 Y148.61 E.05827
G1 X107.006 Y147.931 E.05827
G1 X106.339 Y147.048 E.05827
G1 X105.925 Y146.021 E.05827
G1 X105.769 Y144.737 E.06809
G1 X105.639 Y144.44 E.01707
G1 X105.509 Y144.34 E.00866
G1 X105.662 Y144.28 E.00866
G1 X105.815 Y144.121 E.01165
G1 X105.895 Y143.978 E.00859
G1 X106.367 Y142.856 E.06408
G1 X107.036 Y141.991 E.05754
G1 X107.905 Y141.328 E.05754
G1 X108.916 Y140.911 E.05754
G1 X110 Y140.769 E.05754
G1 X111.084 Y140.911 E.05754
G1 X112.095 Y141.328 E.05754
G1 X112.964 Y141.991 E.05754
G1 X113.634 Y142.856 E.05754
G1 X114.13 Y144.031 E.06717
G1 X114.338 Y144.28 E.01707
G1 X114.454 Y144.325 E.00656
G1 E-.35 F3600
;WIPE_START
G1 F1800
G1 X114.361 Y144.44 E-.02215
G1 X114.258 Y144.636 E-.0332
G1 X114.222 Y144.795 E-.02449
G1 X114.166 Y145.259 E-.07017
;WIPE_END
G17
G3 Z.65 I-.042 J-1.216 P1  F9000
G1 X78.119 Y146.507 Z.65
G1 Z.25
G1 E.5 F2400
G1 F1800
G1 X77.46 Y147.283 E.05359
G1 X76.614 Y147.85 E.05358
G1 X75.646 Y148.164 E.05358
G1 X74.628 Y148.202 E.05359
G1 X73.639 Y147.961 E.05359
G1 X72.753 Y147.459 E.05358
G1 X72.038 Y146.735 E.05358
G1 X71.548 Y145.843 E.05359
G1 X71.319 Y144.85 E.05359
G1 X71.371 Y143.833 E.05359
G1 X71.697 Y142.869 E.05358
G1 X72.275 Y142.031 E.05359
G1 X73.06 Y141.382 E.05358
G1 X73.992 Y140.971 E.05359
G1 X75.186 Y140.805 E.06349
G1 X75.488 Y140.725 E.01643
G1 X75.746 Y140.874 E.01564
G1 X76.847 Y141.325 E.06264
G1 X77.63 Y141.93 E.05207
G1 X78.225 Y142.721 E.05207
G1 X78.792 Y144.071 E.07712
G1 X78.725 Y144.373 E.01625
G1 X78.541 Y145.58 E.06428
G1 X78.136 Y146.47 E.05148
G1 X78.551 Y146.781 F9000
G1 F1800
G1 X77.801 Y147.664 E.061
G1 X76.838 Y148.309 E.061
G1 X75.735 Y148.667 E.061
G1 X74.577 Y148.711 E.061
G1 X73.451 Y148.436 E.061
G1 X72.442 Y147.865 E.061
G1 X71.628 Y147.04 E.061
G1 X71.07 Y146.025 E.061
G1 X70.81 Y144.895 E.061
G1 X70.868 Y143.738 E.061
G1 X71.241 Y142.64 E.061
G1 X71.898 Y141.685 E.061
G1 X72.791 Y140.947 E.061
G1 X73.852 Y140.48 E.061
G1 X75.19 Y140.291 E.07114
G1 X75.487 Y140.154 E.01721
G1 X75.578 Y140.03 E.00808
G1 X75.634 Y140.173 E.00808
G1 X75.795 Y140.326 E.0117
G1 X75.941 Y140.406 E.00874
G1 X77.102 Y140.882 E.06607
G1 X77.994 Y141.571 E.05927
G1 X78.67 Y142.471 E.05927
G1 X79.156 Y143.693 E.06922
G1 X79.361 Y143.948 E.01721
G1 X79.503 Y144.006 E.00808
G1 X79.378 Y144.095 E.00808
G1 X79.268 Y144.288 E.0117
G1 X79.226 Y144.449 E.00874
G1 X79.031 Y145.726 E.06799
G1 X78.567 Y146.744 E.05889
G1 E-.35 F3600
;WIPE_START
G1 F1800
G1 X77.927 Y147.512 E-.15
;WIPE_END
G17
G3 Z.65 I1.214 J-.087 P1  F9000
G1 X75.5 Y113.765 Z.65
G1 Z.25
G1 E.5 F2400
G1 F1800
G1 X75.204 Y113.699 E.01596
G1 X73.977 Y113.526 E.06519
G1 X73.034 Y113.104 E.05436
G1 X72.245 Y112.438 E.05436
G1 X71.671 Y111.579 E.05436
G1 X71.358 Y110.595 E.05436
G1 X71.329 Y109.562 E.05436
G1 X71.587 Y108.562 E.05436
G1 X72.112 Y107.673 E.05436
G1 X72.862 Y106.963 E.05436
G1 X73.78 Y106.489 E.05436
G1 X74.793 Y106.287 E.05436
G1 X75.822 Y106.374 E.05436
G1 X76.787 Y106.743 E.05436
G1 X77.756 Y107.472 E.06384
G1 X78.032 Y107.634 E.01683
G1 X78.114 Y107.931 E.01622
G1 X78.565 Y109.001 E.06114
G1 X78.696 Y109.965 E.05117
G1 X78.571 Y110.929 E.05117
G1 X78.199 Y111.827 E.05117
G1 X77.606 Y112.597 E.05117
G1 X76.832 Y113.186 E.05117
G1 X75.756 Y113.624 E.06114
G1 X75.535 Y113.745 E.01326
G1 X75.58 Y114.486 F9000
G1 F1800
G1 X75.489 Y114.35 E.0086
G1 X75.295 Y114.242 E.01172
G1 X75.133 Y114.201 E.00878
G1 X73.836 Y114.018 E.06895
G1 X72.762 Y113.537 E.06189
G1 X71.864 Y112.779 E.06188
G1 X71.211 Y111.801 E.06189
G1 X70.854 Y110.681 E.06189
G1 X70.821 Y109.505 E.06188
G1 X71.114 Y108.367 E.06188
G1 X71.712 Y107.354 E.06188
G1 X72.566 Y106.546 E.06189
G1 X73.611 Y106.006 E.06189
G1 X74.764 Y105.777 E.06188
G1 X75.936 Y105.876 E.06189
G1 X77.034 Y106.295 E.06188
G1 X78.131 Y107.117 E.07213
G1 X78.439 Y107.229 E.01725
G1 X78.587 Y107.206 E.00789
G1 X78.527 Y107.343 E.00789
G1 X78.532 Y107.566 E.01172
G1 X78.581 Y107.734 E.00922
G1 X79.058 Y108.867 E.06468
G1 X79.207 Y109.963 E.05824
G1 X79.065 Y111.061 E.05824
G1 X78.641 Y112.083 E.05824
G1 X77.966 Y112.96 E.05824
G1 X77.085 Y113.63 E.05824
G1 X75.884 Y114.122 E.06829
G1 X75.633 Y114.332 E.01725
G1 X75.593 Y114.448 E.00649
G1 E-.35 F3600
;WIPE_START
G1 F1800
G1 X75.489 Y114.35 E-.02139
G1 X75.295 Y114.242 E-.0334
G1 X75.133 Y114.201 E-.02503
G1 X74.67 Y114.135 E-.07018
;WIPE_END
G1 E0 F3600
G17
G3 Z.65 I.862 J.859 P1  F9000
G1 X110 Y78.672 Z.65
G1 Z.25
G1 E.5 F2400
G1 F1800
G1 X109.031 Y78.543 E.05146
G1 X107.954 Y78.09 E.06148
G1 X107.678 Y78.009 E.01514
G1 X107.51 Y77.751 E.01619
G1 X106.772 Y76.774 E.06445
G1 X106.403 Y75.822 E.05373
G1 X106.309 Y74.805 E.05373
G1 X106.497 Y73.802 E.05373
G1 X106.952 Y72.888 E.05373
G1 X107.64 Y72.134 E.05373
G1 X108.508 Y71.596 E.05373
G1 X109.49 Y71.317 E.05373
G1 X110.51 Y71.317 E.05373
G1 X111.492 Y71.596 E.05373
G1 X112.36 Y72.134 E.05373
G1 X113.048 Y72.888 E.05373
G1 X113.503 Y73.802 E.05373
G1 X113.691 Y74.805 E.05373
G1 X113.597 Y75.822 E.05373
G1 X113.228 Y76.774 E.05373
G1 X112.502 Y77.735 E.0634
G1 X112.343 Y78.009 E.01665
G1 X112.046 Y78.09 E.01617
G1 X110.969 Y78.543 E.06148
G1 X110.04 Y78.667 E.04935
G1 X110 Y79.183 F9000
G1 F1800
G1 X108.897 Y79.036 E.05857
G1 X107.695 Y78.533 E.06853
G1 X107.37 Y78.503 E.01722
G1 X107.22 Y78.576 E.00876
G1 X107.253 Y78.413 E.00876
G1 X107.191 Y78.199 E.01171
G1 X107.106 Y78.056 E.00875
G1 X106.326 Y77.023 E.06817
G1 X105.906 Y75.939 E.06116
G1 X105.798 Y74.782 E.06116
G1 X106.012 Y73.639 E.06116
G1 X106.53 Y72.599 E.06116
G1 X107.313 Y71.74 E.06116
G1 X108.301 Y71.128 E.06116
G1 X109.419 Y70.81 E.06116
G1 X110.581 Y70.81 E.06116
G1 X111.699 Y71.128 E.06116
G1 X112.687 Y71.74 E.06116
G1 X113.47 Y72.599 E.06116
G1 X113.988 Y73.639 E.06116
G1 X114.202 Y74.782 E.06116
G1 X114.094 Y75.939 E.06116
G1 X113.674 Y77.023 E.06116
G1 X112.86 Y78.106 E.07132
G1 X112.747 Y78.413 E.01722
G1 X112.78 Y78.576 E.00876
G1 X112.63 Y78.503 E.00876
G1 X112.408 Y78.508 E.01171
G1 X112.248 Y78.554 E.00875
G1 X111.103 Y79.036 E.06538
G1 X110.04 Y79.177 E.05646
G1 E-.35 F3600
;WIPE_START
G1 F1800
G1 X109.047 Y79.054 E-.15
;WIPE_END
G17
G3 Z.65 I-1.217 J.016 P1  F9000
G1 X110 Y149.694 Z.65
G1 Z.25
G1 E.5 F2400
;TYPE:Outer wall
G1 F1800
G1 X108.769 Y149.53 E.06534
G1 X107.624 Y149.051 E.06534
G1 X106.643 Y148.29 E.06534
G1 X105.894 Y147.3 E.06534
G1 X105.43 Y146.148 E.06534
G1 X105.277 Y144.865 E.06803
;WIDTH:0.598869
G1 X105.229 Y144.774 E.00579
;WIDTH:0.637739
G1 X105.181 Y144.684 E.0062
;WIDTH:0.676608
G1 X105.134 Y144.594 E.00661
G1 X105.028 Y144.584 E.00688
;WIDTH:0.656823
G1 X79.98 Y144.262 E1.57043
;WIDTH:0.676614
G1 X79.874 Y144.269 E.00688
G1 X79.825 Y144.354 E.00639
;WIDTH:0.637743
G1 X79.776 Y144.44 E.00599
;WIDTH:0.598871
G1 X79.726 Y144.525 E.00559
;WIDTH:0.559999
G1 X79.521 Y145.872 E.07169
G1 X78.982 Y147.055 E.06841
G1 X78.141 Y148.046 E.06841
G1 X77.061 Y148.769 E.06841
G1 X75.825 Y149.171 E.06841
G1 X74.526 Y149.219 E.06841
G1 X73.263 Y148.912 E.06841
G1 X72.132 Y148.271 E.06841
G1 X71.218 Y147.346 E.06841
G1 X70.592 Y146.207 E.06841
G1 X70.301 Y144.94 E.06841
G1 X70.366 Y143.642 E.06841
G1 X70.784 Y142.411 E.06841
G1 X71.521 Y141.34 E.06841
G1 X72.523 Y140.512 E.06841
G1 X73.712 Y139.988 E.06841
G1 X75.047 Y139.802 E.0709
;WIDTH:0.598871
G1 X75.138 Y139.753 E.00586
;WIDTH:0.637742
G1 X75.229 Y139.704 E.00627
;WIDTH:0.676613
G1 X75.32 Y139.655 E.00669
G1 X75.328 Y139.549 E.00688
;WIDTH:0.656825
G1 X75.328 Y114.953 E1.54203
;WIDTH:0.666924
G1 X75.323 Y114.875 E.00499
G1 X75.276 Y114.834 E.00399
;WIDTH:0.631283
G1 X75.228 Y114.793 E.00376
;WIDTH:0.595641
G1 X75.181 Y114.752 E.00353
;WIDTH:0.559999
G1 X75.062 Y114.702 E.00678
G1 X73.694 Y114.509 E.07272
G1 X72.49 Y113.97 E.06941
G1 X71.483 Y113.119 E.06941
G1 X70.75 Y112.023 E.06941
G1 X70.349 Y110.766 E.06941
G1 X70.312 Y109.448 E.06941
G1 X70.642 Y108.171 E.06941
G1 X71.312 Y107.035 E.06941
G1 X72.27 Y106.129 E.06941
G1 X73.442 Y105.524 E.06941
G1 X74.735 Y105.266 E.06941
G1 X76.05 Y105.377 E.06941
G1 X77.282 Y105.847 E.06941
G1 X78.386 Y106.678 E.07272
;WIDTH:0.598873
G1 X78.481 Y106.705 E.00558
;WIDTH:0.637747
G1 X78.575 Y106.731 E.00598
;WIDTH:0.67662
G1 X78.67 Y106.758 E.00638
G1 X78.751 Y106.689 E.00688
;WIDTH:0.656825
G1 X106.713 Y78.727 E2.47913
;WIDTH:0.666916
G1 X106.765 Y78.669 E.00498
G1 X106.76 Y78.606 E.00401
;WIDTH:0.631277
G1 X106.756 Y78.543 E.00378
;WIDTH:0.595638
G1 X106.751 Y78.48 E.00354
;WIDTH:0.559999
G1 X106.702 Y78.361 E.00676
G1 X105.879 Y77.271 E.07188
G1 X105.408 Y76.056 E.0686
G1 X105.288 Y74.758 E.0686
G1 X105.527 Y73.477 E.0686
G1 X106.108 Y72.31 E.0686
G1 X106.986 Y71.347 E.0686
G1 X108.095 Y70.661 E.0686
G1 X109.348 Y70.304 E.0686
G1 X110.652 Y70.304 E.0686
G1 X111.905 Y70.661 E.0686
G1 X113.014 Y71.347 E.0686
G1 X113.892 Y72.31 E.0686
G1 X114.473 Y73.477 E.0686
G1 X114.712 Y74.758 E.0686
G1 X114.592 Y76.056 E.0686
G1 X114.121 Y77.271 E.0686
G1 X113.287 Y78.378 E.07293
;WIDTH:0.595639
G1 X113.269 Y78.475 E.00554
;WIDTH:0.631278
G1 X113.252 Y78.572 E.00591
;WIDTH:0.666917
G1 X113.235 Y78.669 E.00627
G1 X113.287 Y78.727 E.00498
;WIDTH:0.656824
G1 X141.249 Y106.689 E2.47913
;WIDTH:0.67662
G1 X141.33 Y106.758 E.00688
G1 X141.425 Y106.731 E.00638
;WIDTH:0.637747
G1 X141.519 Y106.705 E.00598
;WIDTH:0.598873
G1 X141.614 Y106.678 E.00558
;WIDTH:0.559999
G1 X142.718 Y105.847 E.07272
G1 X143.95 Y105.377 E.06941
G1 X145.265 Y105.266 E.06941
G1 X146.558 Y105.524 E.06941
G1 X147.73 Y106.129 E.06941
G1 X148.688 Y107.035 E.06941
G1 X149.358 Y108.171 E.06941
G1 X149.688 Y109.448 E.06941
G1 X149.669 Y110.107 E.0347
G1 X149.651 Y110.766 E.0347
G1 X149.25 Y112.023 E.06941
G1 X148.517 Y113.119 E.06941
G1 X147.51 Y113.97 E.06941
G1 X146.306 Y114.509 E.06941
G1 X144.918 Y114.706 E.07377
;WIDTH:0.595641
G1 X144.838 Y114.762 E.00553
;WIDTH:0.631283
