; HEADER_BLOCK_START
; generated by OrcaSlicer 1.7.0 on 2023-12-27 at 21:42:17
; total layer number: 254
; HEADER_BLOCK_END

; THUMBNAIL_BLOCK_START
; THUMBNAIL_BLOCK_END

; external perimeters extrusion width = 0.40mm
; perimeters extrusion width = 0.45mm
; infill extrusion width = 0.45mm
; solid infill extrusion width = 0.40mm
; top infill extrusion width = 0.40mm
; first layer extrusion width = 0.50mm

; EXECUTABLE_BLOCK_START
EXCLUDE_OBJECT_DEFINE NAME=tower_with_seam.stl_id_0_copy_0 CENTER=110,110 POLYGON=[[70.0193,144.965],[70.0314,109.416],[70.3806,108.063],[71.0908,106.859],[106.806,71.1294],[107.98,70.4021],[109.309,70.024],[110.691,70.024],[112.02,70.4021],[113.194,71.1294],[148.909,106.859],[149.619,108.063],[149.969,109.416],[149.981,144.965],[149.672,146.308],[149.008,147.515],[148.04,148.496],[146.841,149.175],[145.503,149.501],[110,149.976],[74.4973,149.501],[73.1586,149.175],[71.9597,148.496],[70.9918,147.515],[70.3281,146.308],[70.0193,144.965]]
M73 P0 R48
;TYPE:Custom
START_PRINT EXTRUDER_TEMP=255  BED_TEMP=80
G90
G21
M83 ; use relative distances for extrusion
; filament start gcode
M106 S0
;LAYER_CHANGE
;Z:0.3
;HEIGHT:0.3
;BEFORE_LAYER_CHANGE
;0.3
G92 E0

;_SET_FAN_SPEED_CHANGING_LAYER
SET_PRESSURE_ADVANCE ADVANCE=0; Override pressure advance value
SET_VELOCITY_LIMIT SQUARE_CORNER_VELOCITY=8
; printing object tower_with_seam.stl id:0 copy 0
EXCLUDE_OBJECT_START NAME=tower_with_seam.stl_id_0_copy_0
G1 X142.273 Y112.72 F9000
G1 Z.3
G1 E0 F1800
;TYPE:Inner wall
;WIDTH:0.5
G1 F900
G1 X141.651 Y111.914 E.05253
G1 X141.262 Y110.974 E.05253
G1 X141.131 Y109.964 E.05253
G1 X141.268 Y108.956 E.05253
G1 X141.734 Y107.849 E.06197
G1 X141.802 Y107.506 E.01805
G1 X142.116 Y107.353 E.01805
G1 X143.129 Y106.591 E.06543
G1 X144.139 Y106.205 E.05581
G1 X145.217 Y106.114 E.05581
G1 X146.277 Y106.325 E.05581
G1 X147.238 Y106.822 E.05581
G1 X148.024 Y107.565 E.05581
G1 X148.573 Y108.496 E.05581
G1 X148.843 Y109.543 E.05581
G1 X148.828 Y110.083 E.02791
G1 X148.813 Y110.624 E.02791
G1 X148.485 Y111.654 E.05581
G1 X147.884 Y112.553 E.05581
G1 X147.058 Y113.251 E.05581
G1 X146.071 Y113.693 E.05581
G1 X144.816 Y113.87 E.06543
G1 X144.485 Y113.984 E.01805
G1 X144.404 Y113.906 E.00583
G1 X144.183 Y113.784 E.013
G1 X143.082 Y113.336 E.06133
G1 X142.304 Y112.744 E.05047
G1 X141.963 Y113.032 F9000
G1 F900
G1 X141.271 Y112.134 E.0585
G1 X140.837 Y111.087 E.0585
G1 X140.692 Y109.963 E.0585
G1 X140.844 Y108.84 E.0585
G1 X141.328 Y107.692 E.06431
G1 X141.374 Y107.355 E.01754
G1 X141.287 Y107.199 E.00925
;WIDTH:0.464022
G1 X141.199 Y107.042 E.00848
G1 X141.373 Y107.087 E.00848
;WIDTH:0.5
G1 X141.547 Y107.131 E.00925
G1 X141.854 Y107.005 E.01716
G1 X142.916 Y106.206 E.0686
G1 X144.041 Y105.776 E.06216
G1 X145.242 Y105.675 E.06216
G1 X146.423 Y105.91 E.06216
G1 X147.493 Y106.463 E.06216
G1 X148.368 Y107.29 E.06216
G1 X148.98 Y108.328 E.06216
G1 X149.28 Y109.494 E.06216
G1 X149.264 Y110.096 E.03108
G1 X149.247 Y110.698 E.03108
G1 X148.881 Y111.845 E.06216
G1 X148.212 Y112.846 E.06216
G1 X147.292 Y113.623 E.06216
G1 X146.192 Y114.115 E.06216
G1 X144.876 Y114.301 E.0686
G1 X144.57 Y114.43 E.01716
G1 X144.475 Y114.611 E.01058
;WIDTH:0.454433
G1 X144.38 Y114.793 E.00947
G1 X144.335 Y114.593 E.00947
;WIDTH:0.5
G1 X144.289 Y114.393 E.01058
G1 X144.019 Y114.188 E.01754
G1 X142.865 Y113.718 E.06431
G1 X141.995 Y113.056 E.05643
;WIPE_START
G1 X141.686 Y112.663
;WIPE_END
G1 X141.293 Y145.629 F9000
G1 F900
G1 X141.105 Y144.394 E.06451
G1 X140.986 Y144.062 E.01817
G1 X141.178 Y143.767 E.01817
G1 X141.625 Y142.636 E.06278
G1 X142.247 Y141.808 E.05346
G1 X143.067 Y141.175 E.05346
G1 X144.192 Y140.714 E.06278
G1 X144.485 Y140.518 E.01817
G1 X144.818 Y140.633 E.01817
G1 X146.056 Y140.805 E.06451
G1 X147.031 Y141.234 E.05502
G1 X147.853 Y141.914 E.05502
G1 X148.457 Y142.791 E.05502
G1 X148.799 Y143.801 E.05502
G1 X148.853 Y144.865 E.05502
G1 X148.614 Y145.904 E.05502
G1 X148.101 Y146.838 E.05502
G1 X147.352 Y147.597 E.05502
G1 X146.425 Y148.122 E.05502
G1 X145.389 Y148.374 E.05502
G1 X144.324 Y148.334 E.05502
G1 X143.31 Y148.005 E.05502
G1 X142.425 Y147.412 E.05502
G1 X141.735 Y146.599 E.05502
G1 X141.309 Y145.666 E.05295
;WIPE_START
G1 X141.23 Y145.172
;WIPE_END
G1 X140.231 Y143.974 F9000
;WIDTH:0.464014
G1 F900
G1 X140.403 Y143.922 E.00854
;WIDTH:0.5
G1 X140.576 Y143.87 E.00931
G1 X140.774 Y143.605 E.01711
G1 X141.241 Y142.421 E.06567
G1 X141.934 Y141.499 E.05954
G1 X142.847 Y140.794 E.05954
G1 X144.02 Y140.314 E.06543
G1 X144.288 Y140.111 E.01734
G1 X144.337 Y139.937 E.00931
;WIDTH:0.464015
G1 X144.387 Y139.764 E.00854
G1 X144.479 Y139.919 E.00854
;WIDTH:0.5
G1 X144.572 Y140.074 E.00931
G1 X144.878 Y140.201 E.01711
G1 X146.176 Y140.382 E.06764
G1 X147.262 Y140.86 E.06127
G1 X148.177 Y141.617 E.06127
G1 X148.85 Y142.594 E.06127
G1 X149.231 Y143.718 E.06127
G1 X149.291 Y144.904 E.06127
G1 X149.025 Y146.061 E.06127
G1 X148.453 Y147.101 E.06127
G1 X147.619 Y147.946 E.06127
G1 X146.586 Y148.531 E.06127
G1 X145.433 Y148.812 E.06127
G1 X144.247 Y148.767 E.06127
G1 X143.118 Y148.401 E.06127
G1 X142.132 Y147.74 E.06127
G1 X141.363 Y146.835 E.06127
G1 X140.871 Y145.755 E.06127
G1 X140.674 Y144.459 E.06764
G1 X140.543 Y144.155 E.01711
G1 X140.387 Y144.065 E.00931
;WIDTH:0.464014
G1 X140.265 Y143.995 E.00664
;WIPE_START
G1 X140.403 Y143.922
G1 X140.576 Y143.87
G1 X140.674 Y143.739
;WIPE_END
G1 X105.999 Y144.409 F9000
;WIDTH:0.5
G1 F900
G1 X106.201 Y144.113 E.01853
G1 X106.658 Y143.026 E.06086
G1 X107.274 Y142.231 E.05191
G1 X108.073 Y141.621 E.05191
G1 X109.003 Y141.238 E.05191
G1 X110 Y141.107 E.0519
G1 X110.997 Y141.238 E.05191
G1 X111.927 Y141.621 E.05191
G1 X112.726 Y142.231 E.05191
G1 X113.342 Y143.026 E.05191
G1 X113.799 Y144.113 E.06086
G1 X114.001 Y144.409 E.01853
G1 X113.89 Y144.751 E.01853
G1 X113.748 Y145.937 E.06169
G1 X113.367 Y146.882 E.05256
G1 X112.753 Y147.694 E.05256
G1 X111.949 Y148.318 E.05256
G1 X111.009 Y148.711 E.05256
G1 X110 Y148.845 E.05256
G1 X108.991 Y148.711 E.05256
G1 X108.051 Y148.318 E.05256
G1 X107.247 Y147.694 E.05256
G1 X106.633 Y146.882 E.05256
G1 X106.252 Y145.937 E.05256
G1 X106.11 Y144.751 E.06169
G1 X106.011 Y144.447 E.01646
G1 X105.291 Y144.289 F9000
;WIDTH:0.464008
G1 F900
G1 X105.423 Y144.252 E.00649
;WIDTH:0.5
G1 X105.6 Y144.202 E.00948
G1 X105.8 Y143.942 E.01695
G1 X106.279 Y142.804 E.06371
G1 X106.964 Y141.919 E.0578
G1 X107.854 Y141.24 E.0578
G1 X108.89 Y140.813 E.0578
G1 X110 Y140.668 E.0578
G1 X111.11 Y140.813 E.0578
G1 X112.146 Y141.24 E.0578
G1 X113.036 Y141.919 E.0578
G1 X113.721 Y142.804 E.0578
G1 X114.198 Y143.94 E.06356
G1 X114.4 Y144.202 E.01709
G1 X114.577 Y144.252 E.00948
;WIDTH:0.464009
G1 X114.754 Y144.302 E.0087
G1 X114.598 Y144.399 E.0087
;WIDTH:0.5
G1 X114.442 Y144.497 E.00948
G1 X114.322 Y144.802 E.01695
G1 X114.173 Y146.046 E.06468
G1 X113.749 Y147.098 E.05853
G1 X113.066 Y148.003 E.05853
G1 X112.17 Y148.698 E.05853
G1 X111.124 Y149.135 E.05853
G1 X110 Y149.284 E.05853
G1 X108.876 Y149.135 E.05853
G1 X107.83 Y148.698 E.05853
G1 X106.934 Y148.003 E.05853
G1 X106.251 Y147.098 E.05853
G1 X105.827 Y146.046 E.05853
G1 X105.679 Y144.813 E.06413
G1 X105.558 Y144.497 E.01748
G1 X105.402 Y144.399 E.00948
;WIDTH:0.464008
G1 X105.246 Y144.302 E.0087
G1 X105.253 Y144.3 E.00032
;WIPE_START
G1 X105.423 Y144.252
G1 X105.6 Y144.202
G1 X105.685 Y144.092
;WIPE_END
G1 X78.707 Y145.629 F9000
;WIDTH:0.5
G1 F900
G1 X78.265 Y146.599 E.05502
G1 X77.575 Y147.412 E.05502
G1 X76.69 Y148.005 E.05502
G1 X75.676 Y148.334 E.05502
G1 X74.611 Y148.374 E.05502
G1 X73.575 Y148.122 E.05502
G1 X72.648 Y147.597 E.05502
G1 X71.899 Y146.838 E.05502
G1 X71.386 Y145.904 E.05502
G1 X71.147 Y144.865 E.05502
G1 X71.201 Y143.801 E.05502
G1 X71.543 Y142.791 E.05502
G1 X72.147 Y141.914 E.05502
G1 X72.969 Y141.234 E.05502
G1 X73.944 Y140.805 E.05502
G1 X75.182 Y140.633 E.06451
G1 X75.515 Y140.518 E.01817
G1 X75.808 Y140.714 E.01817
G1 X76.933 Y141.175 E.06278
G1 X77.753 Y141.808 E.05346
G1 X78.375 Y142.636 E.05346
G1 X78.822 Y143.767 E.06278
G1 X79.014 Y144.062 E.01817
G1 X78.895 Y144.394 E.01817
G1 X78.713 Y145.59 E.06245
G1 X79.769 Y143.974 F9000
;WIDTH:0.464014
G1 F900
G1 X79.613 Y144.065 E.00854
;WIDTH:0.5
G1 X79.457 Y144.155 E.00931
G1 X79.326 Y144.459 E.01711
G1 X79.129 Y145.755 E.06764
G1 X78.637 Y146.835 E.06127
G1 X77.868 Y147.74 E.06127
G1 X76.882 Y148.401 E.06127
G1 X75.753 Y148.767 E.06127
G1 X74.567 Y148.812 E.06127
G1 X73.414 Y148.531 E.06127
G1 X72.381 Y147.946 E.06127
G1 X71.547 Y147.101 E.06127
G1 X70.975 Y146.061 E.06127
G1 X70.709 Y144.904 E.06127
G1 X70.769 Y143.718 E.06127
G1 X71.15 Y142.594 E.06127
G1 X71.823 Y141.617 E.06127
G1 X72.738 Y140.86 E.06127
G1 X73.824 Y140.382 E.06127
G1 X75.122 Y140.201 E.06764
G1 X75.428 Y140.074 E.01711
G1 X75.521 Y139.919 E.00931
;WIDTH:0.464013
G1 X75.613 Y139.764 E.00854
G1 X75.663 Y139.937 E.00854
;WIDTH:0.5
G1 X75.712 Y140.111 E.00931
G1 X75.976 Y140.312 E.01711
G1 X77.153 Y140.794 E.06567
G1 X78.066 Y141.499 E.05954
G1 X78.759 Y142.421 E.05954
G1 X79.225 Y143.6 E.06543
G1 X79.424 Y143.87 E.01734
G1 X79.597 Y143.922 E.00931
;WIDTH:0.464014
G1 X79.731 Y143.963 E.00664
;WIPE_START
G1 X79.613 Y144.065
G1 X79.457 Y144.155
G1 X79.392 Y144.306
;WIPE_END
G1 X76.918 Y113.336 F9000
;WIDTH:0.5
G1 F900
G1 X75.806 Y113.789 E.06197
G1 X75.515 Y113.984 E.01805
G1 X75.184 Y113.87 E.01805
G1 X73.929 Y113.693 E.06543
G1 X72.942 Y113.251 E.05581
G1 X72.116 Y112.553 E.05581
G1 X71.515 Y111.654 E.05581
G1 X71.187 Y110.624 E.05581
G1 X71.157 Y109.543 E.05581
G1 X71.427 Y108.496 E.05581
G1 X71.976 Y107.565 E.05581
G1 X72.762 Y106.822 E.05581
G1 X73.723 Y106.325 E.05581
G1 X74.783 Y106.114 E.05581
G1 X75.861 Y106.205 E.05581
G1 X76.871 Y106.591 E.05581
G1 X77.884 Y107.353 E.06543
G1 X78.198 Y107.506 E.01805
G1 X78.2 Y107.619 E.00583
G1 X78.271 Y107.861 E.013
G1 X78.732 Y108.956 E.06133
G1 X78.869 Y109.964 E.05253
G1 X78.738 Y110.974 E.05253
G1 X78.349 Y111.914 E.05253
G1 X77.727 Y112.72 E.05253
G1 X76.949 Y113.312 E.05047
G1 X77.135 Y113.718 F9000
G1 F900
G1 X75.981 Y114.188 E.06431
G1 X75.711 Y114.393 E.01754
G1 X75.665 Y114.593 E.01058
;WIDTH:0.454434
G1 X75.62 Y114.793 E.00947
G1 X75.525 Y114.611 E.00947
;WIDTH:0.5
G1 X75.43 Y114.43 E.01058
G1 X75.124 Y114.301 E.01716
G1 X73.808 Y114.115 E.0686
G1 X72.708 Y113.623 E.06216
G1 X71.788 Y112.846 E.06216
G1 X71.119 Y111.845 E.06216
G1 X70.753 Y110.698 E.06216
G1 X70.72 Y109.494 E.06216
G1 X71.02 Y108.328 E.06216
G1 X71.632 Y107.29 E.06216
G1 X72.507 Y106.463 E.06216
G1 X73.577 Y105.91 E.06216
G1 X74.758 Y105.675 E.06216
G1 X75.959 Y105.776 E.06216
G1 X77.084 Y106.206 E.06216
G1 X78.146 Y107.005 E.0686
G1 X78.453 Y107.131 E.01716
G1 X78.627 Y107.087 E.00925
;WIDTH:0.464021
G1 X78.801 Y107.042 E.00848
G1 X78.713 Y107.199 E.00848
;WIDTH:0.5
G1 X78.626 Y107.355 E.00925
G1 X78.672 Y107.692 E.01754
G1 X79.156 Y108.84 E.06431
G1 X79.308 Y109.963 E.0585
G1 X79.163 Y111.087 E.0585
G1 X78.729 Y112.134 E.0585
G1 X78.037 Y113.032 E.0585
G1 X77.167 Y113.694 E.05643
;WIPE_START
G1 X76.706 Y113.886
;WIPE_END
G1 X110 Y78.845 F9000
G1 F900
G1 X108.986 Y78.709 E.05283
G1 X107.875 Y78.243 E.06217
G1 X107.53 Y78.174 E.01815
G1 X107.376 Y77.858 E.01815
G1 X106.621 Y76.858 E.06468
G1 X106.235 Y75.862 E.05516
G1 X106.136 Y74.797 E.05517
G1 X106.333 Y73.747 E.05516
G1 X106.809 Y72.79 E.05516
G1 X107.529 Y72 E.05516
G1 X108.438 Y71.438 E.05517
G1 X109.466 Y71.145 E.05516
G1 X110.534 Y71.145 E.05516
G1 X111.562 Y71.438 E.05516
G1 X112.471 Y72 E.05517
G1 X113.191 Y72.79 E.05516
G1 X113.667 Y73.747 E.05516
G1 X113.864 Y74.797 E.05516
G1 X113.765 Y75.862 E.05517
G1 X113.379 Y76.858 E.05517
G1 X112.624 Y77.858 E.06468
G1 X112.47 Y78.174 E.01815
G1 X112.354 Y78.177 E.00598
G1 X112.116 Y78.246 E.01281
G1 X111.014 Y78.709 E.06167
G1 X110.04 Y78.84 E.05076
G1 X110 Y79.284 F9000
G1 F900
G1 X108.87 Y79.134 E.05883
G1 X107.715 Y78.648 E.06467
G1 X107.381 Y78.602 E.01741
G1 X107.207 Y78.711 E.01062
;WIDTH:0.454425
G1 X107.032 Y78.821 E.00951
G1 X107.093 Y78.624 E.00951
;WIDTH:0.5
G1 X107.155 Y78.427 E.01062
G1 X107.028 Y78.121 E.01712
G1 X106.237 Y77.072 E.06782
G1 X105.807 Y75.962 E.06144
G1 X105.697 Y74.777 E.06144
G1 X105.916 Y73.607 E.06144
G1 X106.446 Y72.542 E.06144
G1 X107.248 Y71.662 E.06144
G1 X108.26 Y71.035 E.06144
G1 X109.405 Y70.71 E.06144
G1 X110.595 Y70.71 E.06144
G1 X111.74 Y71.035 E.06144
G1 X112.752 Y71.662 E.06144
G1 X113.554 Y72.542 E.06144
G1 X114.084 Y73.607 E.06144
G1 X114.303 Y74.777 E.06144
G1 X114.193 Y75.962 E.06144
G1 X113.763 Y77.072 E.06144
G1 X112.972 Y78.121 E.06782
G1 X112.845 Y78.427 E.01712
G1 X112.907 Y78.624 E.01062
;WIDTH:0.454425
G1 X112.968 Y78.821 E.00951
G1 X112.793 Y78.711 E.00951
;WIDTH:0.5
G1 X112.619 Y78.602 E.01062
G1 X112.29 Y78.646 E.01712
G1 X111.13 Y79.134 E.06497
G1 X110.04 Y79.279 E.05676
;WIPE_START
G1 X109.543 Y79.217
;WIPE_END
G1 X105.196 Y143.904 F9000
;TYPE:Outer wall
G1 F900
G1 X79.83 Y143.578 E1.30945
G1 X79.653 Y143.484 E.01034
G1 X79.143 Y142.207 E.07099
G1 X78.379 Y141.191 E.06561
G1 X77.373 Y140.414 E.06561
G1 X76.144 Y139.91 E.06855
G1 X76.056 Y139.843 E.0057
G1 X76.01 Y139.709 E.00731
G1 X76.01 Y114.793 E1.28607
M73 P1 R48
G1 X76.102 Y114.616 E.01031
G1 X77.353 Y114.1 E.06988
G1 X78.347 Y113.343 E.06446
G1 X79.109 Y112.354 E.06446
G1 X79.587 Y111.2 E.06446
G1 X79.748 Y109.962 E.06446
G1 X79.58 Y108.724 E.06446
G1 X79.073 Y107.52 E.06742
G1 X79.058 Y107.41 E.00572
G1 X79.107 Y107.298 E.00631
G1 X107.308 Y79.096 E2.0586
G1 X107.499 Y79.036 E.01033
G1 X108.755 Y79.558 E.07022
G1 X110 Y79.724 E.06483
G1 X111.245 Y79.558 E.06483
G1 X112.455 Y79.049 E.06777
G1 X112.565 Y79.034 E.00571
G1 X112.802 Y79.206 E.01509
G1 X140.88 Y107.284 E2.0496
G1 X140.94 Y107.474 E.01031
G1 X140.42 Y108.724 E.06988
G1 X140.252 Y109.962 E.06446
G1 X140.413 Y111.2 E.06446
G1 X140.891 Y112.354 E.06446
G1 X141.653 Y113.343 E.06446
G1 X142.647 Y114.1 E.06446
G1 X143.857 Y114.592 E.06742
G1 X143.945 Y114.66 E.00572
G1 X143.99 Y114.948 E.01506
G1 X143.99 Y139.709 E1.27806
G1 X143.898 Y139.887 E.01034
G1 X142.627 Y140.414 E.07099
G1 X141.621 Y141.191 E.06561
G1 X140.857 Y142.207 E.06561
G1 X140.37 Y143.442 E.06855
G1 X140.304 Y143.53 E.0057
G1 X140.17 Y143.578 E.00731
G1 X114.804 Y143.904 E1.30945
G1 X114.623 Y143.813 E.01044
G1 X114.101 Y142.583 E.06896
G1 X113.346 Y141.607 E.06369
G1 X112.364 Y140.859 E.06369
G1 X111.224 Y140.389 E.06369
G1 X110 Y140.228 E.06369
G1 X108.776 Y140.389 E.06369
G1 X107.636 Y140.859 E.06369
G1 X106.654 Y141.607 E.06369
G1 X105.899 Y142.583 E.06369
G1 X105.4 Y143.772 E.06655
G1 X105.333 Y143.858 E.00565
G1 X105.234 Y143.891 E.00536
;WIPE_START
G1 X104.734 Y143.885
;WIPE_END
G1 X110 Y149.724 F9000
G1 F900
G1 X108.761 Y149.559 E.0645
G1 X107.608 Y149.078 E.06449
G1 X106.621 Y148.312 E.0645
G1 X105.868 Y147.315 E.0645
G1 X105.401 Y146.156 E.0645
G1 X105.326 Y145.532 E.03242
G1 X105.205 Y144.752 E.04073
G1 X105.032 Y144.662 E.01009
G1 X79.975 Y144.34 E1.29346
G1 X79.8 Y144.424 E.00998
G1 X79.757 Y144.525 E.0057
G1 X79.55 Y145.88 E.07077
G1 X79.008 Y147.071 E.06753
G1 X78.161 Y148.068 E.06753
G1 X77.074 Y148.796 E.06753
G1 X75.83 Y149.201 E.06753
G1 X74.523 Y149.25 E.06753
G1 X73.252 Y148.94 E.06753
G1 X72.113 Y148.295 E.06753
G1 X71.194 Y147.364 E.06753
G1 X70.564 Y146.218 E.06753
G1 X70.271 Y144.943 E.06753
G1 X70.337 Y143.636 E.06753
G1 X70.757 Y142.397 E.06753
G1 X71.499 Y141.32 E.06753
G1 X72.507 Y140.486 E.06753
G1 X73.704 Y139.959 E.06753
G1 X75.046 Y139.772 E.06994
G1 X75.164 Y139.727 E.00651
G1 X75.25 Y139.554 E.00998
G1 X75.25 Y114.948 E1.27007
G1 X75.165 Y114.775 E.00994
G1 X75.063 Y114.732 E.00572
G1 X73.686 Y114.538 E.07178
G1 X72.474 Y113.996 E.06851
G1 X71.46 Y113.14 E.06851
G1 X70.723 Y112.036 E.06851
G1 X70.32 Y110.771 E.06851
G1 X70.282 Y109.444 E.06851
G1 X70.614 Y108.159 E.06851
G1 X71.288 Y107.016 E.06851
G1 X72.253 Y106.104 E.06851
G1 X73.432 Y105.495 E.06851
G1 X74.734 Y105.236 E.06851
G1 X76.056 Y105.348 E.06851
G1 X77.296 Y105.821 E.06851
G1 X78.386 Y106.641 E.0704
G1 X78.51 Y106.699 E.00706
G1 X78.693 Y106.637 E.00994
G1 X106.661 Y78.669 E2.0416
G1 X106.723 Y78.486 E.00997
