; HEADER_BLOCK_START
; generated by OrcaSlicer 1.7.0 on 2023-11-07 at 09:59:22
; total layer number: 83
; HEADER_BLOCK_END

; THUMBNAIL_BLOCK_START
; THUMBNAIL_BLOCK_END

; external perimeters extrusion width = 0.40mm
; perimeters extrusion width = 0.45mm
; infill extrusion width = 0.45mm
; solid infill extrusion width = 0.40mm
; top infill extrusion width = 0.40mm
; first layer extrusion width = 0.50mm

; EXECUTABLE_BLOCK_START
EXCLUDE_OBJECT_DEFINE NAME=X_axis_cable_chain_mount.stl_id_0_copy_0 CENTER=109.976,109.978 POLYGON=[[74.0339,99.1196],[74.1609,97.7179],[74.5564,96.7929],[74.7146,96.4229],[74.7961,96.2934],[75.3513,95.5853],[75.5734,95.302],[76.5624,94.4605],[77.7559,93.7748],[78.7447,93.4011],[79.1402,93.2516],[80.7034,92.8965],[82.4295,92.7125],[84.3031,92.7016],[139.155,92.7016],[144.578,96.1135],[145.121,96.4555],[145.36,97.5016],[145.919,99.9593],[145.252,101.02],[145.109,101.247],[133.54,119.527],[133.527,119.534],[133.522,119.536],[122.817,124.739],[118.312,126.928],[118.066,127.047],[117.15,127.255],[74.9744,102.614],[74.4013,101.861],[74.0671,100.721],[74.0339,99.1196]]
M73 P0 R32
;TYPE:Custom
START_PRINT EXTRUDER_TEMP=245  BED_TEMP=80
G90
G21
M83 ; use relative distances for extrusion
; filament start gcode
M106 S0
;LAYER_CHANGE
;Z:0.2
;HEIGHT:0.2
;BEFORE_LAYER_CHANGE
;0.2
G92 E0

G1 E-6 F1800
;_SET_FAN_SPEED_CHANGING_LAYER
SET_VELOCITY_LIMIT ACCEL=500 ACCEL_TO_DECEL=250
G1 Z.4 F12000
G1 X68.305 Y84.756
G1 Z.4
G1 Z.2
G1 E6 F1800
;TYPE:Skirt
;WIDTH:0.5
G1 F900
G1 X70.214 Y83.412 E.08873
G1 X71.408 Y82.726 E.05231
G1 X73.251 Y81.855 E.07747
G1 X74.635 Y81.332 E.05624
G1 X76.318 Y80.826 E.06679
G1 X77.881 Y80.471 E.06092
G1 X79.352 Y80.226 E.0567
G1 X82.355 Y79.97 E.11454
G1 X139.131 Y79.965 E2.15782
G1 X142.292 Y80.364 E.12111
G1 X145.915 Y81.922 E.1499
G1 X151.913 Y85.696 E.26933
G1 X154.377 Y87.717 E.12111
G1 X156.262 Y90.286 E.12111
G1 X157.552 Y93.653 E.13705
G1 X158.344 Y97.131 E.13557
G1 X158.657 Y100.302 E.12111
G1 X158.173 Y103.452 E.12111
G1 X156.704 Y106.745 E.13705
G1 X144.307 Y126.341 E.8813
G1 X142.28 Y128.8 E.12111
G1 X139.11 Y130.988 E.1464
G1 X123.636 Y138.508 E.65387
G1 X120.887 Y139.474 E.11074
G1 X119.971 Y139.682 E.03571
G1 X116.799 Y139.993 E.12111
G1 X113.65 Y139.508 E.12111
G1 X110.722 Y138.257 E.12101
G1 X68.546 Y113.616 E1.85647
G1 X66.018 Y111.678 E.12111
G1 X64.835 Y110.333 E.06806
G1 X64.262 Y109.58 E.03596
G1 X62.173 Y105.446 E.17604
G1 X61.839 Y104.306 E.04515
G1 X61.327 Y100.985 E.1277
G1 X61.343 Y97.97 E.11458
G1 X61.47 Y96.569 E.05349
G1 X62.444 Y92.708 E.15131
G1 X62.998 Y91.413 E.05353
G1 X63.929 Y89.637 E.07623
G1 X64.769 Y88.431 E.05585
G1 X65.546 Y87.439 E.04788
G1 X67.316 Y85.597 E.0971
G1 X68.275 Y84.781 E.04784
G1 X68.571 Y85.13 F12000
G1 F900
G1 X68.601 Y85.104 E.00152
G1 X70.442 Y83.808 E.08555
G1 X71.636 Y83.122 E.05231
G1 X73.412 Y82.283 E.07469
G1 X74.797 Y81.76 E.05624
G1 X76.419 Y81.271 E.06439
G1 X77.982 Y80.916 E.06092
G1 X79.401 Y80.68 E.05467
G1 X82.358 Y80.427 E.1128
G1 X139.131 Y80.422 E2.15772
M73 P1 R32
G1 X142.234 Y80.821 E.11891
G1 X145.672 Y82.309 E.14238
G1 X151.67 Y86.083 E.26933
G1 X154.084 Y88.073 E.11891
G1 X155.918 Y90.608 E.11891
G1 X157.106 Y93.755 E.12785
G1 X157.898 Y97.233 E.13557
G1 X158.198 Y100.347 E.11891
G1 X157.702 Y103.436 E.11891
G1 X156.317 Y106.502 E.12785
G1 X155.507 Y107.789 E.05781
G1 X143.921 Y126.097 E.82345
G1 X141.925 Y128.506 E.11891
G1 X138.91 Y130.577 E.13901
G1 X123.436 Y138.097 E.65387
G1 X120.786 Y139.028 E.10677
G1 X119.87 Y139.236 E.03571
G1 X116.755 Y139.534 E.11891
G1 X113.666 Y139.036 E.11891
G1 X110.953 Y137.863 E.11238
G1 X68.777 Y113.222 E1.85647
G1 X66.298 Y111.312 E.11891
G1 X65.199 Y110.056 E.06346
G1 X64.626 Y109.303 E.03596
G1 X62.612 Y105.317 E.16973
G1 X62.278 Y104.177 E.04515
G1 X61.784 Y100.975 E.12312
G1 X61.799 Y98.011 E.11265
G1 X61.926 Y96.61 E.05349
G1 X62.865 Y92.888 E.14588
G1 X63.418 Y91.593 E.05353
G1 X64.316 Y89.88 E.07349
G1 X65.128 Y88.713 E.05405
G1 X65.906 Y87.721 E.04788
G1 X67.612 Y85.945 E.09362
G1 X68.54 Y85.155 E.04632
G1 X68.837 Y85.504 F12000
G1 F900
G1 X68.897 Y85.452 E.00304
G1 X70.67 Y84.205 E.08237
G1 X71.863 Y83.519 E.05231
G1 X73.574 Y82.71 E.07191
G1 X74.958 Y82.187 E.05624
G1 X76.52 Y81.717 E.062
G1 X78.083 Y81.362 E.06092
G1 X79.449 Y81.135 E.05263
G1 X82.361 Y80.884 E.11105
G1 X139.131 Y80.879 E2.15762
M73 P2 R32
G1 X142.174 Y81.278 E.11667
G1 X145.428 Y82.696 E.13491
G1 X151.426 Y86.47 E.26933
G1 X153.79 Y88.428 E.11667
M73 P2 R31
G1 X155.571 Y90.928 E.11667
G1 X156.661 Y93.856 E.11874
G1 X157.452 Y97.334 E.13557
G1 X157.739 Y100.39 E.11667
G1 X157.23 Y103.418 E.11667
G1 X155.931 Y106.258 E.11874
G1 X155.104 Y107.572 E.05899
G1 X143.535 Y125.853 E.82222
G1 X141.571 Y128.211 E.11667
G1 X138.71 Y130.166 E.13166
G1 X123.237 Y137.686 E.65387
G1 X120.685 Y138.582 E.1028
G1 X119.768 Y138.79 E.03571
G1 X116.712 Y139.075 E.11667
G1 X113.685 Y138.565 E.11667
G1 X111.183 Y137.468 E.10383
G1 X69.007 Y112.827 E1.85647
G1 X66.58 Y110.948 E.11667
G1 X65.563 Y109.779 E.0589
G1 X64.99 Y109.026 E.03596
G1 X63.051 Y105.189 E.16341
G1 X62.716 Y104.048 E.04515
G1 X62.241 Y100.966 E.11854
G1 X62.254 Y98.053 E.11073
G1 X62.381 Y96.651 E.05349
G1 X63.285 Y93.068 E.14045
G1 X63.839 Y91.773 E.05353
G1 X64.703 Y90.124 E.07076
G1 X65.488 Y88.995 E.05226
G1 X66.265 Y88.003 E.04788
G1 X67.908 Y86.293 E.09014
G1 X68.806 Y85.53 E.0448
G1 X69.102 Y85.878 F12000
G1 F900
G1 X69.194 Y85.8 E.00456
G1 X70.897 Y84.601 E.07918
G1 X72.091 Y83.915 E.05231
G1 X73.736 Y83.138 E.06913
G1 X75.12 Y82.615 E.05624
G1 X76.621 Y82.163 E.0596
G1 X78.185 Y81.808 E.06092
G1 X79.498 Y81.589 E.0506
G1 X82.363 Y81.341 E.10931
G1 X139.13 Y81.336 E2.15751
G1 X142.113 Y81.735 E.11438
G1 X145.185 Y83.083 E.12748
G1 X151.183 Y86.857 E.26933
G1 X153.496 Y88.782 E.11438
G1 X155.222 Y91.247 E.11438
G1 X156.215 Y93.958 E.1097
G1 X157.007 Y97.436 E.13557
G1 X157.28 Y100.433 E.11438
G1 X156.758 Y103.396 E.11438
G1 X155.544 Y106.015 E.1097
G1 X143.149 Y125.608 E.88116
M73 P3 R31
G1 X141.217 Y127.916 E.11438
G1 X138.51 Y129.755 E.12436
G1 X123.037 Y137.275 E.65387
G1 X120.584 Y138.136 E.09882
G1 X119.667 Y138.344 E.03571
G1 X116.67 Y138.616 E.11438
G1 X113.706 Y138.092 E.11438
G1 X111.414 Y137.074 E.09536
G1 X69.238 Y112.432 E1.85647
G1 X65.927 Y109.502 E.16806
G1 X65.353 Y108.749 E.03596
G1 X63.489 Y105.06 E.1571
G1 X63.155 Y103.92 E.04515
G1 X62.698 Y100.957 E.11396
G1 X62.709 Y98.094 E.1088
G1 X62.836 Y96.692 E.05349
G1 X63.705 Y93.247 E.13503
G1 X64.259 Y91.952 E.05353
G1 X65.09 Y90.367 E.06803
G1 X65.848 Y89.277 E.05046
G1 X66.625 Y88.286 E.04788
G1 X68.205 Y86.641 E.08665
G1 X69.072 Y85.904 E.04328
G1 X69.368 Y86.252 F12000
G1 F900
G1 X69.49 Y86.148 E.00608
G1 X71.125 Y84.997 E.076
G1 X72.319 Y84.311 E.05231
G1 X73.897 Y83.566 E.06635
G1 X75.281 Y83.042 E.05624
G1 X76.723 Y82.609 E.0572
G1 X78.286 Y82.253 E.06092
G1 X79.546 Y82.044 E.04856
G1 X82.366 Y81.798 E.10757
G1 X139.13 Y81.793 E2.15741
G1 X142.051 Y82.192 E.11205
G1 X144.941 Y83.47 E.1201
G1 X150.94 Y87.244 E.26933
G1 X153.2 Y89.136 E.11205
G1 X154.871 Y91.565 E.11205
G1 X155.769 Y94.059 E.10076
G1 X156.561 Y97.537 E.13557
G1 X156.821 Y100.474 E.11205
G1 X156.286 Y103.373 E.11205
G1 X155.157 Y105.772 E.10076
G1 X142.762 Y125.364 E.88112
G1 X140.864 Y127.619 E.11205
G1 X138.311 Y129.343 E.1171
G1 X122.837 Y136.863 E.65387
G1 X120.482 Y137.691 E.09485
G1 X119.566 Y137.899 E.03571
G1 X116.629 Y138.157 E.11205
M73 P4 R31
G1 X113.73 Y137.62 E.11205
G1 X111.644 Y136.679 E.08698
G1 X69.469 Y112.038 E1.85647
G1 X66.29 Y109.225 E.16131
G1 X65.717 Y108.472 E.03596
G1 X63.928 Y104.931 E.15078
G1 X63.594 Y103.791 E.04515
G1 X63.155 Y100.947 E.10938
G1 X63.164 Y98.135 E.10687
G1 X63.291 Y96.733 E.05349
G1 X64.126 Y93.427 E.1296
G1 X64.679 Y92.132 E.05353
G1 X65.477 Y90.611 E.06529
G1 X66.207 Y89.559 E.04867
G1 X66.985 Y88.568 E.04788
G1 X68.501 Y86.99 E.08317
G1 X69.338 Y86.278 E.04176
G1 X69.634 Y86.626 F12000
G1 F900
G1 X69.786 Y86.496 E.0076
G1 X71.353 Y85.393 E.07282
G1 X72.546 Y84.708 E.05231
G1 X74.059 Y83.993 E.06357
G1 X75.443 Y83.47 E.05624
G1 X76.824 Y83.054 E.05481
G1 X78.387 Y82.699 E.06092
G1 X79.595 Y82.498 E.04653
G1 X82.369 Y82.256 E.10583
G1 X139.13 Y82.25 E2.15731
G1 X141.988 Y82.649 E.10966
G1 X144.698 Y83.857 E.11276
G1 X150.696 Y87.63 E.26933
G1 X152.903 Y89.489 E.10966
G1 X154.518 Y91.88 E.10966
G1 X155.324 Y94.161 E.09191
G1 X156.115 Y97.639 E.13557
G1 X156.361 Y100.513 E.10966
G1 X155.812 Y103.346 E.10966
G1 X154.77 Y105.528 E.09191
G1 X142.376 Y125.119 E.88107
G1 X140.511 Y127.321 E.10966
G1 X138.111 Y128.932 E.10988
G1 X122.637 Y136.452 E.65387
G1 X120.381 Y137.245 E.09088
G1 X119.465 Y137.453 E.03571
G1 X116.59 Y137.697 E.10966
G1 X113.757 Y137.147 E.10966
G1 X111.875 Y136.284 E.0787
G1 X69.699 Y111.643 E1.85647
M73 P5 R31
G1 X66.654 Y108.948 E.15455
G1 X66.081 Y108.195 E.03596
G1 X64.366 Y104.803 E.14447
G1 X64.032 Y103.663 E.04515
G1 X63.612 Y100.938 E.1048
G1 X63.619 Y98.176 E.10495
G1 X63.746 Y96.775 E.05349
G1 X64.546 Y93.607 E.12417
G1 X65.1 Y92.312 E.05353
G1 X65.864 Y90.854 E.06256
G1 X66.567 Y89.841 E.04687
G1 X67.344 Y88.85 E.04788
G1 X68.797 Y87.338 E.07969
G1 X69.603 Y86.652 E.04023
; printing object X axis cable chain mount.stl id:0 copy 0
G1 E-4.2 F1800
;WIPE_START
G1 F900
G1 X69.786 Y86.496 E-.432
G1 X70.408 Y86.059 E-1.368
;WIPE_END
EXCLUDE_OBJECT_START NAME=X_axis_cable_chain_mount.stl_id_0_copy_0
G1 Z.6 F12000
G1 X122.987 Y111.511 Z.6
M73 P5 R30
G1 Z.2
G1 E6 F1800
;TYPE:Inner wall
;WIDTH:0.499999
G1 F900
G1 X123.006 Y111.484 E.00125
G1 X123.117 Y111.111 E.01477
G1 X123.108 Y110.785 E.0124
G1 X122.878 Y109.438 E.05194
G1 X123.019 Y108.393 E.0401
G1 X125.309 Y104.729 E.16421
;WIDTH:0.474175
G1 X125.441 Y104.495 E.00964
;WIDTH:0.448955
G1 X125.972 Y103.604 E.035
;WIDTH:0.399779
G1 X126.503 Y102.714 E.03076
;WIDTH:0.350602
G1 X127.034 Y101.824 E.02652
;WIDTH:0.301425
G1 X127.152 Y101.636 E.00477
;WIDTH:0.350602
G1 X127.725 Y100.772 E.02652
;WIDTH:0.399779
G1 X128.298 Y99.908 E.03076
;WIDTH:0.448956
G1 X128.871 Y99.044 E.035
;WIDTH:0.48339
G1 X129.028 Y98.825 E.00986
;WIDTH:0.499999
G1 X131.104 Y95.543 E.1476
G1 X131.986 Y94.964 E.0401
G1 X132.957 Y94.686 E.03841
G1 X134.461 Y95.611 E.06711
G1 X134.857 Y95.692 E.01536
G1 X134.444 Y95.748 E.01583
G1 X134.09 Y95.86 E.01412
G1 X132.083 Y96.876 E.08547
G1 X131.551 Y97.184 E.02338
G1 X129.347 Y99.099 E.11098
;WIDTH:0.48339
G1 X129.203 Y99.276 E.00833
;WIDTH:0.448956
G1 X128.59 Y100.112 E.035
;WIDTH:0.399779
G1 X127.977 Y100.948 E.03076
;WIDTH:0.350602
G1 X127.364 Y101.784 E.02652
;WIDTH:0.301425
G1 X127.259 Y101.951 E.00425
;WIDTH:0.350602
G1 X126.771 Y102.865 E.02652
;WIDTH:0.399779
G1 X126.282 Y103.78 E.03076
;WIDTH:0.448955
G1 X125.794 Y104.694 E.035
;WIDTH:0.474175
G1 X125.701 Y104.901 E.00813
;WIDTH:0.499999
G1 X124.924 Y107.716 E.11098
G1 X124.884 Y107.991 E.01057
G1 X124.83 Y110.577 E.09832
G1 X124.882 Y110.945 E.01412
G1 X125.616 Y113.221 E.09087
G1 X125.8 Y113.484 E.0122
G1 X127.113 Y114.89 E.07312
G1 X127.52 Y115.19 E.01921
G1 X132.802 Y118.514 E.2372
G1 X132.732 Y118.626 E.00501
G1 X117.684 Y125.939 E.63589
G1 X117.363 Y126.009 E.01248
G1 X117.558 Y125.891 E.00866
G1 X117.839 Y125.661 E.01381
G1 X118.643 Y124.754 E.04607
G1 X118.84 Y124.439 E.01412
G1 X119.312 Y123.32 E.04614
G1 X119.398 Y122.962 E.014
G1 X119.489 Y121.745 E.04641
G1 X119.459 Y121.384 E.01376
G1 X119.161 Y120.185 E.04697
G1 X119.024 Y119.86 E.0134
G1 X118.368 Y118.797 E.04745
G1 X118.143 Y118.533 E.01321
G1 X117.221 Y117.737 E.04628
G1 X116.9 Y117.528 E.01456
G1 X115.747 Y117.025 E.0478
G1 X115.412 Y116.937 E.01319
G1 X114.169 Y116.805 E.04749
G1 X113.817 Y116.822 E.01341
G1 X112.606 Y117.073 E.04697
G1 X112.27 Y117.2 E.01368
G1 X111.21 Y117.81 E.04647
G1 X110.923 Y118.043 E.01403
G1 X110.253 Y118.8 E.03845
G1 X109.929 Y118.818 E.01234
G1 X109.208 Y118.736 E.02756
G1 X108.845 Y117.866 E.03582
G1 X107.813 Y115.912 E.08402
G1 X106.469 Y113.869 E.09293
G1 X105.001 Y112.052 E.08877
G1 X103.442 Y110.455 E.08483
G1 X101.573 Y108.869 E.09317
G1 X99.737 Y107.589 E.08504
G1 X97.699 Y106.432 E.08908
G1 X95.561 Y105.472 E.08908
G1 X93.346 Y104.719 E.08892
G1 X90.965 Y104.162 E.09292
G1 X88.652 Y103.854 E.08868
G1 X86.329 Y103.77 E.08836
G1 X85.454 Y103.821 E.03331
G1 X85.144 Y103.329 E.02208
G1 X84.899 Y102.828 E.02122
G1 X85.184 Y102.15 E.02797
G1 X85.371 Y101.553 E.02375
G1 X85.462 Y100.336 E.04641
G1 X85.431 Y99.975 E.01376
G1 X85.134 Y98.775 E.04697
G1 X84.997 Y98.45 E.0134
G1 X84.341 Y97.388 E.04745
G1 X84.116 Y97.123 E.01321
G1 X83.266 Y96.39 E.04267
G1 X82.873 Y96.118 E.01815
G1 X81.72 Y95.616 E.0478
G1 X81.384 Y95.528 E.01319
G1 X80.142 Y95.395 E.04749
G1 X79.789 Y95.413 E.01344
G1 X78.872 Y95.603 E.0356
;WIDTH:0.54676
G1 X78.786 Y95.598 E.00361
;WIDTH:0.59352
G1 X78.7 Y95.592 E.00395
;WIDTH:0.640281
G1 X78.614 Y95.586 E.00428
;WIDTH:0.687041
G1 X78.528 Y95.58 E.00462
G1 X78.196 Y95.712 E.0191
;WIDTH:0.685235
G1 X77.392 Y96.189 E.04993
;WIDTH:0.65887
G1 X77.15 Y96.343 E.0147
;WIDTH:0.632504
G1 X76.852 Y96.594 E.01911
;WIDTH:0.62154
G1 X76.463 Y97.06 E.02922
;WIDTH:0.585818
G1 X76.074 Y97.527 E.02742
;WIDTH:0.550095
G1 X75.761 Y98.158 E.02971
;WIDTH:0.515196
G1 X75.416 Y98.983 E.03513
;WIDTH:0.544042
G1 X75.358 Y99.167 E.00805
;WIDTH:0.572888
G1 X75.3 Y99.352 E.00851
G1 X75.264 Y99.144 E.0093
;WIDTH:0.544042
G1 X75.227 Y98.936 E.00879
;WIDTH:0.515196
G1 X75.326 Y97.974 E.038
;WIDTH:0.550095
G1 X75.651 Y97.259 E.03312
;WIDTH:0.599077
G1 X75.935 Y96.808 E.02462
;WIDTH:0.62154
G1 X76.407 Y96.224 E.03618
;WIDTH:0.632504
G1 X76.812 Y95.863 E.02657
;WIDTH:0.65887
G1 X77.063 Y95.671 E.01621
;WIDTH:0.685235
G1 X77.314 Y95.478 E.0169
;WIDTH:0.706968
G1 X78.305 Y94.917 E.06284
;WIDTH:0.665575
G1 X78.38 Y94.862 E.00485
;WIDTH:0.624181
G1 X78.456 Y94.807 E.00453
;WIDTH:0.582787
G1 X78.532 Y94.752 E.0042
;WIDTH:0.541393
G1 X78.608 Y94.697 E.00388
;WIDTH:0.499999
G1 X79.476 Y94.369 E.03528
G1 X80.895 Y94.047 E.05527
G1 X82.495 Y93.876 E.06116
G1 X84.259 Y93.866 E.06706
G1 X86.167 Y94.021 E.07274
G1 X88.196 Y94.341 E.07809
G1 X90.323 Y94.827 E.08292
G1 X92.527 Y95.474 E.08728
G1 X94.782 Y96.277 E.09097
G1 X95.25 Y96.472 E.0193
G1 X95.691 Y96.746 E.01972
G1 X105.711 Y102.135 E.4324
G1 X105.919 Y102.218 E.00854
G1 X121.373 Y111.945 E.69399
G1 X121.66 Y112.074 E.01198
G1 X122.005 Y112.12 E.01321
G1 X122.417 Y112.034 E.016
G1 X122.81 Y111.765 E.0181
G1 X122.964 Y111.544 E.01024
G1 E-4.2 F1800
;WIPE_START
G1 F900
G1 X123.006 Y111.484 E-.13135
G1 X123.117 Y111.111 E-.69965
G1 X123.108 Y110.785 E-.58709
G1 X123.073 Y110.576 E-.38191
;WIPE_END
G1 Z.6 F12000
G1 X132.013 Y94.458 Z.6
G1 X144.748 Y97.904
G1 X144.637 Y99.575
G1 Z.2
G1 E6 F1800
G1 F900
G1 X139.412 Y96.287 E.23465
G1 X138.969 Y96.052 E.01904
G1 X137.129 Y95.476 E.07328
G1 X136.626 Y95.436 E.01919
G1 X135.247 Y95.637 E.05297
G1 X135.825 Y95.214 E.02723
G1 X136.298 Y94.546 E.03109
G1 X138.918 Y93.95 E.10212
G1 X144.099 Y97.21 E.23267
G1 X144.178 Y97.556 E.0135
G1 X144.629 Y99.536 E.07716
G1 E-4.2 F1800
;WIPE_START
G1 F900
G1 X143.78 Y99.007 E-1.8
;WIPE_END
G1 Z.6 F12000
G1 X135.686 Y94.507 Z.6
M73 P6 R30
G1 X135.035 Y95.174
G1 X126.633 Y101.412
G1 X122.703 Y111.257
G1 X122.605 Y111.322
G1 X122.587 Y111.295
G1 Z.2
G1 E6 F1800
G1 F900
G1 X122.596 Y111.282 E.00063
G1 X122.663 Y111.058 E.00886
G1 X122.658 Y110.862 E.00744
G1 X122.416 Y109.447 E.05458
G1 X122.579 Y108.233 E.04652
G1 X130.77 Y95.215 E.58456
G1 X131.793 Y94.543 E.04652
G1 X133.028 Y94.19 E.04881
G1 X134.527 Y95.134 E.06734
G1 X134.871 Y95.239 E.01365
G1 X135.096 Y95.208 E.00861
G1 X135.452 Y94.95 E.01673
G1 X136.026 Y94.14 E.03773
G1 X139.001 Y93.462 E.11596
G1 X144.503 Y96.924 E.24707
G1 X144.624 Y97.455 E.02069
G1 X145.165 Y99.831 E.09261
G1 X144.887 Y100.272 E.0198
G1 X139.168 Y96.674 E.25679
G1 X138.833 Y96.488 E.01457
G1 X136.993 Y95.913 E.07328
G1 X136.691 Y95.888 E.01151
G1 X134.509 Y96.201 E.08377
G1 X134.296 Y96.268 E.00847
G1 X132.29 Y97.284 E.08547
G1 X131.85 Y97.529 E.01916
G1 X129.64 Y99.439 E.11098
G1 X129.545 Y99.539 E.00525
G1 X127.579 Y102.112 E.12308
G1 X126.179 Y104.888 E.11817
